webapp/static/gallery_seeds/warm-golden-hour/lut.cube
LUT_3D_SIZE 17
DOMAIN_MIN 0 0 0
DOMAIN_MAX 1 1 1
0.0450000000 0.0050000000 0.0000000000
0.1104527500 0.0044685000 0.0000000000
0.1759055000 0.0039370000 0.0000000000
0.2413582500 0.0034055000 0.0000000000
0.3068110000 0.0028740000 0.0000000000
0.3722637500 0.0023425000 0.0000000000
0.4377165000 0.0018110000 0.0000000000
0.5031692500 0.0012795000 0.0000000000
0.5686220000 0.0007480000 0.0000000000
0.6340747500 0.0002165000 0.0000000000
0.6995275000 0.0000000000 0.0000000000
0.7649802500 0.0000000000 0.0000000000
0.8304330000 0.0000000000 0.0000000000
0.8958857500 0.0000000000 0.0000000000
0.9613385000 0.0000000000 0.0000000000
1.0000000000 0.0000000000 0.0000000000
1.0000000000 0.0000000000 0.0000000000
0.0423180000 0.0694620000 0.0000000000
0.1077707500 0.0689305000 0.0000000000
0.1732235000 0.0683990000 0.0000000000
0.2386762500 0.0678675000 0.0000000000
0.3041290000 0.0673360000 0.0000000000
0.3695817500 0.0668045000 0.0000000000
0.4350345000 0.0662730000 0.0000000000
0.5004872500 0.0657415000 0.0000000000
0.5659400000 0.0652100000 0.0000000000
0.6313927500 0.0646785000 0.0000000000
0.6968455000 0.0641470000 0.0000000000
0.7622982500 0.0636155000 0.0000000000
0.8277510000 0.0630840000 0.0000000000
0.8932037500 0.0625525000 0.0000000000
0.9586565000 0.0620210000 0.0000000000
1.0000000000 0.0614895000 0.0000000000
1.0000000000 0.0609580000 0.0000000000
0.0396360000 0.1339240000 0.0000000000
0.1050887500 0.1333925000 0.0000000000
0.1705415000 0.1328610000 0.0000000000
0.2359942500 0.1323295000 0.0000000000
0.3014470000 0.1317980000 0.0000000000
0.3668997500 0.1312665000 0.0000000000
0.4323525000 0.1307350000 0.0000000000
0.4978052500 0.1302035000 0.0000000000
0.5632580000 0.1296720000 0.0000000000
0.6287107500 0.1291405000 0.0000000000
0.6941635000 0.1286090000 0.0000000000
0.7596162500 0.1280775000 0.0000000000
0.8250690000 0.1275460000 0.0000000000
0.8905217500 0.1270145000 0.0000000000
0.9559745000 0.1264830000 0.0000000000
1.0000000000 0.1259515000 0.0000000000
1.0000000000 0.1254200000 0.0000000000
0.0369540000 0.1983860000 0.0000000000
0.1024067500 0.1978545000 0.0000000000
0.1678595000 0.1973230000 0.0000000000
0.2333122500 0.1967915000 0.0000000000
0.2987650000 0.1962600000 0.0000000000
0.3642177500 0.1957285000 0.0000000000
0.4296705000 0.1951970000 0.0000000000
0.4951232500 0.1946655000 0.0000000000
0.5605760000 0.1941340000 0.0000000000
0.6260287500 0.1936025000 0.0000000000
0.6914815000 0.1930710000 0.0000000000
0.7569342500 0.1925395000 0.0000000000
0.8223870000 0.1920080000 0.0000000000
0.8878397500 0.1914765000 0.0000000000
0.9532925000 0.1909450000 0.0000000000
1.0000000000 0.1904135000 0.0000000000
1.0000000000 0.1898820000 0.0000000000
0.0342720000 0.2628480000 0.0000000000
0.0997247500 0.2623165000 0.0000000000
0.1651775000 0.2617850000 0.0000000000
0.2306302500 0.2612535000 0.0000000000
0.2960830000 0.2607220000 0.0000000000
0.3615357500 0.2601905000 0.0000000000
0.4269885000 0.2596590000 0.0000000000
0.4924412500 0.2591275000 0.0000000000
0.5578940000 0.2585960000 0.0000000000
0.6233467500 0.2580645000 0.0000000000
0.6887995000 0.2575330000 0.0000000000
0.7542522500 0.2570015000 0.0000000000
0.8197050000 0.2564700000 0.0000000000
0.8851577500 0.2559385000 0.0000000000
0.9506105000 0.2554070000 0.0000000000
1.0000000000 0.2548755000 0.0000000000
1.0000000000 0.2543440000 0.0000000000
0.0315900000 0.3273100000 0.0000000000
0.0970427500 0.3267785000 0.0000000000
0.1624955000 0.3262470000 0.0000000000
0.2279482500 0.3257155000 0.0000000000
0.2934010000 0.3251840000 0.0000000000
0.3588537500 0.3246525000 0.0000000000
0.4243065000 0.3241210000 0.0000000000
0.4897592500 0.3235895000 0.0000000000
0.5552120000 0.3230580000 0.0000000000
0.6206647500 0.3225265000 0.0000000000
0.6861175000 0.3219950000 0.0000000000
0.7515702500 0.3214635000 0.0000000000
0.8170230000 0.3209320000 0.0000000000
0.8824757500 0.3204005000 0.0000000000
0.9479285000 0.3198690000 0.0000000000
1.0000000000 0.3193375000 0.0000000000
1.0000000000 0.3188060000 0.0000000000
0.0289080000 0.3917720000 0.0000000000
0.0943607500 0.3912405000 0.0000000000
0.1598135000 0.3907090000 0.0000000000
0.2252662500 0.3901775000 0.0000000000
0.2907190000 0.3896460000 0.0000000000
0.3561717500 0.3891145000 0.0000000000
0.4216245000 0.3885830000 0.0000000000
0.4870772500 0.3880515000 0.0000000000
0.5525300000 0.3875200000 0.0000000000
0.6179827500 0.3869885000 0.0000000000
0.6834355000 0.3864570000 0.0000000000
0.7488882500 0.3859255000 0.0000000000
0.8143410000 0.3853940000 0.0000000000
0.8797937500 0.3848625000 0.0000000000
0.9452465000 0.3843310000 0.0000000000
1.0000000000 0.3837995000 0.0000000000
1.0000000000 0.3832680000 0.0000000000
0.0262260000 0.4562340000 0.0000000000
0.0916787500 0.4557025000 0.0000000000
0.1571315000 0.4551710000 0.0000000000
0.2225842500 0.4546395000 0.0000000000
0.2880370000 0.4541080000 0.0000000000
0.3534897500 0.4535765000 0.0000000000
0.4189425000 0.4530450000 0.0000000000
0.4843952500 0.4525135000 0.0000000000
0.5498480000 0.4519820000 0.0000000000
0.6153007500 0.4514505000 0.0000000000
0.6807535000 0.4509190000 0.0000000000
0.7462062500 0.4503875000 0.0000000000
0.8116590000 0.4498560000 0.0000000000
0.8771117500 0.4493245000 0.0000000000
0.9425645000 0.4487930000 0.0000000000
1.0000000000 0.4492385000 0.0000000000
1.0000000000 0.4497700000 0.0000000000
0.0235440000 0.5206960000 0.0000000000
0.0889967500 0.5201645000 0.0000000000
0.1544495000 0.5196330000 0.0000000000
0.2199022500 0.5191015000 0.0000000000
0.2853550000 0.5185700000 0.0000000000
0.3508077500 0.5180385000 0.0000000000
0.4162605000 0.5175070000 0.0000000000
0.4817132500 0.5169755000 0.0000000000
0.5471660000 0.5164440000 0.0000000000
0.6126187500 0.5159125000 0.0000000000
0.6780715000 0.5153810000 0.0000000000
0.7440510000 0.5151505000 0.0000000000
0.8113640000 0.5156820000 0.0000000000
0.8786770000 0.5162135000 0.0000000000
0.9459900000 0.5167450000 0.0000000000
1.0000000000 0.5172765000 0.0000000000
1.0000000000 0.5178080000 0.0000000000
0.0208620000 0.5851580000 0.0000000000
0.0863147500 0.5846265000 0.0000000000
0.1517675000 0.5840950000 0.0000000000
0.2172202500 0.5835635000 0.0000000000
0.2826730000 0.5830320000 0.0000000000
0.3481257500 0.5825005000 0.0000000000
0.4135785000 0.5819690000 0.0000000000
0.4790312500 0.5814375000 0.0000000000
0.5456880000 0.5815940000 0.0000000000
0.6130010000 0.5821255000 0.0000000000
0.6803140000 0.5826570000 0.0000000000
0.7476270000 0.5831885000 0.0000000000
0.8149400000 0.5837200000 0.0000000000
0.8822530000 0.5842515000 0.0000000000
0.9495660000 0.5847830000 0.0000000000
1.0000000000 0.5853145000 0.0000000000
1.0000000000 0.5858460000 0.0000000000
0.0181800000 0.6496200000 0.0000000000
0.0836327500 0.6490885000 0.0000000000
0.1490855000 0.6485570000 0.0000000000
0.2145382500 0.6480255000 0.0000000000
0.2800120000 0.6475060000 0.0000000000
0.3473250000 0.6480375000 0.0000000000
0.4146380000 0.6485690000 0.0000000000
0.4819510000 0.6491005000 0.0000000000
0.5492640000 0.6496320000 0.0000000000
0.6165770000 0.6501635000 0.0000000000
0.6838900000 0.6506950000 0.0000000000
0.7512030000 0.6512265000 0.0000000000
0.8185160000 0.6517580000 0.0000000000
0.8858290000 0.6522895000 0.0000000000
0.9531420000 0.6528210000 0.0000000000
1.0000000000 0.6533525000 0.0000000000
1.0000000000 0.6538840000 0.0000000000
0.0154980000 0.7140820000 0.0000000000
0.0816490000 0.7139495000 0.0000000000
0.1489620000 0.7144810000 0.0000000000
0.2162750000 0.7150125000 0.0000000000
0.2835880000 0.7155440000 0.0000000000
0.3509010000 0.7160755000 0.0000000000
0.4182140000 0.7166070000 0.0000000000
0.4855270000 0.7171385000 0.0000000000
0.5528400000 0.7176700000 0.0000000000
0.6201530000 0.7182015000 0.0000000000
0.6874660000 0.7187330000 0.0000000000
0.7547790000 0.7192645000 0.0000000000
0.8220920000 0.7197960000 0.0000000000
0.8894050000 0.7203275000 0.0000000000
0.9567180000 0.7208590000 0.0000000000
1.0000000000 0.7213905000 0.0000000000
1.0000000000 0.7219220000 0.0000000000
0.0179120000 0.7814560000 0.0000000000
0.0852250000 0.7819875000 0.0000000000
0.1525380000 0.7825190000 0.0000000000
0.2198510000 0.7830505000 0.0000000000
0.2871640000 0.7835820000 0.0000000000
0.3544770000 0.7841135000 0.0000000000
0.4217900000 0.7846450000 0.0000000000
0.4891030000 0.7851765000 0.0000000000
0.5564160000 0.7857080000 0.0000000000
0.6237290000 0.7862395000 0.0000000000
0.6910420000 0.7867710000 0.0000000000
0.7583550000 0.7873025000 0.0000000000
0.8256680000 0.7878340000 0.0000000000
0.8929810000 0.7883655000 0.0000000000
0.9602940000 0.7888970000 0.0000000000
1.0000000000 0.7894285000 0.0000000000
1.0000000000 0.7899600000 0.0000000000
0.0214880000 0.8494940000 0.0000000000
0.0888010000 0.8500255000 0.0000000000
0.1561140000 0.8505570000 0.0000000000
0.2234270000 0.8510885000 0.0000000000
0.2907400000 0.8516200000 0.0000000000
0.3580530000 0.8521515000 0.0000000000
0.4253660000 0.8526830000 0.0000000000
0.4926790000 0.8532145000 0.0000000000
0.5599920000 0.8537460000 0.0000000000
0.6273050000 0.8542775000 0.0000000000
0.6946180000 0.8548090000 0.0000000000
0.7619310000 0.8553405000 0.0000000000
0.8292440000 0.8558720000 0.0000000000
0.8965570000 0.8564035000 0.0000000000
0.9638700000 0.8569350000 0.0000000000
1.0000000000 0.8574665000 0.0000000000
1.0000000000 0.8579980000 0.0000000000
0.0250640000 0.9175320000 0.0000000000
0.0923770000 0.9180635000 0.0000000000
0.1596900000 0.9185950000 0.0000000000
0.2270030000 0.9191265000 0.0000000000
0.2943160000 0.9196580000 0.0000000000
0.3616290000 0.9201895000 0.0000000000
0.4289420000 0.9207210000 0.0000000000
0.4962550000 0.9212525000 0.0000000000
0.5635680000 0.9217840000 0.0000000000
0.6308810000 0.9223155000 0.0000000000
0.6981940000 0.9228470000 0.0000000000
0.7655070000 0.9233785000 0.0000000000
0.8328200000 0.9239100000 0.0000000000
0.9001330000 0.9244415000 0.0000000000
0.9674460000 0.9249730000 0.0000000000
1.0000000000 0.9255045000 0.0000000000
1.0000000000 0.9260360000 0.0000000000
0.0286400000 0.9855700000 0.0000000000
0.0959530000 0.9861015000 0.0000000000
0.1632660000 0.9866330000 0.0000000000
0.2305790000 0.9871645000 0.0000000000
0.2978920000 0.9876960000 0.0000000000
0.3652050000 0.9882275000 0.0000000000
0.4325180000 0.9887590000 0.0000000000
0.4998310000 0.9892905000 0.0000000000
0.5671440000 0.9898220000 0.0000000000
0.6344570000 0.9903535000 0.0000000000
0.7017700000 0.9908850000 0.0000000000
0.7690830000 0.9914165000 0.0000000000
0.8363960000 0.9919480000 0.0000000000
0.9037090000 0.9924795000 0.0000000000
0.9710220000 0.9930110000 0.0000000000
1.0000000000 0.9935425000 0.0000000000
1.0000000000 0.9940740000 0.0000000000
0.0322160000 1.0000000000 0.0000000000
0.0995290000 1.0000000000 0.0000000000
0.1668420000 1.0000000000 0.0000000000
0.2341550000 1.0000000000 0.0000000000
0.3014680000 1.0000000000 0.0000000000
0.3687810000 1.0000000000 0.0000000000
0.4360940000 1.0000000000 0.0000000000
0.5034070000 1.0000000000 0.0000000000
0.5707200000 1.0000000000 0.0000000000
0.6380330000 1.0000000000 0.0000000000
0.7053460000 1.0000000000 0.0000000000
0.7726590000 1.0000000000 0.0000000000
0.8399720000 1.0000000000 0.0000000000
0.9072850000 1.0000000000 0.0000000000
0.9745980000 1.0000000000 0.0000000000
1.0000000000 1.0000000000 0.0000000000
1.0000000000 1.0000000000 0.0000000000
0.0447292500 0.0048195000 0.0407987500
0.1101820000 0.0042880000 0.0394700000
0.1756347500 0.0037565000 0.0381412500
0.2410875000 0.0032250000 0.0368125000
0.3065402500 0.0026935000 0.0354837500
0.3719930000 0.0021620000 0.0341550000
0.4374457500 0.0016305000 0.0328262500
0.5028985000 0.0010990000 0.0314975000
0.5683512500 0.0005675000 0.0301687500
0.6338040000 0.0000360000 0.0288400000
0.6992567500 0.0000000000 0.0275112500
0.7647095000 0.0000000000 0.0261825000
0.8301622500 0.0000000000 0.0248537500
0.8956150000 0.0000000000 0.0235250000
0.9610677500 0.0000000000 0.0221962500
1.0000000000 0.0000000000 0.0208675000
1.0000000000 0.0000000000 0.0195387500
0.0420472500 0.0692815000 0.0363287500
0.1075000000 0.0687500000 0.0350000000
0.1729527500 0.0682185000 0.0336712500
0.2384055000 0.0676870000 0.0323425000
0.3038582500 0.0671555000 0.0310137500
0.3693110000 0.0666240000 0.0296850000
0.4347637500 0.0660925000 0.0283562500
0.5002165000 0.0655610000 0.0270275000
0.5656692500 0.0650295000 0.0256987500
0.6311220000 0.0644980000 0.0243700000
0.6965747500 0.0639665000 0.0230412500
0.7620275000 0.0634350000 0.0217125000
0.8274802500 0.0629035000 0.0203837500
0.8929330000 0.0623720000 0.0190550000
0.9583857500 0.0618405000 0.0177262500
1.0000000000 0.0613090000 0.0163975000
1.0000000000 0.0607775000 0.0150687500
0.0393652500 0.1337435000 0.0318587500
0.1048180000 0.1332120000 0.0305300000
0.1702707500 0.1326805000 0.0292012500
0.2357235000 0.1321490000 0.0278725000
0.3011762500 0.1316175000 0.0265437500
0.3666290000 0.1310860000 0.0252150000
0.4320817500 0.1305545000 0.0238862500
0.4975345000 0.1300230000 0.0225575000
0.5629872500 0.1294915000 0.0212287500
0.6284400000 0.1289600000 0.0199000000
0.6938927500 0.1284285000 0.0185712500
0.7593455000 0.1278970000 0.0172425000
0.8247982500 0.1273655000 0.0159137500
0.8902510000 0.1268340000 0.0145850000
0.9557037500 0.1263025000 0.0132562500
1.0000000000 0.1257710000 0.0119275000
1.0000000000 0.1252395000 0.0105987500
0.0366832500 0.1982055000 0.0273887500
0.1021360000 0.1976740000 0.0260600000
0.1675887500 0.1971425000 0.0247312500
0.2330415000 0.1966110000 0.0234025000
0.2984942500 0.1960795000 0.0220737500
0.3639470000 0.1955480000 0.0207450000
0.4293997500 0.1950165000 0.0194162500
0.4948525000 0.1944850000 0.0180875000
0.5603052500 0.1939535000 0.0167587500
0.6257580000 0.1934220000 0.0154300000
0.6912107500 0.1928905000 0.0141012500
0.7566635000 0.1923590000 0.0127725000
0.8221162500 0.1918275000 0.0114437500
0.8875690000 0.1912960000 0.0101150000
0.9530217500 0.1907645000 0.0087862500
1.0000000000 0.1902330000 0.0074575000
1.0000000000 0.1897015000 0.0061287500
0.0340012500 0.2626675000 0.0229187500
0.0994540000 0.2621360000 0.0215900000
0.1649067500 0.2616045000 0.0202612500
0.2303595000 0.2610730000 0.0189325000
0.2958122500 0.2605415000 0.0176037500
0.3612650000 0.2600100000 0.0162750000
0.4267177500 0.2594785000 0.0149462500
0.4921705000 0.2589470000 0.0136175000
0.5576232500 0.2584155000 0.0122887500
0.6230760000 0.2578840000 0.0109600000
0.6885287500 0.2573525000 0.0096312500
0.7539815000 0.2568210000 0.0083025000
0.8194342500 0.2562895000 0.0069737500
0.8848870000 0.2557580000 0.0056450000
0.9503397500 0.2552265000 0.0043162500
1.0000000000 0.2546950000 0.0029875000
1.0000000000 0.2541635000 0.0016587500
0.0313192500 0.3271295000 0.0184487500
0.0967720000 0.3265980000 0.0171200000
0.1622247500 0.3260665000 0.0157912500
0.2276775000 0.3255350000 0.0144625000
0.2931302500 0.3250035000 0.0131337500
0.3585830000 0.3244720000 0.0118050000
0.4240357500 0.3239405000 0.0104762500
0.4894885000 0.3234090000 0.0091475000
0.5549412500 0.3228775000 0.0078187500
0.6203940000 0.3223460000 0.0064900000
0.6858467500 0.3218145000 0.0051612500
0.7512995000 0.3212830000 0.0038325000
0.8167522500 0.3207515000 0.0025037500
0.8822050000 0.3202200000 0.0011750000
0.9476577500 0.3196885000 0.0000000000
1.0000000000 0.3191570000 0.0000000000
1.0000000000 0.3186255000 0.0000000000
0.0286372500 0.3915915000 0.0139787500
0.0940900000 0.3910600000 0.0126500000
0.1595427500 0.3905285000 0.0113212500
0.2249955000 0.3899970000 0.0099925000
0.2904482500 0.3894655000 0.0086637500
0.3559010000 0.3889340000 0.0073350000
0.4213537500 0.3884025000 0.0060062500
0.4868065000 0.3878710000 0.0046775000
0.5522592500 0.3873395000 0.0033487500
0.6177120000 0.3868080000 0.0020200000
0.6831647500 0.3862765000 0.0006912500
0.7486175000 0.3857450000 0.0000000000
0.8140702500 0.3852135000 0.0000000000
0.8795230000 0.3846820000 0.0000000000
0.9449757500 0.3841505000 0.0000000000
1.0000000000 0.3836190000 0.0000000000
1.0000000000 0.3830875000 0.0000000000
0.0259552500 0.4560535000 0.0095087500
0.0914080000 0.4555220000 0.0081800000
0.1568607500 0.4549905000 0.0068512500
0.2223135000 0.4544590000 0.0055225000
0.2877662500 0.4539275000 0.0041937500
0.3532190000 0.4533960000 0.0028650000
0.4186717500 0.4528645000 0.0015362500
0.4841245000 0.4523330000 0.0002075000
0.5495772500 0.4518015000 0.0000000000
0.6150300000 0.4512700000 0.0000000000
0.6804827500 0.4507385000 0.0000000000
0.7459355000 0.4502070000 0.0000000000
0.8113882500 0.4496755000 0.0000000000
0.8768410000 0.4491440000 0.0000000000
0.9427750000 0.4488875000 0.0000000000
1.0000000000 0.4494190000 0.0000000000
1.0000000000 0.4499505000 0.0000000000
0.0232732500 0.5205155000 0.0050387500
0.0887260000 0.5199840000 0.0037100000
0.1541787500 0.5194525000 0.0023812500
0.2196315000 0.5189210000 0.0010525000
0.2850842500 0.5183895000 0.0000000000
0.3505370000 0.5178580000 0.0000000000
0.4159897500 0.5173265000 0.0000000000
0.4814425000 0.5167950000 0.0000000000
0.5468952500 0.5162635000 0.0000000000
0.6123480000 0.5157320000 0.0000000000
0.6778007500 0.5152005000 0.0000000000
0.7444120000 0.5153310000 0.0000000000
0.8117250000 0.5158625000 0.0000000000
0.8790380000 0.5163940000 0.0000000000
0.9463510000 0.5169255000 0.0000000000
1.0000000000 0.5174570000 0.0000000000
1.0000000000 0.5179885000 0.0000000000
0.0205912500 0.5849775000 0.0005687500
0.0860440000 0.5844460000 0.0000000000
0.1514967500 0.5839145000 0.0000000000
0.2169495000 0.5833830000 0.0000000000
0.2824022500 0.5828515000 0.0000000000
0.3478550000 0.5823200000 0.0000000000
0.4133077500 0.5817885000 0.0000000000
0.4787605000 0.5812570000 0.0000000000
0.5460490000 0.5817745000 0.0000000000
0.6133620000 0.5823060000 0.0000000000
0.6806750000 0.5828375000 0.0000000000
0.7479880000 0.5833690000 0.0000000000
0.8153010000 0.5839005000 0.0000000000
0.8826140000 0.5844320000 0.0000000000
0.9499270000 0.5849635000 0.0000000000
1.0000000000 0.5854950000 0.0000000000
1.0000000000 0.5860265000 0.0000000000
0.0179092500 0.6494395000 0.0000000000
0.0833620000 0.6489080000 0.0000000000
0.1488147500 0.6483765000 0.0000000000
0.2142675000 0.6478450000 0.0000000000
0.2803730000 0.6476865000 0.0000000000
0.3476860000 0.6482180000 0.0000000000
0.4149990000 0.6487495000 0.0000000000
0.4823120000 0.6492810000 0.0000000000
0.5496250000 0.6498125000 0.0000000000
0.6169380000 0.6503440000 0.0000000000
0.6842510000 0.6508755000 0.0000000000
0.7515640000 0.6514070000 0.0000000000
0.8188770000 0.6519385000 0.0000000000
0.8861900000 0.6524700000 0.0000000000
0.9535030000 0.6530015000 0.0000000000
1.0000000000 0.6535330000 0.0000000000
1.0000000000 0.6540645000 0.0000000000
0.0152272500 0.7139015000 0.0000000000
0.0820100000 0.7141300000 0.0000000000
0.1493230000 0.7146615000 0.0000000000
0.2166360000 0.7151930000 0.0000000000
0.2839490000 0.7157245000 0.0000000000
0.3512620000 0.7162560000 0.0000000000
0.4185750000 0.7167875000 0.0000000000
0.4858880000 0.7173190000 0.0000000000
0.5532010000 0.7178505000 0.0000000000
0.6205140000 0.7183820000 0.0000000000
0.6878270000 0.7189135000 0.0000000000
0.7551400000 0.7194450000 0.0000000000
0.8224530000 0.7199765000 0.0000000000
0.8897660000 0.7205080000 0.0000000000
0.9570790000 0.7210395000 0.0000000000
1.0000000000 0.7215710000 0.0000000000
1.0000000000 0.7221025000 0.0000000000
0.0182730000 0.7816365000 0.0000000000
0.0855860000 0.7821680000 0.0000000000
0.1528990000 0.7826995000 0.0000000000
0.2202120000 0.7832310000 0.0000000000
0.2875250000 0.7837625000 0.0000000000
0.3548380000 0.7842940000 0.0000000000
0.4221510000 0.7848255000 0.0000000000
0.4894640000 0.7853570000 0.0000000000
0.5567770000 0.7858885000 0.0000000000
0.6240900000 0.7864200000 0.0000000000
0.6914030000 0.7869515000 0.0000000000
0.7587160000 0.7874830000 0.0000000000
0.8260290000 0.7880145000 0.0000000000
0.8933420000 0.7885460000 0.0000000000
0.9606550000 0.7890775000 0.0000000000
1.0000000000 0.7896090000 0.0000000000
1.0000000000 0.7901405000 0.0000000000
0.0218490000 0.8496745000 0.0000000000
0.0891620000 0.8502060000 0.0000000000
0.1564750000 0.8507375000 0.0000000000
0.2237880000 0.8512690000 0.0000000000
0.2911010000 0.8518005000 0.0000000000
0.3584140000 0.8523320000 0.0000000000
0.4257270000 0.8528635000 0.0000000000
0.4930400000 0.8533950000 0.0000000000
0.5603530000 0.8539265000 0.0000000000
0.6276660000 0.8544580000 0.0000000000
0.6949790000 0.8549895000 0.0000000000
0.7622920000 0.8555210000 0.0000000000
0.8296050000 0.8560525000 0.0000000000
0.8969180000 0.8565840000 0.0000000000
0.9642310000 0.8571155000 0.0000000000
1.0000000000 0.8576470000 0.0000000000
1.0000000000 0.8581785000 0.0000000000
0.0254250000 0.9177125000 0.0000000000
0.0927380000 0.9182440000 0.0000000000
0.1600510000 0.9187755000 0.0000000000
0.2273640000 0.9193070000 0.0000000000
0.2946770000 0.9198385000 0.0000000000
0.3619900000 0.9203700000 0.0000000000
0.4293030000 0.9209015000 0.0000000000
0.4966160000 0.9214330000 0.0000000000
0.5639290000 0.9219645000 0.0000000000
0.6312420000 0.9224960000 0.0000000000
0.6985550000 0.9230275000 0.0000000000
0.7658680000 0.9235590000 0.0000000000
0.8331810000 0.9240905000 0.0000000000
0.9004940000 0.9246220000 0.0000000000
0.9678070000 0.9251535000 0.0000000000
1.0000000000 0.9256850000 0.0000000000
1.0000000000 0.9262165000 0.0000000000
0.0290010000 0.9857505000 0.0000000000
0.0963140000 0.9862820000 0.0000000000
0.1636270000 0.9868135000 0.0000000000
0.2309400000 0.9873450000 0.0000000000
0.2982530000 0.9878765000 0.0000000000
0.3655660000 0.9884080000 0.0000000000
0.4328790000 0.9889395000 0.0000000000
0.5001920000 0.9894710000 0.0000000000
0.5675050000 0.9900025000 0.0000000000
0.6348180000 0.9905340000 0.0000000000
0.7021310000 0.9910655000 0.0000000000
0.7694440000 0.9915970000 0.0000000000
0.8367570000 0.9921285000 0.0000000000
0.9040700000 0.9926600000 0.0000000000
0.9713830000 0.9931915000 0.0000000000
1.0000000000 0.9937230000 0.0000000000
1.0000000000 0.9942545000 0.0000000000
0.0325770000 1.0000000000 0.0000000000
0.0998900000 1.0000000000 0.0000000000
0.1672030000 1.0000000000 0.0000000000
0.2345160000 1.0000000000 0.0000000000
0.3018290000 1.0000000000 0.0000000000
0.3691420000 1.0000000000 0.0000000000
0.4364550000 1.0000000000 0.0000000000
0.5037680000 1.0000000000 0.0000000000
0.5710810000 1.0000000000 0.0000000000
0.6383940000 1.0000000000 0.0000000000
0.7057070000 1.0000000000 0.0000000000
0.7730200000 1.0000000000 0.0000000000
0.8403330000 1.0000000000 0.0000000000
0.9076460000 1.0000000000 0.0000000000
0.9749590000 1.0000000000 0.0000000000
1.0000000000 1.0000000000 0.0000000000
1.0000000000 1.0000000000 0.0000000000
0.0444585000 0.0046390000 0.1065975000
0.1099112500 0.0041075000 0.1052687500
0.1753640000 0.0035760000 0.1039400000
0.2408167500 0.0030445000 0.1026112500
0.3062695000 0.0025130000 0.1012825000
0.3717222500 0.0019815000 0.0999537500
0.4371750000 0.0014500000 0.0986250000
0.5026277500 0.0009185000 0.0972962500
0.5680805000 0.0003870000 0.0959675000
0.6335332500 0.0000000000 0.0946387500
0.6989860000 0.0000000000 0.0933100000
0.7644387500 0.0000000000 0.0919812500
0.8298915000 0.0000000000 0.0906525000
0.8953442500 0.0000000000 0.0893237500
0.9607970000 0.0000000000 0.0879950000
1.0000000000 0.0000000000 0.0866662500
1.0000000000 0.0000000000 0.0853375000
0.0417765000 0.0691010000 0.1021275000
0.1072292500 0.0685695000 0.1007987500
0.1726820000 0.0680380000 0.0994700000
0.2381347500 0.0675065000 0.0981412500
0.3035875000 0.0669750000 0.0968125000
0.3690402500 0.0664435000 0.0954837500
0.4344930000 0.0659120000 0.0941550000
0.4999457500 0.0653805000 0.0928262500
0.5653985000 0.0648490000 0.0914975000
0.6308512500 0.0643175000 0.0901687500
0.6963040000 0.0637860000 0.0888400000
0.7617567500 0.0632545000 0.0875112500
0.8272095000 0.0627230000 0.0861825000
0.8926622500 0.0621915000 0.0848537500
0.9581150000 0.0616600000 0.0835250000
1.0000000000 0.0611285000 0.0821962500
1.0000000000 0.0605970000 0.0808675000
0.0390945000 0.1335630000 0.0976575000
0.1045472500 0.1330315000 0.0963287500
