webapp/static/gallery_seeds/warm-golden-hour/lut.cube
LUT_3D_SIZE 5
DOMAIN_MIN 0 0 0
DOMAIN_MAX 1 1 1
0.0450000000 0.0050000000 0.0000000000
0.3068110000 0.0028740000 0.0000000000
0.5686220000 0.0007480000 0.0000000000
0.8304330000 0.0000000000 0.0000000000
1.0000000000 0.0000000000 0.0000000000
0.0342720000 0.2628480000 0.0000000000
0.2960830000 0.2607220000 0.0000000000
0.5578940000 0.2585960000 0.0000000000
0.8197050000 0.2564700000 0.0000000000
1.0000000000 0.2543440000 0.0000000000
0.0235440000 0.5206960000 0.0000000000
0.2853550000 0.5185700000 0.0000000000
0.5471660000 0.5164440000 0.0000000000
0.8113640000 0.5156820000 0.0000000000
1.0000000000 0.5178080000 0.0000000000
0.0179120000 0.7814560000 0.0000000000
0.2871640000 0.7835820000 0.0000000000
0.5564160000 0.7857080000 0.0000000000
0.8256680000 0.7878340000 0.0000000000
1.0000000000 0.7899600000 0.0000000000
0.0322160000 1.0000000000 0.0000000000
0.3014680000 1.0000000000 0.0000000000
0.5707200000 1.0000000000 0.0000000000
0.8399720000 1.0000000000 0.0000000000
1.0000000000 1.0000000000 0.0000000000
0.0439170000 0.0042780000 0.2381950000
0.3057280000 0.0021520000 0.2328800000
0.5675390000 0.0000260000 0.2275650000
0.8293500000 0.0000000000 0.2222500000
1.0000000000 0.0000000000 0.2169350000
0.0331890000 0.2621260000 0.2203150000
0.2950000000 0.2600000000 0.2150000000
0.5568110000 0.2578740000 0.2096850000
0.8186220000 0.2557480000 0.2043700000
1.0000000000 0.2536220000 0.1990550000
0.0224610000 0.5199740000 0.2024350000
0.2842720000 0.5178480000 0.1971200000
0.5460830000 0.5157220000 0.1918050000
0.8128080000 0.5164040000 0.1878940000
1.0000000000 0.5185300000 0.1847050000
0.0193560000 0.7821780000 0.1867330000
0.2886080000 0.7843040000 0.1835440000
0.5578600000 0.7864300000 0.1803550000
0.8271120000 0.7885560000 0.1771660000
1.0000000000 0.7906820000 0.1739770000
0.0336600000 1.0000000000 0.1760050000
0.3029120000 1.0000000000 0.1728160000
0.5721640000 1.0000000000 0.1696270000
0.8414160000 1.0000000000 0.1664380000
1.0000000000 1.0000000000 0.1632490000
0.0428340000 0.0035560000 0.5013900000
0.3046450000 0.0014300000 0.4960750000
0.5664560000 0.0000000000 0.4907600000
0.8282670000 0.0000000000 0.4854450000
1.0000000000 0.0000000000 0.4801300000
0.0321060000 0.2614040000 0.4835100000
0.2939170000 0.2592780000 0.4781950000
0.5557280000 0.2571520000 0.4728800000
0.8175390000 0.2550260000 0.4675650000
1.0000000000 0.2529000000 0.4622500000
0.0213780000 0.5192520000 0.4656300000
0.2831890000 0.5171260000 0.4603150000
0.5450000000 0.5150000000 0.4550000000
0.8142520000 0.5171260000 0.4518110000
1.0000000000 0.5192520000 0.4486220000
0.0208000000 0.7829000000 0.4506500000
0.2900520000 0.7850260000 0.4474610000
0.5593040000 0.7871520000 0.4442720000
0.8285560000 0.7892780000 0.4410830000
1.0000000000 0.7914040000 0.4378940000
0.0351040000 1.0000000000 0.4399220000
0.3043560000 1.0000000000 0.4367330000
0.5736080000 1.0000000000 0.4335440000
0.8428600000 1.0000000000 0.4303550000
1.0000000000 1.0000000000 0.4271660000
0.0417510000 0.0028340000 0.7645850000
0.3035620000 0.0007080000 0.7592700000
0.5653730000 0.0000000000 0.7539550000
0.8271840000 0.0000000000 0.7486400000
1.0000000000 0.0000000000 0.7433250000
0.0310230000 0.2606820000 0.7467050000
0.2928340000 0.2585560000 0.7413900000
0.5546450000 0.2564300000 0.7360750000
0.8164560000 0.2543040000 0.7307600000
1.0000000000 0.2521780000 0.7254450000
0.0202950000 0.5185300000 0.7288250000
0.2821060000 0.5164040000 0.7235100000
0.5464440000 0.5157220000 0.7189170000
0.8156960000 0.5178480000 0.7157280000
1.0000000000 0.5199740000 0.7125390000
0.0222440000 0.7836220000 0.7145670000
0.2914960000 0.7857480000 0.7113780000
0.5607480000 0.7878740000 0.7081890000
0.8300000000 0.7900000000 0.7050000000
1.0000000000 0.7921260000 0.7018110000
0.0365480000 1.0000000000 0.7038390000
0.3058000000 1.0000000000 0.7006500000
0.5750520000 1.0000000000 0.6974610000
0.8443040000 1.0000000000 0.6942720000
1.0000000000 1.0000000000 0.6910830000
0.0406680000 0.0021120000 1.0000000000
0.3024790000 0.0000000000 1.0000000000
0.5642900000 0.0000000000 1.0000000000
0.8261010000 0.0000000000 1.0000000000
1.0000000000 0.0000000000 1.0000000000
0.0299400000 0.2599600000 1.0000000000
0.2917510000 0.2578340000 1.0000000000
0.5535620000 0.2557080000 0.9992700000
0.8153730000 0.2535820000 0.9939550000
1.0000000000 0.2514560000 0.9886400000
0.0192120000 0.5178080000 0.9920200000
0.2810230000 0.5156820000 0.9867050000
0.5478880000 0.5164440000 0.9828340000
0.8171400000 0.5185700000 0.9796450000
1.0000000000 0.5206960000 0.9764560000
0.0236880000 0.7843440000 0.9784840000
0.2929400000 0.7864700000 0.9752950000
0.5621920000 0.7885960000 0.9721060000
0.8314440000 0.7907220000 0.9689170000
1.0000000000 0.7928480000 0.9657280000
0.0379920000 1.0000000000 0.9677560000
0.3072440000 1.0000000000 0.9645670000
0.5764960000 1.0000000000 0.9613780000
0.8457480000 1.0000000000 0.9581890000
1.0000000000 1.0000000000 0.9550000000
