webapp/static/best_of_n/ex2/winner.cube
LUT_3D_SIZE 17
DOMAIN_MIN 0 0 0
DOMAIN_MAX 1 1 1
0.0000000000 0.0003452596 0.0076847943
0.0588426089 0.0004845116 0.0082817012
0.1237634517 0.0003023641 0.0089200772
0.1875137358 0.0004126003 0.0095060207
0.2508700393 0.0006473601 0.0104272962
0.3133811564 0.0012344823 0.0116220480
0.3762288137 0.0017678380 0.0128130848
0.4386389515 0.0028479979 0.0141352201
0.5013304310 0.0035874452 0.0157985799
0.5639466841 0.0042766174 0.0174770281
0.6259648025 0.0048819915 0.0187637303
0.6889429778 0.0048472206 0.0201543663
0.7513577497 0.0051434357 0.0217042584
0.8141550997 0.0048192316 0.0232564472
0.8771533244 0.0043128137 0.0253276359
0.9403057480 0.0032891715 0.0274061151
1.0000000000 0.0023212102 0.0281866398
0.0000000000 0.0624763324 0.0086384481
0.0590525423 0.0626162673 0.0092798863
0.1239256060 0.0624072390 0.0100429673
0.1876886265 0.0624400248 0.0107886391
0.2511399302 0.0625701550 0.0118307015
0.3137547008 0.0630500975 0.0131064430
0.3766299787 0.0634764854 0.0143355466
0.4390937531 0.0644435781 0.0156645775
0.5018397728 0.0651048624 0.0173007082
0.5645150894 0.0657338696 0.0189162008
0.6265450467 0.0663184084 0.0201419517
0.6894895448 0.0663299039 0.0214157887
0.7517979479 0.0667300527 0.0227973182
0.8144963598 0.0665220832 0.0241943784
0.8774491353 0.0661232206 0.0261009652
0.9405711759 0.0652018236 0.0280235410
1.0000000000 0.0642912420 0.0286705736
0.0000000000 0.1247383388 0.0105169415
0.0591377963 0.1248845994 0.0111576384
0.1239240261 0.1246896932 0.0120094642
0.1876978729 0.1246818285 0.0128528699
0.2512271887 0.1247451708 0.0139269093
0.3139588697 0.1251398048 0.0151957460
0.3768955007 0.1254873432 0.0163785368
0.4394980648 0.1263295454 0.0176145565
0.5023707973 0.1269109390 0.0190488994
0.5651355546 0.1274666130 0.0204368141
0.6272008354 0.1279999344 0.0214840379
0.6900383770 0.1280325451 0.0225625858
0.7522088257 0.1284916901 0.0237479135
0.8147664992 0.1283837275 0.0249543115
0.8776519888 0.1280605048 0.0266685542
0.9407062244 0.1272401456 0.0284400582
1.0000000000 0.1263864660 0.0290077850
0.0000000000 0.1874585951 0.0125139216
0.0591302840 0.1875944371 0.0131727830
0.1237902072 0.1874700935 0.0141517343
0.1875425555 0.1874678422 0.0151504334
0.2510649425 0.1875093572 0.0163387358
0.3138353877 0.1878596787 0.0176697411
0.3768331322 0.1881083699 0.0189022608
0.4395444940 0.1887969571 0.0201105308
0.5025703253 0.1892385755 0.0213195030
0.5654237384 0.1896749202 0.0224288832
0.6275780688 0.1900793370 0.0232384019
0.6903394451 0.1900801607 0.0240353197
0.7524336136 0.1905386662 0.0249474943
0.8149134975 0.1904954580 0.0258767568
0.8777222401 0.1902687275 0.0272815004
0.9407256166 0.1895831407 0.0288035702
1.0000000000 0.1888270035 0.0292721186
0.0000000000 0.2502641568 0.0149250254
0.0597712146 0.2503612844 0.0155369304
0.1242246375 0.2503093115 0.0165893976
0.1878557213 0.2503191794 0.0176885109
0.2512147294 0.2503662545 0.0189361461
0.3138737135 0.2507074401 0.0202899538
0.3768037605 0.2508947874 0.0216027852
0.4395285512 0.2514841289 0.0228517950
0.5026338431 0.2518393898 0.0238682479
0.5655033092 0.2522179720 0.0247230958
0.6277781073 0.2525381863 0.0252958965
0.6904859885 0.2525423670 0.0257923156
0.7525831894 0.2529631492 0.0264578983
0.8150435633 0.2529603564 0.0271228626
0.8778204592 0.2528256890 0.0281708613
0.9407903738 0.2522690392 0.0293503813
1.0000000000 0.2516117084 0.0297041070
0.0000000000 0.3131560177 0.0175308324
0.0598187163 0.3131720410 0.0180312265
0.1241404476 0.3131517709 0.0190219618
0.1877378299 0.3131474920 0.0200671684
0.2510158195 0.3131925755 0.0212282520
0.3136539089 0.3135183869 0.0224810783
0.3765785693 0.3136691496 0.0237949472
0.4393839961 0.3141883204 0.0250567216
0.5026098522 0.3144760351 0.0259003360
0.5655266668 0.3148177548 0.0265387017
0.6279511338 0.3150758701 0.0269179717
0.6906224091 0.3151036026 0.0271719750
0.7527392381 0.3154883275 0.0276591498
0.8151839215 0.3155306571 0.0281218123
0.8779238160 0.3154794523 0.0288675074
0.9408481852 0.3150449290 0.0297418088
1.0000000000 0.3144819140 0.0300098117
0.0000000000 0.3758574626 0.0197845325
0.0601652469 0.3758240134 0.0202072300
0.1243662077 0.3758151299 0.0211655032
0.1878764741 0.3757509728 0.0222133920
0.2510446674 0.3757535369 0.0234218389
0.3136047687 0.3760217576 0.0247312244
0.3764571358 0.3761242182 0.0262258891
0.4392272406 0.3766015678 0.0277039912
0.5024202238 0.3767997922 0.0285964590
0.5652758414 0.3770911726 0.0292237271
0.6277661177 0.3772845441 0.0295439716
0.6904421900 0.3773268880 0.0296390001
0.7526248796 0.3776466919 0.0299598854
0.8151064981 0.3777094472 0.0302187372
0.8778278029 0.3777328460 0.0306401532
0.9407168939 0.3774314004 0.0311600361
1.0000000000 0.3770176186 0.0312853567
0.0000000000 0.4387244945 0.0221656188
0.0597966667 0.4386480177 0.0224795416
0.1240347780 0.4386357517 0.0232687145
0.1876019774 0.4385366117 0.0241618343
0.2507953953 0.4385153272 0.0252525434
0.3134015221 0.4387523405 0.0264802165
0.3762400044 0.4388845566 0.0280138198
0.4390484529 0.4393845872 0.0296078827
0.5021989369 0.4395516638 0.0305351336
0.5649907917 0.4398035265 0.0311634243
0.6275316624 0.4399403383 0.0314805657
0.6902086593 0.4399627740 0.0314886756
0.7524511821 0.4401998552 0.0317238122
0.8149520869 0.4402382537 0.0318600945
0.8776480870 0.4402652252 0.0320534855
0.9404798532 0.4400313797 0.0322901905
1.0000000000 0.4397271145 0.0322975442
0.0000000000 0.5015534507 0.0252608731
0.0595193044 0.5014409254 0.0254994184
0.1237761136 0.5013859201 0.0260622147
0.1873505668 0.5012448636 0.0266820826
0.2505510887 0.5012056663 0.0275259502
0.3131826365 0.5014181384 0.0285277888
0.3760840091 0.5016043017 0.0299077816
0.4389833648 0.5021343911 0.0314237699
0.5021411695 0.5022307592 0.0322632119
0.5649169912 0.5023828777 0.0327968821
0.6274899768 0.5024226536 0.0330729559
0.6901974005 0.5023772381 0.0330206901
0.7525004954 0.5025502946 0.0331828631
0.8150265121 0.5025680675 0.0332319476
0.8776546444 0.5025802788 0.0332766697
0.9403864017 0.5023882790 0.0333255902
1.0000000000 0.5021712966 0.0332736820
0.0000000000 0.5643216227 0.0288477521
0.0590108624 0.5641734079 0.0290009528
0.1233714595 0.5640737467 0.0293038581
0.1870061069 0.5639067849 0.0295933355
0.2502373348 0.5638586173 0.0301279444
0.3128996575 0.5640543312 0.0308440141
0.3758730209 0.5642989951 0.0320031159
0.4388571393 0.5648721133 0.0333721526
0.5020059776 0.5649220508 0.0340793021
0.5647524153 0.5649968104 0.0344955660
0.6273118448 0.5649615310 0.0347266234
0.6900294933 0.5648509231 0.0346408896
0.7523783364 0.5649603284 0.0347729065
0.8149249943 0.5649537414 0.0347849354
0.8774937249 0.5649403352 0.0347367153
0.9401340152 0.5647706585 0.0346524455
1.0000000000 0.5646230562 0.0345697515
0.0000000000 0.6270211071 0.0322705172
0.0588109589 0.6268159627 0.0323619843
0.1232630230 0.6266391511 0.0324229077
0.1869410741 0.6264249200 0.0323992334
0.2502017915 0.6263513233 0.0326253399
0.3128722244 0.6265189542 0.0330494791
0.3759006102 0.6268233877 0.0339396149
0.4389313123 0.6274459017 0.0350941345
0.5020871453 0.6274823309 0.0356561467
0.5648351642 0.6275184837 0.0359531790
0.6274016094 0.6274367846 0.0361495353
0.6901546328 0.6272870910 0.0360477455
0.7525399725 0.6273585428 0.0361711979
0.8151034787 0.6273428164 0.0361716300
0.8776152988 0.6273099936 0.0360713862
0.9401937828 0.6271537808 0.0359068960
1.0000000000 0.6270571020 0.0358014815
0.0000000000 0.6893389864 0.0360579044
0.0586217612 0.6890897406 0.0360908844
0.1231448347 0.6888207351 0.0359569415
0.1868218989 0.6885467469 0.0356572233
0.2500734951 0.6884225935 0.0355947986
0.3126890585 0.6885451095 0.0357433967
0.3756788275 0.6888895496 0.0363476723
0.4386918484 0.6895503888 0.0372701026
0.5018405789 0.6895947738 0.0376849584
0.5645916313 0.6896202704 0.0378718264
0.6271698673 0.6895387678 0.0380255356
0.6899652635 0.6893890187 0.0379061438
0.7523713491 0.6894584124 0.0380184874
0.8149480573 0.6894511965 0.0380124897
0.8774359743 0.6894030236 0.0378891043
0.9399762221 0.6892450915 0.0376780741
1.0000000000 0.6891723195 0.0375621468
0.0000000000 0.7512931477 0.0394343808
0.0578427967 0.7510221091 0.0394257605
0.1225281472 0.7506871196 0.0391634293
0.1863180409 0.7503821938 0.0386806540
0.2497152538 0.7502055582 0.0384441204
0.3124249068 0.7502785278 0.0384283774
0.3754596849 0.7506259200 0.0388250090
0.4385013792 0.7512903773 0.0395753495
0.5016880505 0.7513361832 0.0399100184
0.5644807136 0.7513463568 0.0400504544
0.6270990111 0.7512500535 0.0401994362
0.6899620183 0.7510746907 0.0400892459
0.7523833262 0.7511378729 0.0401857495
0.8149760885 0.7511312967 0.0401682518
0.8774578767 0.7510723630 0.0400391966
0.9399881314 0.7509173974 0.0398121662
1.0000000000 0.7508614514 0.0396849103
0.0000000000 0.8128261371 0.0428850166
0.0573064443 0.8125546695 0.0428713448
0.1221180882 0.8121770483 0.0425579734
0.1859784051 0.8118592211 0.0419838987
0.2494807414 0.8116427968 0.0416666865
0.3122381736 0.8116797711 0.0415721908
0.3752801202 0.8120298902 0.0418308303
0.4383120204 0.8126990731 0.0424588844
0.5015032463 0.8127503563 0.0427425206
0.5643114900 0.8127468483 0.0428588986
0.6269461350 0.8126366061 0.0430218019
0.6898608932 0.8124317479 0.0429363139
0.7522871047 0.8124865106 0.0430299342
0.8148914983 0.8124763651 0.0430146232
0.8773702760 0.8124035184 0.0428933613
0.9398946988 0.8122458806 0.0426636972
1.0000000000 0.8122020696 0.0425319448
0.0000000000 0.8740056384 0.0465835035
0.0562289529 0.8737336998 0.0465634130
0.1211583971 0.8733354472 0.0462140441
0.1851015976 0.8730384230 0.0455612019
0.2487099045 0.8728173554 0.0451458097
0.3115333712 0.8728588074 0.0449470654
0.3746151931 0.8732301473 0.0450300798
0.4376791011 0.8739193672 0.0454815179
0.5009093147 0.8740079775 0.0456508771
0.5637553754 0.8740158338 0.0456841812
0.6264221545 0.8739106257 0.0458173677
0.6893754767 0.8736844157 0.0457312129
0.7518001940 0.8737380794 0.0458212867
0.8144049926 0.8737260593 0.0458101705
0.8768756236 0.8736418268 0.0457050838
0.9393924573 0.8734746274 0.0454921834
1.0000000000 0.8734285051 0.0453702323
0.0000000000 0.9349485838 0.0508721508
0.0559259281 0.9346782840 0.0508565381
0.1209003618 0.9342728767 0.0505151637
0.1848653504 0.9339927665 0.0498440824
0.2485205962 0.9337619510 0.0493979715
0.3113622899 0.9337987851 0.0491539203
0.3744729098 0.9341648244 0.0491257086
0.4375457176 0.9348621205 0.0494453348
0.5008022635 0.9349853511 0.0495179333
0.5636734054 0.9350176775 0.0494754761
0.6263540972 0.9349292587 0.0495705009
0.6893306030 0.9347003482 0.0494719110
0.7517484815 0.9347656299 0.0495485812
0.8143496738 0.9347642986 0.0495316871
0.8768114613 0.9346809620 0.0494344644
0.9393219635 0.9345088813 0.0492354855
1.0000000000 0.9344567629 0.0491246171
0.0000000000 0.9957338390 0.0538937747
0.0559671368 0.9954571216 0.0538948365
0.1209702087 0.9950531181 0.0536035933
0.1849476483 0.9947826583 0.0529831573
0.2486026324 0.9945111834 0.0525907464
0.3114182884 0.9945010887 0.0523915179
0.3744913369 0.9947838602 0.0523804314
0.4375192686 0.9954186091 0.0527085252
0.5007576898 0.9955435763 0.0527909733
0.5636143315 0.9955843799 0.0527635515
0.6262902848 0.9955103956 0.0528700985
0.6892628620 0.9952835077 0.0527808592
0.7516687885 0.9953534566 0.0528602712
0.8142632659 0.9953606320 0.0528480336
0.8767260361 0.9952927618 0.0527567007
0.9392385726 0.9951307015 0.0525634922
1.0000000000 0.9950782955 0.0524555445
0.0000000000 0.0010722879 0.0697581484
0.0584407975 0.0011045428 0.0701513076
0.1235992790 0.0007838479 0.0705484105
0.1874928583 0.0007390785 0.0708774570
0.2509328703 0.0008843074 0.0716087027
0.3134684093 0.0014170973 0.0726531707
0.3763272520 0.0019426006 0.0737309651
0.4386874626 0.0030350205 0.0749737509
0.5014032425 0.0037416802 0.0765492888
0.5640236029 0.0044150138 0.0781606883
0.6260525159 0.0049811569 0.0793806054
0.6890018494 0.0049363631 0.0806686096
0.7513411449 0.0052452190 0.0821093582
0.8140728812 0.0049346182 0.0835481435
0.8769947079 0.0044456995 0.0854951404
0.9401250707 0.0034658925 0.0874540005
1.0000000000 0.0025630381 0.0881303344
0.0000000000 0.0631458157 0.0705833621
0.0587500543 0.0631900544 0.0710099610
0.1238379114 0.0628598917 0.0715088742
0.1877213072 0.0627587417 0.0719739078
0.2512277164 0.0628181678 0.0728007350
0.3138375963 0.0632611471 0.0739064449
0.3767007296 0.0636929141 0.0750096850
0.4391012512 0.0646814427 0.0762542216
0.5018710188 0.0653113395 0.0778014231
0.5645463748 0.0659223024 0.0793527439
0.6265898919 0.0664636851 0.0805232972
0.6895097578 0.0664577577 0.0817119330
0.7517542726 0.0668631420 0.0830112919
0.8143996570 0.0666603777 0.0843200106
0.8772857906 0.0662726178 0.0861249231
0.9403902043 0.0653885598 0.0879480336
1.0000000000 0.0645403485 0.0885083992
0.0000000000 0.1252795160 0.0722278999
0.0589928334 0.1253406301 0.0726440409
0.1239668345 0.1250426372 0.0732067255
0.1878246007 0.1249271873 0.0737421298
0.2513650361 0.1249450983 0.0745710675
0.3140468044 0.1253262269 0.0756454142
0.3769336984 0.1257003395 0.0766857238
0.4394458565 0.1265844441 0.0778323328
0.5023295619 0.1271450664 0.0791845676
0.5650792299 0.1276897786 0.0805215333
0.6271571366 0.1281842457 0.0815352798
0.6899800817 0.1281975817 0.0825574957
0.7521055329 0.1286562716 0.0837004092
0.8146305161 0.1285467243 0.0848571230
0.8774660055 0.1282273766 0.0865035653
0.9405141852 0.1274340339 0.0882027540
1.0000000000 0.1266375803 0.0887053590
0.0000000000 0.1878582948 0.0738940863
0.0591336025 0.1879057456 0.0743312640
0.1239738248 0.1876797517 0.0750130620
0.1877900323 0.1875798419 0.0756896352
0.2512946996 0.1875880952 0.0766154649
0.3139866671 0.1879368707 0.0777382925
0.3769053008 0.1882285599 0.0788168758
0.4395074060 0.1889799429 0.0799345803
0.5025294824 0.1894168364 0.0810717419
0.5653507691 0.1898572973 0.0821464099
0.6275090917 0.1902385913 0.0829436760
0.6902597840 0.1902302492 0.0837149099
0.7523189299 0.1906929908 0.0846222546
0.8147755687 0.1906516100 0.0855389796
0.8775436510 0.1904277785 0.0869094525
0.9405447077 0.1897632421 0.0883867331
1.0000000000 0.1890590619 0.0888110902
0.0000000000 0.2506183754 0.0759024983
0.0597990502 0.2506139983 0.0763078630
0.1244405662 0.2504454512 0.0770748537
0.1881301841 0.2503507116 0.0778568145
0.2514610201 0.2503577108 0.0788439903
0.3140312567 0.2506927949 0.0799912810
0.3768707231 0.2509241095 0.0811486226
0.4394794535 0.2515853769 0.0823080074
0.5025735572 0.2519455514 0.0832631830
0.5654012244 0.2523386099 0.0840966348
0.6276768579 0.2526497182 0.0846729781
0.6903824762 0.2526558551 0.0851679016
0.7524526324 0.2530909218 0.0858553182
0.8148971291 0.2530980809 0.0865346957
0.8776403440 0.2529684496 0.0875756387
0.9406113820 0.2524289642 0.0887358934
1.0000000000 0.2518194084 0.0890641715
0.0000000000 0.3134562412 0.0780296726
0.0598218702 0.3133591161 0.0783461183
0.1243508171 0.3132098523 0.0790760461
0.1880115423 0.3130956670 0.0798227657
0.2512615435 0.3130971149 0.0807399023
0.3138104624 0.3134154539 0.0818002522
0.3766418827 0.3136130201 0.0829669591
0.4393314188 0.3142152011 0.0841461085
0.5025427048 0.3145212403 0.0849427599
0.5654122513 0.3148905537 0.0855752919
0.6278362556 0.3151540151 0.0859743152
0.6905157275 0.3151946655 0.0862493273
0.7526134104 0.3156031631 0.0867802538
0.8150495626 0.3156626411 0.0872796513
0.8777622178 0.3156182470 0.0880417936
0.9406902303 0.3151968443 0.0889190845
1.0000000000 0.3146765924 0.0891776998
0.0000000000 0.3760833152 0.0796649680
0.0600890338 0.3759313497 0.0799290873
0.1245162579 0.3757875543 0.0806653928
0.1881001267 0.3756136472 0.0814503655
0.2512541043 0.3755758212 0.0824485663
0.3137407005 0.3758418165 0.0835964270
0.3765108982 0.3759944635 0.0849673096
0.4391776759 0.3765645698 0.0863822661
0.5023632830 0.3767958991 0.0872460641
0.5651801729 0.3771273575 0.0878850855
0.6276819103 0.3773369421 0.0882415995
0.6903848886 0.3774002553 0.0883786250
0.7525578290 0.3777518196 0.0887606908
0.8150391236 0.3778373620 0.0890734494
0.8777419270 0.3778686454 0.0895301439
0.9406399657 0.3775752867 0.0900716092
1.0000000000 0.3771957457 0.0902029872
0.0000000000 0.4388740557 0.0812655538
0.0596118299 0.4386802294 0.0814491194
0.1240839553 0.4385337910 0.0820660107
0.1877290992 0.4383275291 0.0827469751
0.2509234972 0.4382709929 0.0836771876
0.3134722556 0.4385118341 0.0847900845
0.3762441711 0.4386932970 0.0862382781
0.4389625360 0.4392907727 0.0878008585
0.5021175947 0.4394997321 0.0887259021
0.5648851558 0.4398011079 0.0893901009
0.6274567510 0.4399607850 0.0897628237
0.6901824165 0.4400096666 0.0898328274
0.7524264802 0.4402841143 0.0901442375
0.8149378120 0.4403507409 0.0903484430
0.8776253222 0.4403889722 0.0905921850
0.9404728548 0.4401613260 0.0908657480
1.0000000000 0.4398853146 0.0908929501
0.0000000000 0.5017485775 0.0835193656
0.0592893257 0.5015225713 0.0836462509
0.1237844750 0.5013319742 0.0840767603
0.1874399918 0.5010794321 0.0845284387
0.2506549086 0.5010024100 0.0852551106
0.3132430161 0.5012170677 0.0861844700
0.3760828266 0.5014431679 0.0875158180
0.4388920803 0.5020662525 0.0890332591
0.5020527737 0.5022029278 0.0898985863
0.5648052879 0.5024063441 0.0904931668
0.6274165681 0.5024700402 0.0908463132
0.6901815254 0.5024534422 0.0908758231
0.7524874520 0.5026674750 0.0911323875
0.8150245231 0.5027179348 0.0912654232
0.8776495529 0.5027468821 0.0913764928
0.9404011727 0.5025629965 0.0914768074
1.0000000000 0.5023715070 0.0914567877
0.0000000000 0.5645787308 0.0861767083
0.0587289787 0.5643192438 0.0862383414
0.1233330307 0.5640818583 0.0864515267
0.1870558051 0.5637969344 0.0866218545
0.2503196699 0.5637063874 0.0870885029
0.3129572825 0.5639006444 0.0877800435
0.3758792201 0.5641762223 0.0889331121
0.4387760339 0.5648374297 0.0903408919
0.5019283609 0.5649256893 0.0911055449
0.5646543067 0.5650529168 0.0916101802
0.6272611890 0.5650414533 0.0919399913
0.6900444273 0.5649612097 0.0919535719
0.7523966508 0.5651154688 0.0921951141
0.8149538764 0.5651462723 0.0923042111
0.8775232083 0.5651544675 0.0923352167
0.9401861527 0.5649949608 0.0923140179
1.0000000000 0.5648701922 0.0922727864
0.0000000000 0.6274160650 0.0887219217
0.0585268862 0.6271027613 0.0887388978
0.1232280594 0.6267859534 0.0887450688
0.1870036832 0.6264468250 0.0886415616
0.2503135726 0.6263230151 0.0888415352
0.3129750455 0.6264824845 0.0892818421
0.3759589713 0.6268054979 0.0902015064
0.4389027907 0.6275058331 0.0914259795
0.5020591873 0.6275731553 0.0920693949
0.5647873613 0.6276565222 0.0924756266
0.6274051883 0.6275931918 0.0927877855
0.6902268564 0.6274690251 0.0927991886
0.7526146772 0.6275860467 0.0930431560
0.8151880230 0.6276086727 0.0931503586
0.8777037193 0.6276003106 0.0931400768
0.9403068996 0.6274555274 0.0930486079
1.0000000000 0.6273794593 0.0929928627
0.0000000000 0.6898587546 0.0916318856
0.0584168201 0.6895075596 0.0916014463
0.1231922365 0.6891015827 0.0914376769
0.1869737596 0.6887024520 0.0910892077
0.2502837599 0.6885273427 0.0910349078
0.3128980638 0.6886419858 0.0912340209
0.3758444991 0.6889999323 0.0919002667
0.4387642033 0.6897334026 0.0929212328
0.5019048003 0.6898035014 0.0934403073
0.5646312239 0.6898707442 0.0937554725
0.6272597993 0.6898013456 0.0940410346
0.6901227294 0.6896698927 0.0940461084
0.7525298777 0.6897833049 0.0942884833
0.8151159266 0.6898128157 0.0943973847
0.8776106634 0.6897894461 0.0943725631
0.9401783126 0.6896421905 0.0942415558
1.0000000000 0.6895879270 0.0941812545
0.0000000000 0.7519026251 0.0941318348
0.0576819470 0.7515369202 0.0940695778
0.1226233949 0.7510711278 0.0938005522
0.1865266446 0.7506444828 0.0932988394
0.2499911139 0.7504241245 0.0931061823
0.3127067540 0.7504974838 0.0931778196
0.3757027726 0.7508642348 0.0936730430
0.4386507107 0.7516056887 0.0945556499
0.5018272419 0.7516781141 0.0950219855
0.5645968870 0.7517310661 0.0953149833
0.6272643025 0.7516466582 0.0956145041
0.6901922643 0.7514881903 0.0956411101
0.7526131519 0.7515957918 0.0958761796
0.8152144961 0.7516262026 0.0959808119
0.8777033298 0.7515932807 0.0959556662
0.9402609912 0.7514492150 0.0958121978
1.0000000000 0.7514111625 0.0957432203
0.0000000000 0.8135191615 0.0967655219
0.0571715957 0.8131590754 0.0967035778
0.1222378302 0.8126555196 0.0963991173
0.1862154425 0.8122181720 0.0958274193
0.2497881998 0.8119635697 0.0955803022
0.3125534304 0.8120075403 0.0956008993
0.3755560542 0.8123817100 0.0959866643
0.4384897174 0.8131310521 0.0967746750
0.5016671396 0.8132079014 0.0972123705
0.5644523851 0.8132466354 0.0975010730
0.6271340835 0.8131475830 0.0978295356
0.6901103703 0.8129581758 0.0978905521
0.7525346652 0.8130576753 0.0981300473
0.8151466828 0.8130848511 0.0982428193
0.8776327686 0.8130392013 0.0982299596
0.9401846626 0.8128930840 0.0980867967
1.0000000000 0.8128667966 0.0980155692
0.0000000000 0.8748292133 0.0997727215
0.0560955768 0.8744699615 0.0997065417
0.1212789263 0.8739449531 0.0993735418
0.1853421619 0.8735251098 0.0987347886
0.2490192449 0.8732660197 0.0984059423
0.3118456315 0.8733160491 0.0983399153
0.3748809870 0.8737139120 0.0985697061
0.4378365275 0.8744853752 0.0992010944
0.5010464019 0.8745967880 0.0995432399
0.5638655885 0.8746460819 0.0997662134
0.6265740849 0.8745517820 0.1000777818
0.6895837856 0.8743405734 0.1001462527
0.7520053466 0.8744389921 0.1003887840
0.8146174939 0.8744645374 0.1005115658
0.8770961834 0.8744087357 0.1005192734
0.9396410200 0.8742541979 0.1003955789
1.0000000000 0.8742261127 0.1003357507
0.0000000000 0.9358915682 0.1035601012
0.0557797770 0.9355324081 0.1034996063
0.1210129559 0.9349967933 0.1031767838
0.1851046502 0.9345882174 0.1025247052
0.2488285933 0.9343171732 0.1021749265
0.3116704759 0.9343617822 0.1020743102
0.3747287625 0.9347565195 0.1022062339
0.4376854614 0.9355377147 0.1027206928
0.5009165061 0.9356813206 0.1029807106
0.5637573755 0.9357534461 0.1031417958
0.6264744033 0.9356752607 0.1034257337
0.6895027093 0.9354605475 0.1034889929
0.7519165133 0.9355701664 0.1037233919
0.8145249176 0.9356058341 0.1038453132
0.8769956387 0.9355508824 0.1038645282
0.9395351869 0.9353914522 0.1037567593
1.0000000000 0.9353575050 0.1037086733
0.0000000000 0.9967453741 0.1061696596
0.0558090927 0.9963777845 0.1061298214
0.1210763152 0.9958435572 0.1058630832
0.1851867726 0.9954440570 0.1052694358
0.2489130510 0.9951351886 0.1049847677
0.3117309210 0.9951366466 0.1049408726
0.3747544110 0.9954555100 0.1051033884
0.4376677636 0.9961801125 0.1056396328
0.5008824355 0.9963269795 0.1059225313
0.5637105562 0.9964090080 0.1061113440
0.6264218135 0.9963458239 0.1064155512
0.6894449717 0.9961333228 0.1064938903
0.7518469121 0.9962472655 0.1067342386
0.8144490031 0.9962908707 0.1068635918
0.8769205000 0.9962501423 0.1068902090
0.9394620170 0.9960997328 0.1067890450
1.0000000000 0.9960651454 0.1067439020
0.0000000000 0.0027311787 0.1325780586
0.0572490450 0.0026659416 0.1328231310
0.1228352699 0.0021472878 0.1329740863
0.1870516257 0.0018286919 0.1330328993
0.2506798815 0.0017096540 0.1335356645
0.3132885605 0.0019936797 0.1343589583
0.3761619546 0.0023515299 0.1352600371
0.4383952668 0.0033341621 0.1363682011
0.5011123709 0.0039700200 0.1378409248
0.5637220525 0.0046382230 0.1393337548
0.6257899561 0.0051726829 0.1404408915
0.6887375214 0.0051437379 0.1415577196
0.7510524828 0.0054685925 0.1428337600
0.8137548573 0.0052108960 0.1441034153
0.8766049623 0.0047808373 0.1458891723
0.9397081640 0.0038759103 0.1477080621
1.0000000000 0.0030482684 0.1482953001
0.0000000000 0.0646988668 0.1332551818
0.0576273967 0.0646567957 0.1335257711
0.1231185485 0.0641500298 0.1337643182
0.1872986052 0.0638022372 0.1339428267
0.2509605028 0.0636259781 0.1345264018
0.3136107543 0.0638474018 0.1354019670
0.3764638859 0.0641386830 0.1363241477
0.4387232544 0.0650383192 0.1374379219
0.5014944318 0.0656093408 0.1388857206
0.5641569463 0.0662223422 0.1403252007
0.6262444652 0.0667353501 0.1413888987
0.6891715616 0.0667415694 0.1424208097
0.7514081234 0.0671554971 0.1435796730
0.8140407819 0.0669971253 0.1447425354
0.8768665813 0.0666603260 0.1464068349
0.9399516461 0.0658444080 0.1481067240
1.0000000000 0.0650667094 0.1485929899
0.0000000000 0.1266685737 0.1346038915
0.0579550420 0.1266559120 0.1348538268
