webapp/static/best_of_n/ex2/winner.cube
LUT_3D_SIZE 5
DOMAIN_MIN 0 0 0
DOMAIN_MAX 1 1 1
0.0000000000 0.0003452596 0.0076847943
0.2508700393 0.0006473601 0.0104272962
0.5013304310 0.0035874452 0.0157985799
0.7513577497 0.0051434357 0.0217042584
1.0000000000 0.0023212102 0.0281866398
0.0000000000 0.2502641568 0.0149250254
0.2512147294 0.2503662545 0.0189361461
0.5026338431 0.2518393898 0.0238682479
0.7525831894 0.2529631492 0.0264578983
1.0000000000 0.2516117084 0.0297041070
0.0000000000 0.5015534507 0.0252608731
0.2505510887 0.5012056663 0.0275259502
0.5021411695 0.5022307592 0.0322632119
0.7525004954 0.5025502946 0.0331828631
1.0000000000 0.5021712966 0.0332736820
0.0000000000 0.7512931477 0.0394343808
0.2497152538 0.7502055582 0.0384441204
0.5016880505 0.7513361832 0.0399100184
0.7523833262 0.7511378729 0.0401857495
1.0000000000 0.7508614514 0.0396849103
0.0000000000 0.9957338390 0.0538937747
0.2486026324 0.9945111834 0.0525907464
0.5007576898 0.9955435763 0.0527909733
0.7516687885 0.9953534566 0.0528602712
1.0000000000 0.9950782955 0.0524555445
0.0000000000 0.0057559246 0.2591623552
0.2481996937 0.0030604911 0.2585091209
0.4999389265 0.0038674334 0.2613840597
0.7502005861 0.0053598830 0.2653773362
1.0000000000 0.0037626931 0.2695381939
0.0000000000 0.2535140440 0.2620368116
0.2491968324 0.2515345333 0.2618854688
0.5003232227 0.2523820370 0.2645704681
0.7505473090 0.2538015409 0.2670782376
1.0000000000 0.2531153809 0.2697968688
0.0000000000 0.5034429289 0.2635375923
0.2486918010 0.5009815510 0.2638691403
0.4998129082 0.5020991727 0.2679302357
0.7502992307 0.5033072690 0.2699940484
1.0000000000 0.5033037008 0.2707478702
0.0000000000 0.7553647142 0.2671905942
0.2470940636 0.7521474557 0.2660532165
0.4992375903 0.7528499160 0.2687208820
0.7502410221 0.7534495504 0.2708135564
1.0000000000 0.7534930848 0.2713169754
0.0000000000 1.0000000000 0.2741235252
0.2468126337 0.9989578159 0.2726955786
0.4990757646 0.9994171881 0.2746711727
0.7501627224 1.0000000000 0.2768756486
1.0000000000 1.0000000000 0.2775159795
0.0000000000 0.0083899722 0.5109710414
0.2378477547 0.0048942724 0.5115822814
0.4941380247 0.0038073957 0.5122496476
0.7478370301 0.0043178904 0.5133554349
0.9999822166 0.0038631666 0.5147472220
0.0000000000 0.2561508860 0.5117082018
0.2385457652 0.2531571707 0.5119378027
0.4944375814 0.2525997537 0.5124983620
0.7482181117 0.2534933335 0.5136498362
0.9999563808 0.2534715184 0.5150176268
0.0000000000 0.5045937132 0.5122637916
0.2401228631 0.5015331546 0.5122335609
0.4947545337 0.5020414030 0.5127500352
0.7482976097 0.5034091999 0.5141311539
0.9996834108 0.5034913248 0.5153867202
0.0000000000 0.7553234831 0.5123797348
0.2386448458 0.7519526592 0.5124255270
0.4946598071 0.7520170484 0.5126593253
0.7487475981 0.7530647516 0.5139846569
0.9999176184 0.7531519427 0.5153236138
0.0000000000 1.0000000000 0.5131747164
0.2376389755 1.0000000000 0.5135338716
0.4943977273 1.0000000000 0.5139666833
0.7487520567 1.0000000000 0.5153007256
0.9998944960 1.0000000000 0.5166821051
0.0000000000 0.0067280768 0.7593833487
0.2300804108 0.0051346649 0.7612440707
0.4885384319 0.0052904957 0.7632014640
0.7439764482 0.0051336340 0.7635005526
0.9993665702 0.0039722379 0.7637622841
0.0000000000 0.2557135015 0.7593702534
0.2298219763 0.2539657997 0.7610934321
0.4906208357 0.2538946983 0.7634812538
0.7460260699 0.2541907653 0.7643091660
0.9995538143 0.2537810798 0.7643979238
0.0000000000 0.5057304404 0.7598626064
0.2301386409 0.5038691545 0.7611530088
0.4904224947 0.5039488575 0.7629093789
0.7464768945 0.5043456294 0.7640593443
0.9989984987 0.5040903958 0.7644891655
0.0000000000 0.7558316756 0.7597766509
0.2301463448 0.7540282267 0.7613981599
0.4906054065 0.7539354288 0.7629948109
0.7471391992 0.7542337361 0.7640563026
0.9991314634 0.7541188081 0.7646622583
0.0000000000 1.0000000000 0.7595189633
0.2298057359 1.0000000000 0.7613553749
0.4906027876 1.0000000000 0.7631572168
0.7472922513 1.0000000000 0.7641840326
0.9991816695 1.0000000000 0.7648001239
0.0000000000 0.0070266440 1.0000000000
0.2129149176 0.0069003818 1.0000000000
0.4775699023 0.0095314877 1.0000000000
0.7361230105 0.0089450264 1.0000000000
0.9964897709 0.0051552183 1.0000000000
0.0000000000 0.2566871336 1.0000000000
0.2130881883 0.2559592836 1.0000000000
0.4818029795 0.2573490432 1.0000000000
0.7405535663 0.2568123271 1.0000000000
0.9976054537 0.2545363414 1.0000000000
0.0000000000 0.5069277468 1.0000000000
0.2121854573 0.5062561762 1.0000000000
0.4823399205 0.5070940736 1.0000000000
0.7434474169 0.5058423686 1.0000000000
0.9982047501 0.5044449153 1.0000000000
0.0000000000 0.7568885228 1.0000000000
0.2124149837 0.7564098942 1.0000000000
0.4825812615 0.7570451233 1.0000000000
0.7446817216 0.7554847337 1.0000000000
0.9984778187 0.7545499494 1.0000000000
0.0000000000 1.0000000000 1.0000000000
0.2126188613 1.0000000000 1.0000000000
0.4827106521 1.0000000000 1.0000000000
0.7448850498 1.0000000000 1.0000000000
0.9985182222 1.0000000000 1.0000000000
