webapp/static/gallery_seeds/teal-orange-cinematic/lut.cube
LUT_3D_SIZE 5
DOMAIN_MIN 0 0 0
DOMAIN_MAX 1 1 1
0.0000000000 0.0000000000 0.0000000000
0.1642520000 0.0000000000 0.0000000000
0.4685040000 0.0000000000 0.0000000000
0.7727560000 0.0000000000 0.0000000000
1.0000000000 0.0000000000 0.0000000000
0.0000000000 0.2096360000 0.0000000000
0.1785560000 0.2080415000 0.0000000000
0.4828080000 0.2064470000 0.0000000000
0.7870600000 0.2048525000 0.0000000000
1.0000000000 0.2032580000 0.0000000000
0.0000000000 0.5042720000 0.0000000000
0.1928600000 0.5026775000 0.0000000000
0.4971120000 0.5010830000 0.0000000000
0.8020460000 0.5006820000 0.0000000000
1.0000000000 0.5028080000 0.0000000000
0.0000000000 0.8014560000 0.0000000000
0.2107460000 0.8035820000 0.0000000000
0.5171240000 0.8057080000 0.0000000000
0.8235020000 0.8078340000 0.0000000000
1.0000000000 0.8099600000 0.0000000000
0.0000000000 1.0000000000 0.0000000000
0.2322020000 1.0000000000 0.0000000000
0.5385800000 1.0000000000 0.0000000000
0.8449580000 1.0000000000 0.0000000000
1.0000000000 1.0000000000 0.0000000000
0.0000000000 0.0000000000 0.2674730000
0.1656960000 0.0000000000 0.2600320000
0.4699480000 0.0000000000 0.2525910000
0.7742000000 0.0000000000 0.2451500000
1.0000000000 0.0000000000 0.2377090000
0.0000000000 0.2090945000 0.2424410000
0.1800000000 0.2075000000 0.2350000000
0.4842520000 0.2059055000 0.2275590000
0.7885040000 0.2043110000 0.2201180000
1.0000000000 0.2027165000 0.2126770000
0.0000000000 0.5037305000 0.2174090000
0.1943040000 0.5021360000 0.2099680000
0.4985560000 0.5005415000 0.2025270000
0.8042120000 0.5014040000 0.1957880000
1.0000000000 0.5035300000 0.1894100000
0.0000000000 0.8021780000 0.1934660000
0.2129120000 0.8043040000 0.1870880000
0.5192900000 0.8064300000 0.1807100000
0.8256680000 0.8085560000 0.1743320000
1.0000000000 0.8106820000 0.1679540000
0.0000000000 1.0000000000 0.1720100000
0.2343680000 1.0000000000 0.1656320000
0.5407460000 1.0000000000 0.1592540000
0.8471240000 1.0000000000 0.1528760000
1.0000000000 1.0000000000 0.1464980000
0.0000000000 0.0000000000 0.5649460000
0.1671400000 0.0000000000 0.5575050000
0.4713920000 0.0000000000 0.5500640000
0.7756440000 0.0000000000 0.5426230000
1.0000000000 0.0000000000 0.5351820000
0.0000000000 0.2085530000 0.5399140000
0.1814440000 0.2069585000 0.5324730000
0.4856960000 0.2053640000 0.5250320000
0.7899480000 0.2037695000 0.5175910000
1.0000000000 0.2021750000 0.5101500000
0.0000000000 0.5031890000 0.5148820000
0.1957480000 0.5015945000 0.5074410000
0.5000000000 0.5000000000 0.5000000000
0.8063780000 0.5021260000 0.4936220000
1.0000000000 0.5042520000 0.4872440000
0.0000000000 0.8029000000 0.4913000000
0.2150780000 0.8050260000 0.4849220000
0.5214560000 0.8071520000 0.4785440000
0.8278340000 0.8092780000 0.4721660000
1.0000000000 0.8114040000 0.4657880000
0.0000000000 1.0000000000 0.4698440000
0.2365340000 1.0000000000 0.4634660000
0.5429120000 1.0000000000 0.4570880000
0.8492900000 1.0000000000 0.4507100000
1.0000000000 1.0000000000 0.4443320000
0.0000000000 0.0000000000 0.8624190000
0.1685840000 0.0000000000 0.8549780000
0.4728360000 0.0000000000 0.8475370000
0.7770880000 0.0000000000 0.8400960000
1.0000000000 0.0000000000 0.8326550000
0.0000000000 0.2080115000 0.8373870000
0.1828880000 0.2064170000 0.8299460000
0.4871400000 0.2048225000 0.8225050000
0.7913920000 0.2032280000 0.8150640000
1.0000000000 0.2016335000 0.8076230000
0.0000000000 0.5026475000 0.8123550000
0.1971920000 0.5010530000 0.8049140000
0.5021660000 0.5007220000 0.7978340000
0.8085440000 0.5028480000 0.7914560000
1.0000000000 0.5049740000 0.7850780000
0.0000000000 0.8036220000 0.7891340000
0.2172440000 0.8057480000 0.7827560000
0.5236220000 0.8078740000 0.7763780000
0.8300000000 0.8100000000 0.7700000000
1.0000000000 0.8121260000 0.7636220000
0.0000000000 1.0000000000 0.7676780000
0.2387000000 1.0000000000 0.7613000000
0.5450780000 1.0000000000 0.7549220000
0.8514560000 1.0000000000 0.7485440000
1.0000000000 1.0000000000 0.7421660000
0.0000000000 0.0000000000 1.0000000000
0.1700280000 0.0000000000 1.0000000000
0.4742800000 0.0000000000 1.0000000000
0.7785320000 0.0000000000 1.0000000000
1.0000000000 0.0000000000 1.0000000000
0.0000000000 0.2074700000 1.0000000000
0.1843320000 0.2058755000 1.0000000000
0.4885840000 0.2042810000 1.0000000000
0.7928360000 0.2026865000 1.0000000000
1.0000000000 0.2010920000 1.0000000000
0.0000000000 0.5021060000 1.0000000000
0.1986360000 0.5005115000 1.0000000000
0.5043320000 0.5014440000 1.0000000000
0.8107100000 0.5035700000 1.0000000000
1.0000000000 0.5056960000 1.0000000000
0.0000000000 0.8043440000 1.0000000000
0.2194100000 0.8064700000 1.0000000000
0.5257880000 0.8085960000 1.0000000000
0.8321660000 0.8107220000 1.0000000000
1.0000000000 0.8128480000 1.0000000000
0.0000000000 1.0000000000 1.0000000000
0.2408660000 1.0000000000 1.0000000000
0.5472440000 1.0000000000 1.0000000000
0.8536220000 1.0000000000 1.0000000000
1.0000000000 1.0000000000 1.0000000000
