webapp/static/gallery_seeds/teal-orange-cinematic/lut.cube
LUT_3D_SIZE 17
DOMAIN_MIN 0 0 0
DOMAIN_MAX 1 1 1
0.0000000000 0.0000000000 0.0000000000
0.0000000000 0.0000000000 0.0000000000
0.0121260000 0.0000000000 0.0000000000
0.0881890000 0.0000000000 0.0000000000
0.1642520000 0.0000000000 0.0000000000
0.2403150000 0.0000000000 0.0000000000
0.3163780000 0.0000000000 0.0000000000
0.3924410000 0.0000000000 0.0000000000
0.4685040000 0.0000000000 0.0000000000
0.5445670000 0.0000000000 0.0000000000
0.6206300000 0.0000000000 0.0000000000
0.6966930000 0.0000000000 0.0000000000
0.7727560000 0.0000000000 0.0000000000
0.8488190000 0.0000000000 0.0000000000
0.9248820000 0.0000000000 0.0000000000
1.0000000000 0.0000000000 0.0000000000
1.0000000000 0.0000000000 0.0000000000
0.0000000000 0.0000000000 0.0000000000
0.0000000000 0.0000000000 0.0000000000
0.0157020000 0.0000000000 0.0000000000
0.0917650000 0.0000000000 0.0000000000
0.1678280000 0.0000000000 0.0000000000
0.2438910000 0.0000000000 0.0000000000
0.3199540000 0.0000000000 0.0000000000
0.3960170000 0.0000000000 0.0000000000
0.4720800000 0.0000000000 0.0000000000
0.5481430000 0.0000000000 0.0000000000
0.6242060000 0.0000000000 0.0000000000
0.7002690000 0.0000000000 0.0000000000
0.7763320000 0.0000000000 0.0000000000
0.8523950000 0.0000000000 0.0000000000
0.9284580000 0.0000000000 0.0000000000
1.0000000000 0.0000000000 0.0000000000
1.0000000000 0.0000000000 0.0000000000
0.0000000000 0.0623180000 0.0000000000
0.0000000000 0.0619193750 0.0000000000
0.0192780000 0.0615207500 0.0000000000
0.0953410000 0.0611221250 0.0000000000
0.1714040000 0.0607235000 0.0000000000
0.2474670000 0.0603248750 0.0000000000
0.3235300000 0.0599262500 0.0000000000
0.3995930000 0.0595276250 0.0000000000
0.4756560000 0.0591290000 0.0000000000
0.5517190000 0.0587303750 0.0000000000
0.6277820000 0.0583317500 0.0000000000
0.7038450000 0.0579331250 0.0000000000
0.7799080000 0.0575345000 0.0000000000
0.8559710000 0.0571358750 0.0000000000
0.9320340000 0.0567372500 0.0000000000
1.0000000000 0.0563386250 0.0000000000
1.0000000000 0.0559400000 0.0000000000
0.0000000000 0.1359770000 0.0000000000
0.0000000000 0.1355783750 0.0000000000
0.0228540000 0.1351797500 0.0000000000
0.0989170000 0.1347811250 0.0000000000
0.1749800000 0.1343825000 0.0000000000
0.2510430000 0.1339838750 0.0000000000
0.3271060000 0.1335852500 0.0000000000
0.4031690000 0.1331866250 0.0000000000
0.4792320000 0.1327880000 0.0000000000
0.5552950000 0.1323893750 0.0000000000
0.6313580000 0.1319907500 0.0000000000
0.7074210000 0.1315921250 0.0000000000
0.7834840000 0.1311935000 0.0000000000
0.8595470000 0.1307948750 0.0000000000
0.9356100000 0.1303962500 0.0000000000
1.0000000000 0.1299976250 0.0000000000
1.0000000000 0.1295990000 0.0000000000
0.0000000000 0.2096360000 0.0000000000
0.0000000000 0.2092373750 0.0000000000
0.0264300000 0.2088387500 0.0000000000
0.1024930000 0.2084401250 0.0000000000
0.1785560000 0.2080415000 0.0000000000
0.2546190000 0.2076428750 0.0000000000
0.3306820000 0.2072442500 0.0000000000
0.4067450000 0.2068456250 0.0000000000
0.4828080000 0.2064470000 0.0000000000
0.5588710000 0.2060483750 0.0000000000
0.6349340000 0.2056497500 0.0000000000
0.7109970000 0.2052511250 0.0000000000
0.7870600000 0.2048525000 0.0000000000
0.8631230000 0.2044538750 0.0000000000
0.9391860000 0.2040552500 0.0000000000
1.0000000000 0.2036566250 0.0000000000
1.0000000000 0.2032580000 0.0000000000
0.0000000000 0.2832950000 0.0000000000
0.0000000000 0.2828963750 0.0000000000
0.0300060000 0.2824977500 0.0000000000
0.1060690000 0.2820991250 0.0000000000
0.1821320000 0.2817005000 0.0000000000
0.2581950000 0.2813018750 0.0000000000
0.3342580000 0.2809032500 0.0000000000
0.4103210000 0.2805046250 0.0000000000
0.4863840000 0.2801060000 0.0000000000
0.5624470000 0.2797073750 0.0000000000
0.6385100000 0.2793087500 0.0000000000
0.7145730000 0.2789101250 0.0000000000
0.7906360000 0.2785115000 0.0000000000
0.8666990000 0.2781128750 0.0000000000
0.9427620000 0.2777142500 0.0000000000
1.0000000000 0.2773156250 0.0000000000
1.0000000000 0.2769170000 0.0000000000
0.0000000000 0.3569540000 0.0000000000
0.0000000000 0.3565553750 0.0000000000
0.0335820000 0.3561567500 0.0000000000
0.1096450000 0.3557581250 0.0000000000
0.1857080000 0.3553595000 0.0000000000
0.2617710000 0.3549608750 0.0000000000
0.3378340000 0.3545622500 0.0000000000
0.4138970000 0.3541636250 0.0000000000
0.4899600000 0.3537650000 0.0000000000
0.5660230000 0.3533663750 0.0000000000
0.6420860000 0.3529677500 0.0000000000
0.7181490000 0.3525691250 0.0000000000
0.7942120000 0.3521705000 0.0000000000
0.8702750000 0.3517718750 0.0000000000
0.9463380000 0.3513732500 0.0000000000
1.0000000000 0.3509746250 0.0000000000
1.0000000000 0.3505760000 0.0000000000
0.0000000000 0.4306130000 0.0000000000
0.0000000000 0.4302143750 0.0000000000
0.0371580000 0.4298157500 0.0000000000
0.1132210000 0.4294171250 0.0000000000
0.1892840000 0.4290185000 0.0000000000
0.2653470000 0.4286198750 0.0000000000
0.3414100000 0.4282212500 0.0000000000
0.4174730000 0.4278226250 0.0000000000
0.4935360000 0.4274240000 0.0000000000
0.5695990000 0.4270253750 0.0000000000
0.6456620000 0.4266267500 0.0000000000
0.7217250000 0.4262281250 0.0000000000
0.7977880000 0.4258295000 0.0000000000
0.8738510000 0.4254308750 0.0000000000
0.9499140000 0.4250322500 0.0000000000
1.0000000000 0.4254885000 0.0000000000
1.0000000000 0.4260200000 0.0000000000
0.0000000000 0.5042720000 0.0000000000
0.0000000000 0.5038733750 0.0000000000
0.0407340000 0.5034747500 0.0000000000
0.1167970000 0.5030761250 0.0000000000
0.1928600000 0.5026775000 0.0000000000
0.2689230000 0.5022788750 0.0000000000
0.3449860000 0.5018802500 0.0000000000
0.4210490000 0.5014816250 0.0000000000
0.4971120000 0.5010830000 0.0000000000
0.5731750000 0.5006843750 0.0000000000
0.6492380000 0.5002857500 0.0000000000
0.7254515000 0.5001505000 0.0000000000
0.8020460000 0.5006820000 0.0000000000
0.8786405000 0.5012135000 0.0000000000
0.9552350000 0.5017450000 0.0000000000
1.0000000000 0.5022765000 0.0000000000
1.0000000000 0.5028080000 0.0000000000
0.0000000000 0.5779310000 0.0000000000
0.0000000000 0.5775323750 0.0000000000
0.0443100000 0.5771337500 0.0000000000
0.1203730000 0.5767351250 0.0000000000
0.1964360000 0.5763365000 0.0000000000
0.2724990000 0.5759378750 0.0000000000
0.3485620000 0.5755392500 0.0000000000
0.4246250000 0.5751406250 0.0000000000
0.5010320000 0.5753440000 0.0000000000
0.5776265000 0.5758755000 0.0000000000
0.6542210000 0.5764070000 0.0000000000
0.7308155000 0.5769385000 0.0000000000
0.8074100000 0.5774700000 0.0000000000
0.8840045000 0.5780015000 0.0000000000
0.9605990000 0.5785330000 0.0000000000
1.0000000000 0.5790645000 0.0000000000
1.0000000000 0.5795960000 0.0000000000
0.0000000000 0.6515900000 0.0000000000
0.0000000000 0.6511913750 0.0000000000
0.0478860000 0.6507927500 0.0000000000
0.1239490000 0.6503941250 0.0000000000
0.2000180000 0.6500060000 0.0000000000
0.2766125000 0.6505375000 0.0000000000
0.3532070000 0.6510690000 0.0000000000
0.4298015000 0.6516005000 0.0000000000
0.5063960000 0.6521320000 0.0000000000
0.5829905000 0.6526635000 0.0000000000
0.6595850000 0.6531950000 0.0000000000
0.7361795000 0.6537265000 0.0000000000
0.8127740000 0.6542580000 0.0000000000
0.8893685000 0.6547895000 0.0000000000
0.9659630000 0.6553210000 0.0000000000
1.0000000000 0.6558525000 0.0000000000
1.0000000000 0.6563840000 0.0000000000
0.0000000000 0.7252490000 0.0000000000
0.0000000000 0.7251995000 0.0000000000
0.0521930000 0.7257310000 0.0000000000
0.1287875000 0.7262625000 0.0000000000
0.2053820000 0.7267940000 0.0000000000
0.2819765000 0.7273255000 0.0000000000
0.3585710000 0.7278570000 0.0000000000
0.4351655000 0.7283885000 0.0000000000
0.5117600000 0.7289200000 0.0000000000
0.5883545000 0.7294515000 0.0000000000
0.6649490000 0.7299830000 0.0000000000
0.7415435000 0.7305145000 0.0000000000
0.8181380000 0.7310460000 0.0000000000
0.8947325000 0.7315775000 0.0000000000
0.9713270000 0.7321090000 0.0000000000
1.0000000000 0.7326405000 0.0000000000
1.0000000000 0.7331720000 0.0000000000
0.0000000000 0.8014560000 0.0000000000
0.0000000000 0.8019875000 0.0000000000
0.0575570000 0.8025190000 0.0000000000
0.1341515000 0.8030505000 0.0000000000
0.2107460000 0.8035820000 0.0000000000
0.2873405000 0.8041135000 0.0000000000
0.3639350000 0.8046450000 0.0000000000
0.4405295000 0.8051765000 0.0000000000
0.5171240000 0.8057080000 0.0000000000
0.5937185000 0.8062395000 0.0000000000
0.6703130000 0.8067710000 0.0000000000
0.7469075000 0.8073025000 0.0000000000
0.8235020000 0.8078340000 0.0000000000
0.9000965000 0.8083655000 0.0000000000
0.9766910000 0.8088970000 0.0000000000
1.0000000000 0.8094285000 0.0000000000
1.0000000000 0.8099600000 0.0000000000
0.0000000000 0.8782440000 0.0000000000
0.0000000000 0.8787755000 0.0000000000
0.0629210000 0.8793070000 0.0000000000
0.1395155000 0.8798385000 0.0000000000
0.2161100000 0.8803700000 0.0000000000
0.2927045000 0.8809015000 0.0000000000
0.3692990000 0.8814330000 0.0000000000
0.4458935000 0.8819645000 0.0000000000
0.5224880000 0.8824960000 0.0000000000
0.5990825000 0.8830275000 0.0000000000
0.6756770000 0.8835590000 0.0000000000
0.7522715000 0.8840905000 0.0000000000
0.8288660000 0.8846220000 0.0000000000
0.9054605000 0.8851535000 0.0000000000
0.9820550000 0.8856850000 0.0000000000
1.0000000000 0.8862165000 0.0000000000
1.0000000000 0.8867480000 0.0000000000
0.0000000000 0.9550320000 0.0000000000
0.0000000000 0.9555635000 0.0000000000
0.0682850000 0.9560950000 0.0000000000
0.1448795000 0.9566265000 0.0000000000
0.2214740000 0.9571580000 0.0000000000
0.2980685000 0.9576895000 0.0000000000
0.3746630000 0.9582210000 0.0000000000
0.4512575000 0.9587525000 0.0000000000
0.5278520000 0.9592840000 0.0000000000
0.6044465000 0.9598155000 0.0000000000
0.6810410000 0.9603470000 0.0000000000
0.7576355000 0.9608785000 0.0000000000
0.8342300000 0.9614100000 0.0000000000
0.9108245000 0.9619415000 0.0000000000
0.9874190000 0.9624730000 0.0000000000
1.0000000000 0.9630045000 0.0000000000
1.0000000000 0.9635360000 0.0000000000
0.0000000000 1.0000000000 0.0000000000
0.0000000000 1.0000000000 0.0000000000
0.0736490000 1.0000000000 0.0000000000
0.1502435000 1.0000000000 0.0000000000
0.2268380000 1.0000000000 0.0000000000
0.3034325000 1.0000000000 0.0000000000
0.3800270000 1.0000000000 0.0000000000
0.4566215000 1.0000000000 0.0000000000
0.5332160000 1.0000000000 0.0000000000
0.6098105000 1.0000000000 0.0000000000
0.6864050000 1.0000000000 0.0000000000
0.7629995000 1.0000000000 0.0000000000
0.8395940000 1.0000000000 0.0000000000
0.9161885000 1.0000000000 0.0000000000
0.9927830000 1.0000000000 0.0000000000
1.0000000000 1.0000000000 0.0000000000
1.0000000000 1.0000000000 0.0000000000
0.0000000000 1.0000000000 0.0000000000
0.0024185000 1.0000000000 0.0000000000
0.0790130000 1.0000000000 0.0000000000
0.1556075000 1.0000000000 0.0000000000
0.2322020000 1.0000000000 0.0000000000
0.3087965000 1.0000000000 0.0000000000
0.3853910000 1.0000000000 0.0000000000
0.4619855000 1.0000000000 0.0000000000
0.5385800000 1.0000000000 0.0000000000
0.6151745000 1.0000000000 0.0000000000
0.6917690000 1.0000000000 0.0000000000
0.7683635000 1.0000000000 0.0000000000
0.8449580000 1.0000000000 0.0000000000
0.9215525000 1.0000000000 0.0000000000
0.9981470000 1.0000000000 0.0000000000
1.0000000000 1.0000000000 0.0000000000
1.0000000000 1.0000000000 0.0000000000
0.0000000000 0.0000000000 0.0443682500
0.0000000000 0.0000000000 0.0425080000
0.0124870000 0.0000000000 0.0406477500
0.0885500000 0.0000000000 0.0387875000
0.1646130000 0.0000000000 0.0369272500
0.2406760000 0.0000000000 0.0350670000
0.3167390000 0.0000000000 0.0332067500
0.3928020000 0.0000000000 0.0313465000
0.4688650000 0.0000000000 0.0294862500
0.5449280000 0.0000000000 0.0276260000
0.6209910000 0.0000000000 0.0257657500
0.6970540000 0.0000000000 0.0239055000
0.7731170000 0.0000000000 0.0220452500
0.8491800000 0.0000000000 0.0201850000
0.9252430000 0.0000000000 0.0183247500
1.0000000000 0.0000000000 0.0164645000
1.0000000000 0.0000000000 0.0146042500
0.0000000000 0.0000000000 0.0381102500
0.0000000000 0.0000000000 0.0362500000
0.0160630000 0.0000000000 0.0343897500
0.0921260000 0.0000000000 0.0325295000
0.1681890000 0.0000000000 0.0306692500
0.2442520000 0.0000000000 0.0288090000
0.3203150000 0.0000000000 0.0269487500
0.3963780000 0.0000000000 0.0250885000
0.4724410000 0.0000000000 0.0232282500
0.5485040000 0.0000000000 0.0213680000
0.6245670000 0.0000000000 0.0195077500
0.7006300000 0.0000000000 0.0176475000
0.7766930000 0.0000000000 0.0157872500
0.8527560000 0.0000000000 0.0139270000
0.9288190000 0.0000000000 0.0120667500
1.0000000000 0.0000000000 0.0102065000
1.0000000000 0.0000000000 0.0083462500
0.0000000000 0.0621826250 0.0318522500
0.0000000000 0.0617840000 0.0299920000
0.0196390000 0.0613853750 0.0281317500
0.0957020000 0.0609867500 0.0262715000
0.1717650000 0.0605881250 0.0244112500
0.2478280000 0.0601895000 0.0225510000
0.3238910000 0.0597908750 0.0206907500
0.3999540000 0.0593922500 0.0188305000
0.4760170000 0.0589936250 0.0169702500
0.5520800000 0.0585950000 0.0151100000
0.6281430000 0.0581963750 0.0132497500
0.7042060000 0.0577977500 0.0113895000
0.7802690000 0.0573991250 0.0095292500
0.8563320000 0.0570005000 0.0076690000
0.9323950000 0.0566018750 0.0058087500
1.0000000000 0.0562032500 0.0039485000
1.0000000000 0.0558046250 0.0020882500
0.0000000000 0.1358416250 0.0255942500
0.0000000000 0.1354430000 0.0237340000
0.0232150000 0.1350443750 0.0218737500
0.0992780000 0.1346457500 0.0200135000
0.1753410000 0.1342471250 0.0181532500
0.2514040000 0.1338485000 0.0162930000
0.3274670000 0.1334498750 0.0144327500
0.4035300000 0.1330512500 0.0125725000
0.4795930000 0.1326526250 0.0107122500
0.5556560000 0.1322540000 0.0088520000
0.6317190000 0.1318553750 0.0069917500
0.7077820000 0.1314567500 0.0051315000
0.7838450000 0.1310581250 0.0032712500
0.8599080000 0.1306595000 0.0014110000
0.9359710000 0.1302608750 0.0000000000
1.0000000000 0.1298622500 0.0000000000
1.0000000000 0.1294636250 0.0000000000
0.0000000000 0.2095006250 0.0193362500
0.0000000000 0.2091020000 0.0174760000
0.0267910000 0.2087033750 0.0156157500
0.1028540000 0.2083047500 0.0137555000
0.1789170000 0.2079061250 0.0118952500
0.2549800000 0.2075075000 0.0100350000
0.3310430000 0.2071088750 0.0081747500
0.4071060000 0.2067102500 0.0063145000
0.4831690000 0.2063116250 0.0044542500
0.5592320000 0.2059130000 0.0025940000
0.6352950000 0.2055143750 0.0007337500
0.7113580000 0.2051157500 0.0000000000
0.7874210000 0.2047171250 0.0000000000
0.8634840000 0.2043185000 0.0000000000
0.9395470000 0.2039198750 0.0000000000
1.0000000000 0.2035212500 0.0000000000
1.0000000000 0.2031226250 0.0000000000
0.0000000000 0.2831596250 0.0130782500
0.0000000000 0.2827610000 0.0112180000
0.0303670000 0.2823623750 0.0093577500
0.1064300000 0.2819637500 0.0074975000
0.1824930000 0.2815651250 0.0056372500
0.2585560000 0.2811665000 0.0037770000
0.3346190000 0.2807678750 0.0019167500
0.4106820000 0.2803692500 0.0000565000
0.4867450000 0.2799706250 0.0000000000
0.5628080000 0.2795720000 0.0000000000
0.6388710000 0.2791733750 0.0000000000
0.7149340000 0.2787747500 0.0000000000
0.7909970000 0.2783761250 0.0000000000
0.8670600000 0.2779775000 0.0000000000
0.9431230000 0.2775788750 0.0000000000
1.0000000000 0.2771802500 0.0000000000
1.0000000000 0.2767816250 0.0000000000
0.0000000000 0.3568186250 0.0068202500
0.0000000000 0.3564200000 0.0049600000
0.0339430000 0.3560213750 0.0030997500
0.1100060000 0.3556227500 0.0012395000
0.1860690000 0.3552241250 0.0000000000
0.2621320000 0.3548255000 0.0000000000
0.3381950000 0.3544268750 0.0000000000
0.4142580000 0.3540282500 0.0000000000
0.4903210000 0.3536296250 0.0000000000
0.5663840000 0.3532310000 0.0000000000
0.6424470000 0.3528323750 0.0000000000
0.7185100000 0.3524337500 0.0000000000
0.7945730000 0.3520351250 0.0000000000
0.8706360000 0.3516365000 0.0000000000
0.9466990000 0.3512378750 0.0000000000
1.0000000000 0.3508392500 0.0000000000
1.0000000000 0.3504406250 0.0000000000
0.0000000000 0.4304776250 0.0005622500
0.0000000000 0.4300790000 0.0000000000
0.0375190000 0.4296803750 0.0000000000
0.1135820000 0.4292817500 0.0000000000
0.1896450000 0.4288831250 0.0000000000
0.2657080000 0.4284845000 0.0000000000
0.3417710000 0.4280858750 0.0000000000
0.4178340000 0.4276872500 0.0000000000
0.4938970000 0.4272886250 0.0000000000
0.5699600000 0.4268900000 0.0000000000
0.6460230000 0.4264913750 0.0000000000
0.7220860000 0.4260927500 0.0000000000
0.7981490000 0.4256941250 0.0000000000
0.8742120000 0.4252955000 0.0000000000
0.9504125000 0.4251375000 0.0000000000
1.0000000000 0.4256690000 0.0000000000
1.0000000000 0.4262005000 0.0000000000
0.0000000000 0.5041366250 0.0000000000
0.0000000000 0.5037380000 0.0000000000
0.0410950000 0.5033393750 0.0000000000
0.1171580000 0.5029407500 0.0000000000
0.1932210000 0.5025421250 0.0000000000
0.2692840000 0.5021435000 0.0000000000
0.3453470000 0.5017448750 0.0000000000
0.4214100000 0.5013462500 0.0000000000
0.4974730000 0.5009476250 0.0000000000
0.5735360000 0.5005490000 0.0000000000
0.6495990000 0.5001503750 0.0000000000
0.7259930000 0.5003310000 0.0000000000
0.8025875000 0.5008625000 0.0000000000
0.8791820000 0.5013940000 0.0000000000
0.9557765000 0.5019255000 0.0000000000
1.0000000000 0.5024570000 0.0000000000
1.0000000000 0.5029885000 0.0000000000
0.0000000000 0.5777956250 0.0000000000
0.0000000000 0.5773970000 0.0000000000
0.0446710000 0.5769983750 0.0000000000
0.1207340000 0.5765997500 0.0000000000
0.1967970000 0.5762011250 0.0000000000
0.2728600000 0.5758025000 0.0000000000
0.3489230000 0.5754038750 0.0000000000
0.4249860000 0.5750052500 0.0000000000
0.5015735000 0.5755245000 0.0000000000
0.5781680000 0.5760560000 0.0000000000
0.6547625000 0.5765875000 0.0000000000
0.7313570000 0.5771190000 0.0000000000
0.8079515000 0.5776505000 0.0000000000
0.8845460000 0.5781820000 0.0000000000
0.9611405000 0.5787135000 0.0000000000
1.0000000000 0.5792450000 0.0000000000
1.0000000000 0.5797765000 0.0000000000
0.0000000000 0.6514546250 0.0000000000
0.0000000000 0.6510560000 0.0000000000
0.0482470000 0.6506573750 0.0000000000
0.1243100000 0.6502587500 0.0000000000
0.2005595000 0.6501865000 0.0000000000
0.2771540000 0.6507180000 0.0000000000
0.3537485000 0.6512495000 0.0000000000
0.4303430000 0.6517810000 0.0000000000
0.5069375000 0.6523125000 0.0000000000
0.5835320000 0.6528440000 0.0000000000
0.6601265000 0.6533755000 0.0000000000
0.7367210000 0.6539070000 0.0000000000
0.8133155000 0.6544385000 0.0000000000
0.8899100000 0.6549700000 0.0000000000
0.9665045000 0.6555015000 0.0000000000
1.0000000000 0.6560330000 0.0000000000
1.0000000000 0.6565645000 0.0000000000
0.0000000000 0.7251136250 0.0000000000
0.0000000000 0.7253800000 0.0000000000
0.0527345000 0.7259115000 0.0000000000
0.1293290000 0.7264430000 0.0000000000
0.2059235000 0.7269745000 0.0000000000
0.2825180000 0.7275060000 0.0000000000
0.3591125000 0.7280375000 0.0000000000
0.4357070000 0.7285690000 0.0000000000
0.5123015000 0.7291005000 0.0000000000
0.5888960000 0.7296320000 0.0000000000
0.6654905000 0.7301635000 0.0000000000
0.7420850000 0.7306950000 0.0000000000
0.8186795000 0.7312265000 0.0000000000
0.8952740000 0.7317580000 0.0000000000
0.9718685000 0.7322895000 0.0000000000
1.0000000000 0.7328210000 0.0000000000
1.0000000000 0.7333525000 0.0000000000
0.0000000000 0.8016365000 0.0000000000
0.0000000000 0.8021680000 0.0000000000
0.0580985000 0.8026995000 0.0000000000
0.1346930000 0.8032310000 0.0000000000
0.2112875000 0.8037625000 0.0000000000
0.2878820000 0.8042940000 0.0000000000
0.3644765000 0.8048255000 0.0000000000
0.4410710000 0.8053570000 0.0000000000
0.5176655000 0.8058885000 0.0000000000
0.5942600000 0.8064200000 0.0000000000
0.6708545000 0.8069515000 0.0000000000
0.7474490000 0.8074830000 0.0000000000
0.8240435000 0.8080145000 0.0000000000
0.9006380000 0.8085460000 0.0000000000
0.9772325000 0.8090775000 0.0000000000
1.0000000000 0.8096090000 0.0000000000
1.0000000000 0.8101405000 0.0000000000
0.0000000000 0.8784245000 0.0000000000
0.0000000000 0.8789560000 0.0000000000
0.0634625000 0.8794875000 0.0000000000
0.1400570000 0.8800190000 0.0000000000
0.2166515000 0.8805505000 0.0000000000
0.2932460000 0.8810820000 0.0000000000
0.3698405000 0.8816135000 0.0000000000
0.4464350000 0.8821450000 0.0000000000
0.5230295000 0.8826765000 0.0000000000
0.5996240000 0.8832080000 0.0000000000
0.6762185000 0.8837395000 0.0000000000
0.7528130000 0.8842710000 0.0000000000
0.8294075000 0.8848025000 0.0000000000
0.9060020000 0.8853340000 0.0000000000
0.9825965000 0.8858655000 0.0000000000
1.0000000000 0.8863970000 0.0000000000
1.0000000000 0.8869285000 0.0000000000
0.0000000000 0.9552125000 0.0000000000
0.0000000000 0.9557440000 0.0000000000
0.0688265000 0.9562755000 0.0000000000
0.1454210000 0.9568070000 0.0000000000
0.2220155000 0.9573385000 0.0000000000
0.2986100000 0.9578700000 0.0000000000
0.3752045000 0.9584015000 0.0000000000
0.4517990000 0.9589330000 0.0000000000
0.5283935000 0.9594645000 0.0000000000
0.6049880000 0.9599960000 0.0000000000
0.6815825000 0.9605275000 0.0000000000
0.7581770000 0.9610590000 0.0000000000
0.8347715000 0.9615905000 0.0000000000
0.9113660000 0.9621220000 0.0000000000
0.9879605000 0.9626535000 0.0000000000
1.0000000000 0.9631850000 0.0000000000
1.0000000000 0.9637165000 0.0000000000
0.0000000000 1.0000000000 0.0000000000
0.0000000000 1.0000000000 0.0000000000
0.0741905000 1.0000000000 0.0000000000
0.1507850000 1.0000000000 0.0000000000
0.2273795000 1.0000000000 0.0000000000
0.3039740000 1.0000000000 0.0000000000
0.3805685000 1.0000000000 0.0000000000
0.4571630000 1.0000000000 0.0000000000
0.5337575000 1.0000000000 0.0000000000
0.6103520000 1.0000000000 0.0000000000
0.6869465000 1.0000000000 0.0000000000
0.7635410000 1.0000000000 0.0000000000
0.8401355000 1.0000000000 0.0000000000
0.9167300000 1.0000000000 0.0000000000
0.9933245000 1.0000000000 0.0000000000
1.0000000000 1.0000000000 0.0000000000
1.0000000000 1.0000000000 0.0000000000
0.0000000000 1.0000000000 0.0000000000
0.0029600000 1.0000000000 0.0000000000
0.0795545000 1.0000000000 0.0000000000
0.1561490000 1.0000000000 0.0000000000
0.2327435000 1.0000000000 0.0000000000
0.3093380000 1.0000000000 0.0000000000
0.3859325000 1.0000000000 0.0000000000
0.4625270000 1.0000000000 0.0000000000
0.5391215000 1.0000000000 0.0000000000
0.6157160000 1.0000000000 0.0000000000
0.6923105000 1.0000000000 0.0000000000
0.7689050000 1.0000000000 0.0000000000
0.8454995000 1.0000000000 0.0000000000
0.9220940000 1.0000000000 0.0000000000
0.9986885000 1.0000000000 0.0000000000
1.0000000000 1.0000000000 0.0000000000
1.0000000000 1.0000000000 0.0000000000
0.0000000000 0.0000000000 0.1187365000
0.0000000000 0.0000000000 0.1168762500
0.0128480000 0.0000000000 0.1150160000
0.0889110000 0.0000000000 0.1131557500
0.1649740000 0.0000000000 0.1112955000
0.2410370000 0.0000000000 0.1094352500
0.3171000000 0.0000000000 0.1075750000
0.3931630000 0.0000000000 0.1057147500
0.4692260000 0.0000000000 0.1038545000
0.5452890000 0.0000000000 0.1019942500
0.6213520000 0.0000000000 0.1001340000
0.6974150000 0.0000000000 0.0982737500
0.7734780000 0.0000000000 0.0964135000
0.8495410000 0.0000000000 0.0945532500
0.9256040000 0.0000000000 0.0926930000
1.0000000000 0.0000000000 0.0908327500
1.0000000000 0.0000000000 0.0889725000
0.0000000000 0.0000000000 0.1124785000
0.0000000000 0.0000000000 0.1106182500
0.0164240000 0.0000000000 0.1087580000
0.0924870000 0.0000000000 0.1068977500
0.1685500000 0.0000000000 0.1050375000
0.2446130000 0.0000000000 0.1031772500
0.3206760000 0.0000000000 0.1013170000
0.3967390000 0.0000000000 0.0994567500
0.4728020000 0.0000000000 0.0975965000
0.5488650000 0.0000000000 0.0957362500
0.6249280000 0.0000000000 0.0938760000
0.7009910000 0.0000000000 0.0920157500
0.7770540000 0.0000000000 0.0901555000
0.8531170000 0.0000000000 0.0882952500
0.9291800000 0.0000000000 0.0864350000
1.0000000000 0.0000000000 0.0845747500
1.0000000000 0.0000000000 0.0827145000
0.0000000000 0.0620472500 0.1062205000
0.0000000000 0.0616486250 0.1043602500
