webapp/static/best_of_n/ex0/winner.cube
LUT_3D_SIZE 5
DOMAIN_MIN 0 0 0
DOMAIN_MAX 1 1 1
0.0122717666 0.0102084232 0.0000000000
0.2574657979 0.0087191882 0.0000000000
0.5059874249 0.0072852778 0.0000000000
0.7569824406 0.0064600152 0.0000000000
1.0000000000 0.0050158128 0.0000000000
0.0115519287 0.2574294046 0.0000000000
0.2573194620 0.2567949132 0.0000000000
0.5057468279 0.2559069432 0.0000000000
0.7563580582 0.2556180134 0.0000000000
1.0000000000 0.2544423537 0.0000000000
0.0122237122 0.5048982427 0.0000000000
0.2557653803 0.5049038348 0.0000000000
0.5043093148 0.5043398282 0.0000000000
0.7534048331 0.5043902793 0.0000000000
1.0000000000 0.5036098722 0.0000000000
0.0166099649 0.7510466998 0.0000000000
0.2541723968 0.7524005829 0.0000000000
0.5028156189 0.7523735524 0.0000000000
0.7506679219 0.7521609042 0.0000000000
1.0000000000 0.7518380930 0.0000000000
0.0298464037 0.9936474427 0.0000000000
0.2591652302 0.9967738898 0.0000000000
0.5026567667 0.9996749770 0.0000000000
0.7492900135 1.0000000000 0.0000000000
0.9976699131 1.0000000000 0.0000000000
0.0176011939 0.0061074048 0.2428982412
0.2555912565 0.0041801720 0.2418179410
0.5046572131 0.0026178414 0.2425578102
0.7556848829 0.0032039762 0.2453208799
1.0000000000 0.0031813518 0.2433938994
0.0172853488 0.2537135486 0.2436625618
0.2562293573 0.2531693927 0.2423864477
0.5051447148 0.2522404552 0.2421716591
0.7559173997 0.2531251863 0.2446970693
1.0000000000 0.2532344582 0.2429710417
0.0192281399 0.5020711944 0.2405721862
0.2572090859 0.5025140236 0.2407282405
0.5059934603 0.5020596669 0.2399475845
0.7551744268 0.5025714985 0.2413491262
1.0000000000 0.5025819705 0.2402687930
0.0235545244 0.7503020858 0.2326681800
0.2569167959 0.7506410088 0.2330312245
0.5055631194 0.7506570527 0.2338263560
0.7528221565 0.7507679742 0.2337963134
1.0000000000 0.7507846695 0.2325615995
0.0339966007 0.9968186847 0.2240706384
0.2607209207 0.9972381734 0.2248803899
0.5048070620 0.9989387668 0.2290189769
0.7508039365 0.9996503767 0.2299446613
0.9982984737 0.9999772108 0.2275554277
0.0359397940 0.0021226043 0.4880529428
0.2610823726 0.0007828887 0.4863586063
0.5072095725 0.0000000000 0.4860151233
0.7587249456 0.0011780948 0.4899098519
1.0000000000 0.0019492512 0.4907027269
0.0362304971 0.2511932007 0.4889044110
0.2621568935 0.2513224896 0.4875709340
0.5081457719 0.2506759126 0.4866055399
0.7594149811 0.2526425261 0.4903264381
1.0000000000 0.2534750223 0.4911390077
0.0378263257 0.5010025639 0.4912312394
0.2639678111 0.5025501784 0.4914484611
0.5098520815 0.5024593840 0.4895324791
0.7596660173 0.5035521640 0.4911447503
1.0000000000 0.5039973254 0.4916404393
0.0410305597 0.7500594509 0.4910968719
0.2656021137 0.7514719181 0.4907302987
0.5115856212 0.7522186521 0.4899119856
0.7598950732 0.7533085626 0.4899136340
1.0000000000 0.7533718741 0.4890699023
0.0466547236 1.0000000000 0.4863411523
0.2675732449 1.0000000000 0.4844681202
0.5103886435 1.0000000000 0.4852991356
0.7583434079 1.0000000000 0.4869246446
1.0000000000 1.0000000000 0.4844590593
0.0622806475 0.0000000000 0.7392193349
0.2702370342 0.0000000000 0.7381482301
0.5096460599 0.0000000000 0.7371515976
0.7593133701 0.0000000000 0.7398001924
1.0000000000 0.0002464498 0.7407278791
0.0629664958 0.2492688885 0.7390666688
0.2724801358 0.2511178410 0.7374230297
0.5122565972 0.2505934715 0.7360794023
0.7618761947 0.2532490343 0.7387019973
1.0000000000 0.2544314223 0.7395506427
0.0638474450 0.5003432399 0.7410924854
0.2742536291 0.5028997099 0.7401648751
0.5138730276 0.5025127768 0.7385514164
0.7626319937 0.5043384521 0.7396578034
1.0000000000 0.5051570316 0.7399957627
0.0647325367 0.7510346931 0.7423403198
0.2752706390 0.7534395140 0.7411145438
0.5149307298 0.7534075771 0.7401472293
0.7630711403 0.7550001401 0.7400148818
1.0000000000 0.7553302357 0.7392723449
0.0650645867 1.0000000000 0.7397352252
0.2744173892 1.0000000000 0.7370539950
0.5131473485 1.0000000000 0.7362499302
0.7620517090 1.0000000000 0.7377923029
1.0000000000 1.0000000000 0.7369447574
0.0939386785 0.0000000000 0.9893015064
0.2871874496 0.0000000000 0.9900864186
0.5157328956 0.0000000000 0.9922609744
0.7580409730 0.0000000000 0.9958851156
1.0000000000 0.0000000000 0.9971435084
0.0956726372 0.2409650031 0.9882072778
0.2910600193 0.2462618956 0.9876780529
0.5205311365 0.2489867539 0.9889937257
0.7629179414 0.2521104170 0.9923225609
1.0000000000 0.2530119396 0.9934767094
0.0962157100 0.4924597405 0.9882670986
0.2930091918 0.4981292606 0.9875000557
0.5231306367 0.5013480467 0.9880207162
0.7657440435 0.5043750722 0.9903121060
1.0000000000 0.5052967709 0.9912977265
0.0959681645 0.7430843804 0.9880014928
0.2932892516 0.7487487008 0.9870059676
0.5236190353 0.7523376483 0.9877457581
0.7663674857 0.7554280073 0.9893340822
1.0000000000 0.7562387916 0.9899794897
0.0952189118 0.9926807201 0.9863781910
0.2923559919 0.9981303272 0.9847274590
0.5226093642 1.0000000000 0.9855602831
0.7659449447 1.0000000000 0.9881946817
1.0000000000 1.0000000000 0.9893003702
