webapp/static/best_of_n/ex0/winner.cube
LUT_3D_SIZE 17
DOMAIN_MIN 0 0 0
DOMAIN_MAX 1 1 1
0.0122717666 0.0102084232 0.0000000000
0.0736711053 0.0099745942 0.0000000000
0.1346466942 0.0097459136 0.0000000000
0.1959049171 0.0091400295 0.0000000000
0.2574657979 0.0087191882 0.0000000000
0.3195508556 0.0082447827 0.0000000000
0.3817988145 0.0078638075 0.0000000000
0.4440565719 0.0074232537 0.0000000000
0.5059874249 0.0072852778 0.0000000000
0.5683474224 0.0070349332 0.0000000000
0.6306635388 0.0068197167 0.0000000000
0.6935619735 0.0068210950 0.0000000000
0.7569824406 0.0064600152 0.0000000000
0.8205748210 0.0061869919 0.0000000000
0.8846796816 0.0057819351 0.0000000000
0.9487795290 0.0054330695 0.0000000000
1.0000000000 0.0050158128 0.0000000000
0.0122244535 0.0721859559 0.0000000000
0.0736612156 0.0719954353 0.0000000000
0.1346629234 0.0718233436 0.0000000000
0.1959695406 0.0712855812 0.0000000000
0.2575551667 0.0709190685 0.0000000000
0.3196462626 0.0704952814 0.0000000000
0.3818938881 0.0701516313 0.0000000000
0.4441486760 0.0697421054 0.0000000000
0.5061115250 0.0696531930 0.0000000000
0.5684971442 0.0694457018 0.0000000000
0.6308667436 0.0692680366 0.0000000000
0.6937941336 0.0692955502 0.0000000000
0.7572317743 0.0689567891 0.0000000000
0.8208287051 0.0687036188 0.0000000000
0.8849348789 0.0683115101 0.0000000000
0.9490158865 0.0679736049 0.0000000000
1.0000000000 0.0675627650 0.0000000000
0.0124339350 0.1338272756 0.0000000000
0.0739125162 0.1336964965 0.0000000000
0.1349174380 0.1336105475 0.0000000000
0.1962335482 0.1331681181 0.0000000000
0.2578061218 0.1328805825 0.0000000000
0.3198532783 0.1325352350 0.0000000000
0.3820348480 0.1322382712 0.0000000000
0.4441992743 0.1318654693 0.0000000000
0.5061018085 0.1318197632 0.0000000000
0.5684267199 0.1316564297 0.0000000000
0.6307876064 0.1315224390 0.0000000000
0.6936865477 0.1315817563 0.0000000000
0.7570595392 0.1312706699 0.0000000000
0.8205880281 0.1310328594 0.0000000000
0.8846439030 0.1306553599 0.0000000000
0.9486681335 0.1303348118 0.0000000000
1.0000000000 0.1299382253 0.0000000000
0.0122725414 0.1955015920 0.0000000000
0.0737908920 0.1954261474 0.0000000000
0.1348125236 0.1953885369 0.0000000000
0.1961734369 0.1950010704 0.0000000000
0.2578190956 0.1947563626 0.0000000000
0.3199108085 0.1944490490 0.0000000000
0.3820980340 0.1941918102 0.0000000000
0.4442230137 0.1938521182 0.0000000000
0.5060534882 0.1938453894 0.0000000000
0.5683097993 0.1937285513 0.0000000000
0.6306463080 0.1936356141 0.0000000000
0.6934961448 0.1937233182 0.0000000000
0.7567665358 0.1934337225 0.0000000000
0.8201875100 0.1932051559 0.0000000000
0.8841641303 0.1928283037 0.0000000000
0.9481097925 0.1925087678 0.0000000000
1.0000000000 0.1921324017 0.0000000000
0.0115519287 0.2574294046 0.0000000000
0.0730953375 0.2574056843 0.0000000000
0.1341346167 0.2573925029 0.0000000000
0.1955501018 0.2570316079 0.0000000000
0.2573194620 0.2567949132 0.0000000000
0.3195135975 0.2564851763 0.0000000000
0.3817918869 0.2562326454 0.0000000000
0.4439516724 0.2558986861 0.0000000000
0.5057468279 0.2559069432 0.0000000000
0.5679749856 0.2558171409 0.0000000000
0.6303287372 0.2557559377 0.0000000000
0.6931617348 0.2558704587 0.0000000000
0.7563580582 0.2556180134 0.0000000000
0.8196959244 0.2554201814 0.0000000000
0.8835907429 0.2550732205 0.0000000000
0.9474650547 0.2547791265 0.0000000000
1.0000000000 0.2544423537 0.0000000000
0.0109518711 0.3193428810 0.0000000000
0.0724970093 0.3193717287 0.0000000000
0.1335191950 0.3193815639 0.0000000000
0.1949675055 0.3190454571 0.0000000000
0.2568502091 0.3188138418 0.0000000000
0.3191444306 0.3185009761 0.0000000000
0.3815195621 0.3182535176 0.0000000000
0.4437106014 0.3179328782 0.0000000000
0.5054500559 0.3179721776 0.0000000000
0.5676275063 0.3179205060 0.0000000000
0.6299669417 0.3178956890 0.0000000000
0.6927405391 0.3180378294 0.0000000000
0.7558198357 0.3178296722 0.0000000000
0.8190227058 0.3176664687 0.0000000000
0.8827844346 0.3173457095 0.0000000000
0.9465392549 0.3170657586 0.0000000000
1.0000000000 0.3167564035 0.0000000000
0.0113982596 0.3810774712 0.0000000000
0.0728234900 0.3811601498 0.0000000000
0.1336092325 0.3812370771 0.0000000000
0.1948810327 0.3809684119 0.0000000000
0.2566724531 0.3808281682 0.0000000000
0.3188766628 0.3806122085 0.0000000000
0.3812222504 0.3804227207 0.0000000000
0.4433517265 0.3801451377 0.0000000000
0.5049849437 0.3802022827 0.0000000000
0.5670953994 0.3801651532 0.0000000000
0.6294086422 0.3801528998 0.0000000000
0.6920975880 0.3803061172 0.0000000000
0.7550672549 0.3801331841 0.0000000000
0.8181605292 0.3799895272 0.0000000000
0.8818209185 0.3796822717 0.0000000000
0.9455003710 0.3794061169 0.0000000000
1.0000000000 0.3791138479 0.0000000000
0.0119590061 0.4429996260 0.0000000000
0.0731722917 0.4431585995 0.0000000000
0.1336076250 0.4432575149 0.0000000000
0.1946536722 0.4429849219 0.0000000000
0.2564054374 0.4428814384 0.0000000000
0.3186060567 0.4426900693 0.0000000000
0.3810350774 0.4425316141 0.0000000000
0.4431717470 0.4422944915 0.0000000000
0.5046786340 0.4423732487 0.0000000000
0.5667027710 0.4423579192 0.0000000000
0.6289115171 0.4423758034 0.0000000000
0.6914619054 0.4425414009 0.0000000000
0.7542802044 0.4424121557 0.0000000000
0.8172174967 0.4423058378 0.0000000000
0.8807388991 0.4420267157 0.0000000000
0.9442933099 0.4417721112 0.0000000000
1.0000000000 0.4415083937 0.0000000000
0.0122237122 0.5048982427 0.0000000000
0.0731810806 0.5051574805 0.0000000000
0.1332200449 0.5052906922 0.0000000000
0.1940301904 0.5049889265 0.0000000000
0.2557653803 0.5049038348 0.0000000000
0.3180129379 0.5047043171 0.0000000000
0.3806181042 0.5045258645 0.0000000000
0.4428745322 0.5042890674 0.0000000000
0.5043093148 0.5043398282 0.0000000000
0.5662976783 0.5043050591 0.0000000000
0.6283857680 0.5043412326 0.0000000000
0.6907540571 0.5045082369 0.0000000000
0.7534048331 0.5043902793 0.0000000000
0.8161591433 0.5042951140 0.0000000000
0.8794829841 0.5040447395 0.0000000000
0.9428680916 0.5038213192 0.0000000000
1.0000000000 0.5036098722 0.0000000000
0.0129096061 0.5666078106 0.0000000000
0.0735066617 0.5669650692 0.0000000000
0.1330398284 0.5671343082 0.0000000000
0.1935340133 0.5667979787 0.0000000000
0.2552000140 0.5667197313 0.0000000000
0.3174789464 0.5665061874 0.0000000000
0.3802526961 0.5663141699 0.0000000000
0.4426326924 0.5661000072 0.0000000000
0.5039917398 0.5661489468 0.0000000000
0.5659309793 0.5661153034 0.0000000000
0.6278690284 0.5661726070 0.0000000000
0.6900275727 0.5663406691 0.0000000000
0.7524972029 0.5662468823 0.0000000000
0.8150479249 0.5661733495 0.0000000000
0.8781446323 0.5659582305 0.0000000000
0.9413297633 0.5657630698 0.0000000000
1.0000000000 0.5656027871 0.0000000000
0.0134572592 0.6279934261 0.0000000000
0.0736130159 0.6284221218 0.0000000000
0.1326819477 0.6286631343 0.0000000000
0.1929222625 0.6283753845 0.0000000000
0.2544975858 0.6283789310 0.0000000000
0.3168145008 0.6282210075 0.0000000000
0.3797004339 0.6280837916 0.0000000000
0.4422539077 0.6278849458 0.0000000000
0.5036749837 0.6279376110 0.0000000000
0.5656769571 0.6279103891 0.0000000000
0.6275205032 0.6279759931 0.0000000000
0.6894979910 0.6281303694 0.0000000000
0.7518601796 0.6280315230 0.0000000000
0.8142552597 0.6279625823 0.0000000000
0.8771378582 0.6277682150 0.0000000000
0.9400935930 0.6276005956 0.0000000000
1.0000000000 0.6274896900 0.0000000000
0.0145772016 0.6898576673 0.0000000000
0.0741534606 0.6903509581 0.0000000000
0.1326837046 0.6906788349 0.0000000000
0.1925600269 0.6904780732 0.0000000000
0.2538679491 0.6906090023 0.0000000000
0.3160579547 0.6905386841 0.0000000000
0.3788594040 0.6904195710 0.0000000000
0.4414766314 0.6901656992 0.0000000000
0.5030178763 0.6901449873 0.0000000000
0.5651283292 0.6900376980 0.0000000000
0.6269223985 0.6900467935 0.0000000000
0.6887779150 0.6901421186 0.0000000000
0.7511066919 0.6900135991 0.0000000000
0.8134139733 0.6899353240 0.0000000000
0.8761200926 0.6897796292 0.0000000000
0.9388680017 0.6896657546 0.0000000000
1.0000000000 0.6896010546 0.0000000000
0.0166099649 0.7510466998 0.0000000000
0.0755784893 0.7516181313 0.0000000000
0.1336169615 0.7520819090 0.0000000000
0.1931681214 0.7520260774 0.0000000000
0.2541723968 0.7524005829 0.0000000000
0.3161856043 0.7525403015 0.0000000000
0.3786809912 0.7525715386 0.0000000000
0.4412112630 0.7523813583 0.0000000000
0.5028156189 0.7523735524 0.0000000000
0.5649863828 0.7522649358 0.0000000000
0.6266930813 0.7522512304 0.0000000000
0.6883891720 0.7523209404 0.0000000000
0.7506679219 0.7521609042 0.0000000000
0.8128731092 0.7520684942 0.0000000000
0.8754317169 0.7519446404 0.0000000000
0.9379870802 0.7518780822 0.0000000000
1.0000000000 0.7518380930 0.0000000000
0.0195507593 0.8123365577 0.0000000000
0.0778193390 0.8129635386 0.0000000000
0.1352734817 0.8135157136 0.0000000000
0.1943699666 0.8135719530 0.0000000000
0.2549338620 0.8141796102 0.0000000000
0.3166377698 0.8145244485 0.0000000000
0.3786381783 0.8147130010 0.0000000000
0.4409843110 0.8145744631 0.0000000000
0.5026111018 0.8145460715 0.0000000000
0.5648295488 0.8144178353 0.0000000000
0.6264628678 0.8143918876 0.0000000000
0.6880345219 0.8144526733 0.0000000000
0.7502975679 0.8142550202 0.0000000000
0.8124430733 0.8141436467 0.0000000000
0.8749018996 0.8140506740 0.0000000000
0.9373072803 0.8140413841 0.0000000000
0.9998755141 0.8140388319 0.0000000000
0.0231231060 0.8731935904 0.0000000000
0.0807782710 0.8738798093 0.0000000000
0.1376742329 0.8744242295 0.0000000000
0.1962411962 0.8745453493 0.0000000000
0.2563146278 0.8753293587 0.0000000000
0.3176673842 0.8758438920 0.0000000000
0.3791229250 0.8762069207 0.0000000000
0.4412266703 0.8762318756 0.0000000000
0.5027322613 0.8763014318 0.0000000000
0.5648664522 0.8762613692 0.0000000000
0.6263748256 0.8763484198 0.0000000000
0.6878489419 0.8764583383 0.0000000000
0.7500949262 0.8762615373 0.0000000000
0.8121702161 0.8761548499 0.0000000000
0.8745083465 0.8761099853 0.0000000000
0.9367363256 0.8761525312 0.0000000000
0.9991415512 0.8761956671 0.0000000000
0.0273233838 0.9329195353 0.0000000000
0.0844951831 0.9336364290 0.0000000000
0.1409106068 0.9342607472 0.0000000000
0.1989638181 0.9345795696 0.0000000000
0.2584531773 0.9356478171 0.0000000000
0.3193534850 0.9364703737 0.0000000000
0.3801542730 0.9371459634 0.0000000000
0.4419175824 0.9374844333 0.0000000000
0.5031419382 0.9377897181 0.0000000000
0.5650628351 0.9379559311 0.0000000000
0.6264330328 0.9382043814 0.0000000000
0.6877807560 0.9383946735 0.0000000000
0.7500196463 0.9382223558 0.0000000000
0.8120405422 0.9381231121 0.0000000000
0.8742777153 0.9381105337 0.0000000000
0.9363611033 0.9381783498 0.0000000000
0.9986382747 0.9382489980 0.0000000000
0.0298464037 0.9936474427 0.0000000000
0.0866157636 0.9944161959 0.0000000000
0.1425530035 0.9950846122 0.0000000000
0.2001250889 0.9955360810 0.0000000000
0.2591652302 0.9967738898 0.0000000000
0.3197342628 0.9977786161 0.0000000000
0.3801528453 0.9986448109 0.0000000000
0.4416862000 0.9991900061 0.0000000000
0.5026567667 0.9996749770 0.0000000000
0.5643967591 0.9999749589 0.0000000000
0.6257190774 1.0000000000 0.0000000000
0.6870356736 1.0000000000 0.0000000000
0.7492900135 1.0000000000 0.0000000000
0.8112890705 1.0000000000 0.0000000000
0.8734680580 1.0000000000 0.0000000000
0.9354705065 1.0000000000 0.0000000000
0.9976699131 1.0000000000 0.0000000000
0.0122560440 0.0096496716 0.0608089503
0.0733420644 0.0093981242 0.0604763117
0.1339868596 0.0090971272 0.0600871260
0.1950536245 0.0083949110 0.0597853963
0.2565390868 0.0078202682 0.0592197636
0.3186285468 0.0072007142 0.0588843229
0.3809835599 0.0067060455 0.0583278257
0.4433825035 0.0062086666 0.0577433817
0.5054000998 0.0060868282 0.0573715805
0.5678108023 0.0058788047 0.0569966454
0.6301099071 0.0057559106 0.0566871925
0.6929060025 0.0058430666 0.0561619112
0.7562871398 0.0055873278 0.0555667095
0.8198185530 0.0054054293 0.0546034658
0.8839148916 0.0050810943 0.0531071005
0.9480168298 0.0047724270 0.0514296647
1.0000000000 0.0044097300 0.0501046358
0.0121119581 0.0715667531 0.0608062205
0.0732400920 0.0713652894 0.0604641691
0.1339072930 0.0711325891 0.0600445168
0.1950250971 0.0705093201 0.0597156368
0.2565373317 0.0699993898 0.0591210702
0.3186349012 0.0694397576 0.0587587543
0.3809907953 0.0689886659 0.0581941684
0.4433873300 0.0685272953 0.0576090096
0.5054393145 0.0684584081 0.0572398575
0.5678773359 0.0682958504 0.0568723064
0.6302357703 0.0682124263 0.0565776592
0.6930661928 0.0683270274 0.0560726346
0.7564714351 0.0680927224 0.0554900132
0.8200145774 0.0679302858 0.0545434626
0.8841203889 0.0676184292 0.0530568101
0.9482103782 0.0673208176 0.0513864821
1.0000000000 0.0669627674 0.0500844875
0.0121706882 0.1332202405 0.0595623057
0.0733535308 0.1330832485 0.0592448991
0.1340297880 0.1329462845 0.0588148171
0.1951674167 0.1324283262 0.0584830334
0.2566744150 0.1320052841 0.0578777245
0.3187358817 0.1315296055 0.0574950883
0.3810303318 0.1311277742 0.0569259352
0.4433398498 0.1307043601 0.0563555816
0.5053363140 0.1306790640 0.0560339587
0.5677169668 0.1305602090 0.0557228196
0.6300750929 0.1305186381 0.0554887191
0.6928868880 0.1306631789 0.0550505295
0.7562382021 0.1304509556 0.0545084300
0.8197238604 0.1302994350 0.0536163673
0.8837897656 0.1299983524 0.0521796746
0.9478326561 0.1297152662 0.0505469814
1.0000000000 0.1293664603 0.0492866933
0.0117993830 0.1949742525 0.0582415261
0.0730401659 0.1948946035 0.0579586960
0.1337488657 0.1948120059 0.0575252813
0.1949492735 0.1943565225 0.0571968346
0.2565431600 0.1939819879 0.0565788010
0.3186621899 0.1935479203 0.0561680724
0.3809698760 0.1931860377 0.0555732036
0.4432465974 0.1927942899 0.0549936672
0.5051793968 0.1928057098 0.0547114727
0.5674985037 0.1927307136 0.0544491410
0.6298437603 0.1927270987 0.0542689515
0.6926197386 0.1928971000 0.0538937738
0.7558815540 0.1926997998 0.0533792218
0.8192729340 0.1925519011 0.0525382906
0.8832710022 0.1922474937 0.0511642629
0.9472455606 0.1919628270 0.0495822635
1.0000000000 0.1916285185 0.0483665355
0.0109851751 0.2568662455 0.0566491606
0.0722652161 0.2568369647 0.0564202187
0.1330038011 0.2567821671 0.0559960385
0.1942724506 0.2563600228 0.0556827658
0.2559985700 0.2560007214 0.0550718568
0.3182273405 0.2555706380 0.0546502741
0.3806247753 0.2552178903 0.0540523659
0.4429333326 0.2548349034 0.0534653664
0.5048302966 0.2548639518 0.0532288272
0.5671204249 0.2548180879 0.0530174915
0.6294866037 0.2548473529 0.0528963348
0.6922528213 0.2550451541 0.0526053291
0.7554464866 0.2548824660 0.0521306572
0.8187607029 0.2547631180 0.0513496865
0.8826826187 0.2544874512 0.0500443038
0.9465914937 0.2542286105 0.0485301120
1.0000000000 0.2539285445 0.0473654689
0.0103494180 0.3187594535 0.0538415546
0.0716436012 0.3187819100 0.0536844507
0.1323750704 0.3187536038 0.0532986159
0.1936866306 0.3183634640 0.0530336061
0.2555315206 0.3180171857 0.0524671338
0.3178636581 0.3175915508 0.0520645501
0.3803533372 0.3172483658 0.0514820851
0.4426873694 0.3168810490 0.0508910744
0.5045261551 0.3169431407 0.0506974990
0.5667632539 0.3169363649 0.0505366884
0.6291181208 0.3170019132 0.0504853874
0.6918325052 0.3172263508 0.0502927750
0.7549145399 0.3171037179 0.0498764887
0.8181003374 0.3170150663 0.0491798110
0.8818944073 0.3167635938 0.0479768999
0.9456895152 0.3165190625 0.0465707071
1.0000000000 0.3162403598 0.0454865154
0.0108359708 0.3805188392 0.0515979007
0.0720202159 0.3805934670 0.0515632983
0.1325281304 0.3806340606 0.0512852482
0.1936717974 0.3803185956 0.0511414008
0.2554304856 0.3800740517 0.0506702485
0.3176769218 0.3797550439 0.0503288703
0.3801339474 0.3794755391 0.0497870566
0.4424050921 0.3791538305 0.0491899382
0.5041356087 0.3792335535 0.0490462808
0.5663062648 0.3792388677 0.0489368467
0.6286379369 0.3793117655 0.0489524966
0.6912766523 0.3795405827 0.0488671334
0.7542536655 0.3794431747 0.0485182060
0.8173343367 0.3793646665 0.0479125064
0.8810284687 0.3791205985 0.0468246695
0.9447488845 0.3788768349 0.0455353931
1.0000000000 0.3786058337 0.0445173793
0.0114031592 0.4425068321 0.0484061344
0.0723864837 0.4426520565 0.0484901154
0.1325591528 0.4427151228 0.0483118808
0.1934839473 0.4424020443 0.0482963081
0.2552036713 0.4422062938 0.0479431255
0.3174454160 0.4419237925 0.0476891883
0.3799791848 0.4416810921 0.0472279424
0.4422527389 0.4414014672 0.0466382820
0.5038531509 0.4414975187 0.0465479661
0.5659370518 0.4415182569 0.0464907810
0.6281652374 0.4416109710 0.0465619043
0.6906737371 0.4418416978 0.0465916749
0.7535048779 0.4417748414 0.0463488642
0.8164351466 0.4417220792 0.0458778702
0.8799917060 0.4414984910 0.0449580587
0.9435896319 0.4412720087 0.0438441094
1.0000000000 0.4410208934 0.0429193601
0.0116595225 0.5045458558 0.0446606521
0.0724022202 0.5047788611 0.0448447317
0.1322048898 0.5048663532 0.0447237119
0.1929092277 0.5045198291 0.0447946172
0.2546183155 0.5043482035 0.0445062965
0.3169104052 0.5040650549 0.0443061851
0.3796162969 0.5038086479 0.0439507458
0.4420075086 0.5035337671 0.0433922485
0.5035311440 0.5035966469 0.0433652177
0.5655770036 0.5035936960 0.0433590747
0.6276772320 0.5036956405 0.0434409473
0.6900018856 0.5039200964 0.0435378812
0.7526614745 0.5038571586 0.0434080493
0.8154043497 0.5038092749 0.0430785511
0.8787562540 0.5036108014 0.0423496254
0.9421788896 0.5034140109 0.0414558239
1.0000000000 0.5032091013 0.0406408086
0.0123709524 0.5663980027 0.0407302231
0.0727690645 0.5667137750 0.0410079509
0.1320944624 0.5668228869 0.0409689229
0.1924974737 0.5664324570 0.0411683302
0.2541405610 0.5662695093 0.0409946293
0.3164653843 0.5659771303 0.0409062337
0.3793353522 0.5657115479 0.0406942554
0.4418484741 0.5654619101 0.0401983652
0.5032920202 0.5655155412 0.0402367860
0.5652860855 0.5655074222 0.0402734168
0.6272256351 0.5656205062 0.0403368119
0.6893352363 0.5658379053 0.0404608920
0.7518065862 0.5657922497 0.0404071100
0.8143381100 0.5657601382 0.0401799306
0.8774525325 0.5655938340 0.0396233909
0.9406669128 0.5654250016 0.0389438104
1.0000000000 0.5652667959 0.0382391624
0.0131598944 0.6279141495 0.0377863534
0.0731180143 0.6282813633 0.0381140504
0.1319880290 0.6284337398 0.0380872134
0.1921286066 0.6280660701 0.0382986646
0.2536590795 0.6279723132 0.0381249599
0.3159970478 0.6277278303 0.0380533040
0.3789549861 0.6275146392 0.0379345827
0.4416196388 0.6272795419 0.0374770239
0.5031051759 0.6273288012 0.0375113264
0.5651471317 0.6273204256 0.0375155080
0.6269702413 0.6274323990 0.0374703184
0.6888833186 0.6276290205 0.0375268459
0.7512326750 0.6275743148 0.0374985356
0.8135949523 0.6275424217 0.0373117700
0.8764805861 0.6273949053 0.0368801262
0.9394554144 0.6272537634 0.0363843385
1.0000000000 0.6271425656 0.0357861929
0.0145436414 0.6898771799 0.0349418875
0.0739199016 0.6902899782 0.0353185311
0.1322565731 0.6905007216 0.0353427883
0.1920186467 0.6901910317 0.0356156137
0.2532526359 0.6902085578 0.0354906432
0.3154340209 0.6900402736 0.0354845058
0.3782809149 0.6898421235 0.0355071649
0.4409867979 0.6895498245 0.0351512469
0.5025730410 0.6895160077 0.0352212880
0.5647101926 0.6894188966 0.0352196787
0.6264618031 0.6894631416 0.0350743160
0.6882361235 0.6895935095 0.0350483004
0.7505341634 0.6895048616 0.0350367185
0.8127921456 0.6894601304 0.0348648690
0.8754849256 0.6893472465 0.0345197581
0.9382418252 0.6892581349 0.0341723450
1.0000000000 0.6891915207 0.0336758364
0.0167693272 0.7513954260 0.0320868436
0.0755381519 0.7518741619 0.0324679203
0.1333983839 0.7521963930 0.0325633232
0.1928290683 0.7520023030 0.0329553206
0.2537351034 0.7522410301 0.0329903383
0.3157142396 0.7522633593 0.0331654586
0.3782351704 0.7522042163 0.0334070604
0.4408359320 0.7519616627 0.0332234409
0.5024695897 0.7519156809 0.0333383270
0.5646569519 0.7517932311 0.0333569236
0.6263007913 0.7517901409 0.0331506450
0.6878991546 0.7518777988 0.0330542084
0.7501301823 0.7517464756 0.0330534596
0.8122713053 0.7516787024 0.0328848381
0.8748023536 0.7515877991 0.0326073952
0.9373592349 0.7515392582 0.0323712006
1.0000000000 0.7514978758 0.0319602583
0.0197858158 0.8129924222 0.0298992470
0.0778611470 0.8135138436 0.0302622505
0.1351648532 0.8139032617 0.0304351076
0.1941441144 0.8137938225 0.0309586413
0.2545927470 0.8142429794 0.0311549678
0.3162446923 0.8144500458 0.0315245260
0.3782555517 0.8145371217 0.0320077762
0.4406593670 0.8143333374 0.0320622865
0.5023025314 0.8142437598 0.0322986748
0.5645301698 0.8140799487 0.0324035175
0.6260821021 0.8140417575 0.0321654249
0.6875400660 0.8141059731 0.0320067089
0.7497381853 0.8139296325 0.0320124906
0.8118037531 0.8138376035 0.0318304189
0.8742199707 0.8137693508 0.0315852780
0.9366183941 0.8137718549 0.0314120576
0.9991835516 0.8137694104 0.0310481675
0.0233938172 0.8740720156 0.0267973617
0.0808615815 0.8746469133 0.0271140859
0.1376368701 0.8750233446 0.0274162032
0.1960983323 0.8749647965 0.0281408019
0.2560501960 0.8755759006 0.0286142305
0.3173429240 0.8759391918 0.0292878710
0.3788016294 0.8761926172 0.0300809555
0.4409534181 0.8761415022 0.0304315165
0.5024624369 0.8761313099 0.0308420174
0.5645961056 0.8760378005 0.0311022401
0.6260049714 0.8760932998 0.0308778211
0.6873482767 0.8761955410 0.0306916833
0.7495122382 0.8760190587 0.0306896903
0.8114926296 0.8759325247 0.0304812901
0.8737740130 0.8759103374 0.0302481763
0.9359865317 0.8759648852 0.0301217251
0.9983952201 0.8760142572 0.0298028290
0.0276744906 0.9339758458 0.0242918357
0.0846597739 0.9345807889 0.0245931894
0.1409782525 0.9350319935 0.0250278935
0.1989396224 0.9351572818 0.0259231776
0.2583108684 0.9360358214 0.0266470350
0.3191519431 0.9366914157 0.0275945738
0.3799570869 0.9372477497 0.0286480151
0.4417642895 0.9374997828 0.0292604417
0.5029791030 0.9377109713 0.0298383087
0.5648889355 0.9378103240 0.0302688964
0.6261427794 0.9380140710 0.0301064104
0.6873414759 0.9381880649 0.0299418904
0.7494814885 0.9380351002 0.0299325734
0.8113925558 0.9379549981 0.0296956636
0.8735601720 0.9379605672 0.0294564962
0.9356199375 0.9380382381 0.0293493122
0.9979049270 0.9381197541 0.0290515460
0.0301707536 0.9948489177 0.0233045779
0.0867498592 0.9955002018 0.0235963389
0.1425988879 0.9959828928 0.0241610482
0.2000825824 0.9962231996 0.0252065584
0.2590075238 0.9972538527 0.0260895863
0.3195212586 0.9980762003 0.0272256657
0.3799537318 0.9988111188 0.0284340270
0.4415409747 0.9992555412 0.0291985944
0.5025084896 0.9996329720 0.0298540108
0.5642448439 0.9998554673 0.0303590372
0.6254526441 1.0000000000 0.0302391239
0.6866200226 1.0000000000 0.0300961323
0.7487734938 1.0000000000 0.0300753340
0.8106599130 1.0000000000 0.0298073962
0.8727649809 1.0000000000 0.0295397453
0.9347415161 1.0000000000 0.0294073373
0.9969521766 1.0000000000 0.0291042440
0.0137354992 0.0085270153 0.1218741182
0.0743336640 0.0083044367 0.1215906546
0.1344029810 0.0080445120 0.1213363691
0.1950714053 0.0073571284 0.1212552940
0.2562978449 0.0067349630 0.1209116741
0.3183117625 0.0060991775 0.1208563140
0.3806949793 0.0055991886 0.1205998999
0.4432779471 0.0051215137 0.1203314019
0.5053883265 0.0050880881 0.1203492791
0.5678607277 0.0049501238 0.1203966746
0.6301356163 0.0049214736 0.1204734375
0.6927896892 0.0050935633 0.1203405783
0.7561156363 0.0049776002 0.1201150450
0.8195273485 0.0049298303 0.1194983907
0.8835878959 0.0047327052 0.1182983862
0.9476468507 0.0045353426 0.1168706538
1.0000000000 0.0042834608 0.1157131139
0.0136695933 0.0703919055 0.1221372429
0.0743111186 0.0702258176 0.1218433485
0.1343901390 0.0700450572 0.1215524452
0.1951051792 0.0694471067 0.1214336508
0.2563553401 0.0688989763 0.1210480779
0.3183737444 0.0683313087 0.1209510099
0.3807542748 0.0678790826 0.1206697775
0.4433265440 0.0674396628 0.1203822722
0.5054639657 0.0674595386 0.1203845027
0.5679574534 0.0673667099 0.1204212788
0.6302906740 0.0673792581 0.1204952458
0.6929796129 0.0675798138 0.1203692611
0.7563321558 0.0674848626 0.1201459286
0.8197597046 0.0674566375 0.1195369130
0.8838344589 0.0672745942 0.1183409817
0.9478862640 0.0670906897 0.1169167589
1.0000000000 0.0668437844 0.1157770827
0.0138415052 0.1321092406 0.1213957737
0.0745474482 0.1320136478 0.1211253274
