webapp/static/best_of_n/ex1/winner.cube
LUT_3D_SIZE 5
DOMAIN_MIN 0 0 0
DOMAIN_MAX 1 1 1
0.0000000000 0.0000000000 0.0000000000
0.2210699823 0.0000000000 0.0000000000
0.4773518145 0.0000000000 0.0000000000
0.7395672221 0.0000000000 0.0000000000
0.9996045596 0.0004494023 0.0000713865
0.0000000000 0.2355307080 0.0000000000
0.2351261964 0.2375719640 0.0000000000
0.4891260359 0.2435080255 0.0000000000
0.7466840839 0.2453913898 0.0000000000
1.0000000000 0.2537162243 0.0033487712
0.0048603341 0.4977151812 0.0000000000
0.2479115634 0.4981941166 0.0000000000
0.5006911312 0.5013726496 0.0025180478
0.7556157792 0.5045951908 0.0079860641
1.0000000000 0.5091483761 0.0133578116
0.0304448549 0.7601962145 0.0139092505
0.2642035699 0.7606629198 0.0151225906
0.5126403030 0.7609878639 0.0185439903
0.7668366991 0.7639995944 0.0244930219
1.0000000000 0.7690392751 0.0315775461
0.0700173154 1.0000000000 0.0346979462
0.2900983058 1.0000000000 0.0377898626
0.5267275739 1.0000000000 0.0431552157
0.7778423931 1.0000000000 0.0484893247
1.0000000000 1.0000000000 0.0567337647
0.0000000000 0.0000000000 0.2166958228
0.2236543763 0.0000000000 0.2198473457
0.4793601613 0.0000000000 0.2286483757
0.7398558641 0.0000000000 0.2361791786
0.9997458071 0.0007791636 0.2503665204
0.0000000000 0.2356105801 0.2338423729
0.2353100190 0.2367427405 0.2347542541
0.4894435387 0.2421681257 0.2409070712
0.7467724425 0.2452694587 0.2450164785
1.0000000000 0.2539295834 0.2533125544
0.0028569689 0.4975840214 0.2451569517
0.2471399379 0.4978194658 0.2458091485
0.5003900798 0.5010142023 0.2498632299
0.7550211563 0.5045644348 0.2552162800
1.0000000000 0.5088505512 0.2605744610
0.0302761961 0.7603338463 0.2614015248
0.2640857548 0.7610479938 0.2599586910
0.5123341475 0.7611258086 0.2611396722
0.7638109233 0.7638813155 0.2645894494
1.0000000000 0.7683627158 0.2700156737
0.0703556463 1.0000000000 0.2802639883
0.2900982350 1.0000000000 0.2789259981
0.5265708398 1.0000000000 0.2799819037
0.7737367395 1.0000000000 0.2814955413
1.0000000000 1.0000000000 0.2865882516
0.0000000000 0.0000000000 0.4685524479
0.2258230597 0.0000000000 0.4706533402
0.4835602045 0.0000000000 0.4784856848
0.7421769137 0.0000000000 0.4858211409
1.0000000000 0.0015319246 0.5002728229
0.0000000000 0.2387586338 0.4840371404
0.2373769488 0.2394318907 0.4858847745
0.4934276696 0.2422187743 0.4917811463
0.7490659833 0.2457183674 0.4949341686
1.0000000000 0.2545806821 0.5032204113
0.0023075801 0.4981293870 0.4959109626
0.2484304324 0.4987687453 0.4967304703
0.5025000693 0.5017500304 0.5010467239
0.7566787209 0.5054024225 0.5054512769
1.0000000000 0.5094499588 0.5102659296
0.0308605209 0.7599866521 0.5111732045
0.2643330209 0.7603239473 0.5089930752
0.5130296303 0.7599244555 0.5099405963
0.7647052398 0.7632344076 0.5128468443
1.0000000000 0.7676593903 0.5171435457
0.0708775371 1.0000000000 0.5281863809
0.2896193899 1.0000000000 0.5245240591
0.5267108642 1.0000000000 0.5228073653
0.7736383136 1.0000000000 0.5228769537
1.0000000000 1.0000000000 0.5255942494
0.0000000000 0.0000000000 0.7292658258
0.2265857160 0.0000000000 0.7305824254
0.4849165892 0.0000000000 0.7336989772
0.7424468352 0.0000000000 0.7375963228
1.0000000000 0.0014270459 0.7494429272
0.0000000000 0.2406982118 0.7396196583
0.2381988931 0.2424062057 0.7412764644
0.4954571240 0.2444684077 0.7446514559
0.7495551813 0.2465328802 0.7455798988
1.0000000000 0.2540794676 0.7523037572
0.0026941102 0.4987423748 0.7483932239
0.2503679017 0.5004058277 0.7485291165
0.5056153964 0.5041553928 0.7528918325
0.7580178427 0.5066771945 0.7561762519
1.0000000000 0.5094995573 0.7595444294
0.0310072787 0.7604930764 0.7620096654
0.2647152832 0.7610789547 0.7588917678
0.5140393199 0.7611287516 0.7597806547
0.7649928275 0.7642608033 0.7628021222
1.0000000000 0.7680188436 0.7659787051
0.0709437206 1.0000000000 0.7771778032
0.2893128209 1.0000000000 0.7726112846
0.5259971432 1.0000000000 0.7694527805
0.7723117657 1.0000000000 0.7694554087
1.0000000000 1.0000000000 0.7713050153
0.0000000000 0.0000000000 0.9836795889
0.2286675461 0.0000000000 0.9882774372
0.4876942458 0.0000000000 0.9941744250
0.7440049150 0.0000000000 0.9963801031
1.0000000000 0.0034435815 1.0000000000
0.0000000000 0.2427294594 0.9924984952
0.2390396129 0.2459861515 0.9954436375
0.4969436598 0.2497369748 1.0000000000
0.7501510072 0.2507471777 1.0000000000
1.0000000000 0.2549997466 1.0000000000
0.0035646725 0.4996870741 1.0000000000
0.2516252047 0.5017379451 1.0000000000
0.5079275984 0.5063211801 1.0000000000
0.7596402373 0.5085023781 1.0000000000
1.0000000000 0.5097198533 1.0000000000
0.0315848105 0.7611456588 1.0000000000
0.2655218160 0.7620396819 1.0000000000
0.5159682855 0.7628399422 1.0000000000
0.7669647112 0.7660786267 1.0000000000
1.0000000000 0.7685297374 1.0000000000
0.0711333156 1.0000000000 1.0000000000
0.2896704897 1.0000000000 1.0000000000
0.5263732783 1.0000000000 1.0000000000
0.7724776138 1.0000000000 1.0000000000
1.0000000000 1.0000000000 1.0000000000
