webapp/static/best_of_n/ex1/winner.cube
LUT_3D_SIZE 17
DOMAIN_MIN 0 0 0
DOMAIN_MAX 1 1 1
0.0000000000 0.0000000000 0.0000000000
0.0407255497 0.0000000000 0.0000000000
0.1003318224 0.0000000000 0.0000000000
0.1603915785 0.0000000000 0.0000000000
0.2210699823 0.0000000000 0.0000000000
0.2835492156 0.0000000000 0.0000000000
0.3464402817 0.0000000000 0.0000000000
0.4118373208 0.0000000000 0.0000000000
0.4773518145 0.0000000000 0.0000000000
0.5425541401 0.0000000000 0.0000000000
0.6080852374 0.0000000000 0.0000000000
0.6734933276 0.0000000000 0.0000000000
0.7395672221 0.0000000000 0.0000000000
0.8051877674 0.0000000000 0.0000000000
0.8704982274 0.0000000000 0.0000000000
0.9355882563 0.0000000000 0.0000000000
0.9996045596 0.0004494023 0.0000713865
0.0000000000 0.0409596767 0.0000000000
0.0429982971 0.0410359260 0.0000000000
0.1028383896 0.0417481065 0.0000000000
0.1630347855 0.0427896697 0.0000000000
0.2237369735 0.0439055637 0.0000000000
0.2861789074 0.0447025504 0.0000000000
0.3490188979 0.0465124957 0.0000000000
0.4142743163 0.0480882004 0.0000000000
0.4796145335 0.0486510461 0.0000000000
0.5446061566 0.0488300575 0.0000000000
0.6099155694 0.0487078885 0.0000000000
0.6750122746 0.0493873134 0.0000000000
0.7408436146 0.0508227861 0.0000000000
0.8062471692 0.0533157084 0.0000000000
0.8714643212 0.0567676886 0.0000000000
0.9363839218 0.0605337117 0.0000000000
0.9999864307 0.0635525082 0.0005814920
0.0000000000 0.1051132306 0.0000000000
0.0466071106 0.1051412411 0.0000000000
0.1066737175 0.1058340035 0.0000000000
0.1669764109 0.1068741009 0.0000000000
0.2276999075 0.1081116367 0.0000000000
0.2900316082 0.1090685092 0.0000000000
0.3526907787 0.1109158611 0.0000000000
0.4174742606 0.1126846215 0.0000000000
0.4823702239 0.1135223964 0.0000000000
0.5469696345 0.1139414581 0.0000000000
0.6119893938 0.1137489453 0.0000000000
0.6768392604 0.1142067183 0.0000000000
0.7424464636 0.1154063884 0.0000000000
0.8076826087 0.1175962719 0.0000000000
0.8728564365 0.1208759435 0.0000000000
0.9377365259 0.1244149087 0.0000000000
1.0000000000 0.1271828250 0.0014315812
0.0000000000 0.1696017422 0.0000000000
0.0496779149 0.1695850194 0.0000000000
0.1100352136 0.1701248977 0.0000000000
0.1705305092 0.1709921435 0.0000000000
0.2314936034 0.1721855560 0.0000000000
0.2939054202 0.1731647244 0.0000000000
0.3565694056 0.1750111859 0.0000000000
0.4209977537 0.1769871926 0.0000000000
0.4854798783 0.1781784510 0.0000000000
0.5497472547 0.1789301792 0.0000000000
0.6144753275 0.1788381217 0.0000000000
0.6790529881 0.1791725764 0.0000000000
0.7443216704 0.1801274023 0.0000000000
0.8092857450 0.1819578223 0.0000000000
0.8742758041 0.1848971776 0.0000000000
0.9390587945 0.1880257099 0.0000000000
1.0000000000 0.1904040221 0.0022811170
0.0000000000 0.2355307080 0.0000000000
0.0523496894 0.2355139349 0.0000000000
0.1130159199 0.2358962093 0.0000000000
0.1737709120 0.2365359096 0.0000000000
0.2351261964 0.2375719640 0.0000000000
0.2977625439 0.2384684393 0.0000000000
0.3606736762 0.2401685966 0.0000000000
0.4249319602 0.2421665676 0.0000000000
0.4891260359 0.2435080255 0.0000000000
0.5531659806 0.2444248185 0.0000000000
0.6175763397 0.2444404005 0.0000000000
0.6818904779 0.2446929035 0.0000000000
0.7466840839 0.2453913898 0.0000000000
0.8112562024 0.2468083592 0.0000000000
0.8758133945 0.2492452829 0.0000000000
0.9402429396 0.2518012300 0.0013817311
1.0000000000 0.2537162243 0.0033487712
0.0000000000 0.3012673985 0.0000000000
0.0546984179 0.3012583517 0.0000000000
0.1155815981 0.3015014641 0.0000000000
0.1765319146 0.3019115413 0.0000000000
0.2382449508 0.3027428538 0.0000000000
0.3010760108 0.3035111250 0.0000000000
0.3642580668 0.3050234942 0.0000000000
0.4283505119 0.3070053961 0.0000000000
0.4922524528 0.3084918321 0.0000000000
0.5561008896 0.3095734834 0.0000000000
0.6202661865 0.3097361370 0.0000000000
0.6844313114 0.3099507201 0.0000000000
0.7488468008 0.3104640804 0.0000000000
0.8131399165 0.3115388287 0.0000000000
0.8773412991 0.3135178383 0.0007865052
0.9415070750 0.3155476549 0.0027774272
1.0000000000 0.3170539583 0.0044198539
0.0000000000 0.3672884251 0.0000000000
0.0583186182 0.3672875604 0.0000000000
0.1191523471 0.3674842543 0.0000000000
0.1801286996 0.3677465711 0.0000000000
0.2420204105 0.3684142213 0.0000000000
0.3048788924 0.3691074960 0.0000000000
0.3681955771 0.3703722316 0.0000000000
0.4320816514 0.3721548060 0.0000000000
0.4956692480 0.3736438486 0.0000000000
0.5593453411 0.3747639478 0.0000000000
0.6233319466 0.3750647088 0.0005182609
0.6873648911 0.3753129191 0.0012645208
0.7514819589 0.3757537236 0.0019995533
0.8155892156 0.3766089670 0.0030584466
0.8795189285 0.3782038649 0.0045445254
0.9434627704 0.3797669047 0.0062061502
1.0000000000 0.3808881333 0.0075176689
0.0008006963 0.4321863907 0.0000000000
0.0614264575 0.4323017630 0.0000000000
0.1218889591 0.4324775711 0.0000000000
0.1827209117 0.4325698591 0.0000000000
0.2447745381 0.4330390412 0.0000000000
0.3077085204 0.4335527527 0.0000000000
0.3712594772 0.4345302368 0.0000000000
0.4349783764 0.4360447854 0.0000000000
0.4981892662 0.4375014005 0.0006750778
0.5617151632 0.4386540749 0.0020477371
0.6255896789 0.4391750023 0.0032089057
0.6896174755 0.4396139067 0.0043607643
0.7536334437 0.4402107224 0.0052442830
0.8177422476 0.4411155523 0.0063642361
0.8815829894 0.4425658146 0.0077708075
0.9454817940 0.4438945525 0.0092924796
1.0000000000 0.4448052584 0.0104080793
0.0048603341 0.4977151812 0.0000000000
0.0653488524 0.4979376001 0.0000000000
0.1252844085 0.4980918186 0.0000000000
0.1858480079 0.4979807660 0.0000000000
0.2479115634 0.4981941166 0.0000000000
0.3108171702 0.4984124693 0.0000000000
0.3744782744 0.4989999762 0.0000204221
0.4380030432 0.5000883271 0.0010666728
0.5006911312 0.5013726496 0.0025180478
0.5639583515 0.5024462191 0.0040023290
0.6276238153 0.5031598874 0.0054211547
0.6915783598 0.5038141652 0.0068931901
0.7556157792 0.5045951908 0.0079860641
0.8198367050 0.5056325602 0.0092710266
0.8837158112 0.5070711835 0.0107461065
0.9477029257 0.5083358306 0.0123027321
1.0000000000 0.5091483761 0.0133578116
0.0103254979 0.5631166563 0.0000000000
0.0704017729 0.5634727975 0.0000000000
0.1295012292 0.5636268090 0.0000000000
0.1895359482 0.5633251817 0.0003395325
0.2513796638 0.5632791819 0.0008284179
0.3141258816 0.5631972224 0.0014611866
0.3777800642 0.5634189681 0.0025718543
0.4410571377 0.5640788103 0.0034336196
0.5031881684 0.5651400131 0.0049117827
0.5661743272 0.5660770603 0.0064755590
0.6295770518 0.5669002044 0.0081016012
0.6934536826 0.5677280864 0.0098495539
0.7575541781 0.5687160604 0.0111604929
0.8219318101 0.5699192570 0.0126417344
0.8858978497 0.5714136735 0.0142545039
0.9500322854 0.5726971934 0.0159399100
1.0000000000 0.5735238949 0.0169985853
0.0157086980 0.6285525216 0.0037935134
0.0752222771 0.6289449572 0.0043709925
0.1336229807 0.6291195904 0.0043495274
0.1932631265 0.6287857841 0.0047416617
0.2548367474 0.6286249899 0.0050696237
0.3174305740 0.6283944091 0.0056021297
0.3809718955 0.6285199029 0.0065848725
0.4441323061 0.6288774882 0.0072108917
0.5059935120 0.6297606579 0.0085476860
0.5688943826 0.6305794306 0.0100186979
0.6321130493 0.6314380122 0.0115957512
0.6959141940 0.6323372195 0.0133931246
0.7601531772 0.6334646028 0.0147973029
0.8247248745 0.6347695459 0.0163775831
0.8888340797 0.6362780873 0.0181088299
0.9531029174 0.6375939390 0.0199452881
1.0000000000 0.6384799043 0.0210655127
0.0236574523 0.6955680540 0.0096261380
0.0822696276 0.6959747951 0.0102373101
0.1398038445 0.6961665843 0.0101286154
0.1988169923 0.6958631882 0.0104563823
0.2597787725 0.6957061104 0.0106578711
0.3219243884 0.6954117548 0.0111045232
0.3850276461 0.6954342043 0.0119924862
0.4479078706 0.6954206079 0.0124486331
0.5096111093 0.6960103735 0.0136346323
0.5724684559 0.6965539251 0.0149674518
0.6355236508 0.6972479410 0.0163616091
0.6992504736 0.6980272448 0.0180675108
0.7636175863 0.6991093345 0.0194998272
0.8283677120 0.7003590064 0.0211297572
0.8925974183 0.7018132517 0.0229416341
0.9569457434 0.7031246610 0.0248930436
1.0000000000 0.7040510625 0.0260562114
0.0304448549 0.7601962145 0.0139092505
0.0880759545 0.7606315231 0.0144984797
0.1450217851 0.7608675379 0.0143771963
0.2036876716 0.7606493160 0.0148021244
0.2642035699 0.7606629198 0.0151225906
0.3260356896 0.7604610594 0.0157389101
0.3885165444 0.7605787208 0.0167965032
0.4510361506 0.7604421945 0.0173482765
0.5126403030 0.7609878639 0.0185439903
0.5755235692 0.7615006100 0.0199104901
0.6385236289 0.7621809691 0.0212512501
0.7022589352 0.7629252709 0.0229423698
0.7668366991 0.7639995944 0.0244930219
0.8318591677 0.7652386539 0.0262580868
0.8963932581 0.7667127736 0.0282207932
0.9609671291 0.7680766396 0.0303250123
1.0000000000 0.7690392751 0.0315775461
0.0393447131 0.8263127282 0.0194668099
0.0957972072 0.8267436503 0.0200267825
0.1520022657 0.8269603942 0.0199239440
0.2100807037 0.8267748533 0.0204635374
0.2698861118 0.8269291371 0.0208620299
0.3311414234 0.8267950537 0.0216178168
0.3926343620 0.8269654186 0.0228244141
0.4545934573 0.8266573269 0.0235192534
0.5159947071 0.8270835020 0.0247823205
0.5788446944 0.8275111252 0.0262174476
0.6417407393 0.8281680886 0.0274671242
0.7054760419 0.8288579807 0.0290892329
0.7702588830 0.8298511561 0.0307283979
0.8355480749 0.8310040589 0.0325971581
0.9004324339 0.8324410096 0.0346858725
0.9652285613 0.8337955419 0.0368979350
1.0000000000 0.8347277474 0.0382104553
0.0502341539 0.8921930175 0.0246420912
0.1055510156 0.8926997632 0.0251423642
0.1609377414 0.8928794432 0.0251678023
0.2182188388 0.8927127253 0.0259299409
0.2771050259 0.8929418400 0.0265005510
0.3375864308 0.8928272426 0.0274554174
0.3978729658 0.8930023704 0.0287904404
0.4590462241 0.8926079348 0.0296003856
0.5199340824 0.8929713927 0.0309065487
0.5824307762 0.8933579419 0.0323943309
0.6449574642 0.8941222616 0.0334863588
0.7085346356 0.8948215004 0.0349659137
0.7733560149 0.8957514819 0.0366253331
0.8387810495 0.8968084548 0.0385540128
0.9039987233 0.8982166778 0.0407648236
0.9690783806 0.8995265551 0.0430871397
1.0000000000 0.9003707301 0.0444566011
0.0612519942 0.9578313865 0.0299935602
0.1156457216 0.9583556037 0.0305147432
0.1703544110 0.9586547967 0.0307613872
0.2268890664 0.9586951472 0.0318073072
0.2847393826 0.9591173232 0.0325989015
0.3443283886 0.9591801502 0.0337890871
0.4033193793 0.9594565388 0.0352743492
0.4636209048 0.9591107015 0.0362364724
0.5238048621 0.9595293161 0.0375956036
0.5857465342 0.9599576164 0.0391505249
0.6477328483 0.9608275797 0.0401015356
0.7109944616 0.9614979047 0.0414453447
0.7757111099 0.9623163510 0.0430952571
0.8411540091 0.9632233735 0.0450658314
0.9066672139 0.9645198155 0.0474008471
0.9720047005 0.9656886291 0.0498398207
1.0000000000 0.9663662650 0.0512654148
0.0700173154 1.0000000000 0.0346979462
0.1236384325 1.0000000000 0.0351625569
0.1775157824 1.0000000000 0.0356103033
0.2331770808 1.0000000000 0.0368890688
0.2900983058 1.0000000000 0.0377898626
0.3489253744 1.0000000000 0.0391249210
0.4071514048 1.0000000000 0.0407000259
0.4669474624 1.0000000000 0.0417613015
0.5267275739 1.0000000000 0.0431552157
0.5883958563 1.0000000000 0.0447397679
0.6501555461 1.0000000000 0.0456309766
0.7132696956 1.0000000000 0.0468927808
0.7778423931 1.0000000000 0.0484893247
0.8432335816 1.0000000000 0.0504192263
0.9088882171 1.0000000000 0.0527894981
0.9743460864 1.0000000000 0.0552853867
1.0000000000 1.0000000000 0.0567337647
0.0000000000 0.0000000000 0.0358515643
0.0403906927 0.0000000000 0.0358419027
0.1003474258 0.0000000000 0.0367028229
0.1605408825 0.0000000000 0.0375969764
0.2213367224 0.0000000000 0.0385466870
0.2838270478 0.0000000000 0.0393817965
0.3467388190 0.0000000000 0.0409636963
0.4120187331 0.0000000000 0.0428627729
0.4773981683 0.0000000000 0.0437558834
0.5425452460 0.0000000000 0.0447751377
0.6080364548 0.0000000000 0.0456997491
0.6734967157 0.0000000000 0.0469129141
0.7395437341 0.0000000000 0.0488829371
0.8051834814 0.0000000000 0.0516174641
0.8704964723 0.0000000000 0.0552971261
0.9356166049 0.0000000000 0.0593980672
0.9996282838 0.0003997144 0.0626392690
0.0000000000 0.0404566880 0.0387943853
0.0426905081 0.0405529551 0.0387226492
0.1028208714 0.0412464384 0.0394686088
0.1631276403 0.0422629062 0.0402318276
0.2239451390 0.0434194021 0.0410966855
0.2863973863 0.0442964341 0.0418909620
0.3492560238 0.0462233908 0.0435002763
0.4143981822 0.0479244692 0.0454384517
0.4796221592 0.0485196328 0.0462548938
0.5445781369 0.0487122405 0.0471677231
0.6098640515 0.0485663936 0.0478867497
0.6750190286 0.0492111519 0.0488503501
0.7408253336 0.0506998478 0.0506066829
0.8062480409 0.0532286316 0.0530582396
0.8714693948 0.0566984769 0.0564018176
0.9364196520 0.0604634900 0.0601468484
1.0000000000 0.0635062386 0.0631483505
0.0000000000 0.1046478990 0.0415354203
0.0463132691 0.1047091670 0.0414653011
0.1066031381 0.1054058094 0.0421137828
0.1669825036 0.1064425278 0.0427845623
0.2278003693 0.1077250019 0.0435870662
0.2901267558 0.1087590903 0.0443544481
0.3527993094 0.1107065910 0.0460072141
0.4174874853 0.1125728386 0.0480266968
0.4823076744 0.1134268474 0.0489126807
0.5469087735 0.1138460170 0.0498318309
0.6119328197 0.1136283567 0.0504243206
0.6768546160 0.1140479911 0.0511905653
0.7424493069 0.1152911177 0.0527331587
0.8077123053 0.1175096715 0.0549088833
0.8728965188 0.1208045119 0.0579086770
0.9378066584 0.1243451088 0.0612617343
1.0000000000 0.1271340256 0.0639829386
0.0000000000 0.1692196298 0.0448880307
0.0493441960 0.1692350246 0.0448176488
0.1098755253 0.1697898153 0.0453470573
0.1704281215 0.1706662327 0.0459024850
0.2314693313 0.1719038626 0.0465991646
0.2938668076 0.1729531679 0.0472988226
0.3565400131 0.1748841228 0.0489261216
0.4208928160 0.1769330306 0.0509260045
0.4853351833 0.1781285387 0.0518893180
0.5496329246 0.1788722882 0.0528199719
0.6143824449 0.1787534840 0.0533134416
0.6790403100 0.1790471189 0.0539002521
0.7443119176 0.1800323250 0.0551661421
0.8093132603 0.1818815591 0.0569876959
0.8743232319 0.1848305899 0.0595598787
0.9391387451 0.1879605817 0.0624378651
1.0000000000 0.1903560008 0.0648000087
0.0000000000 0.2352385353 0.0487873303
0.0520671057 0.2352461834 0.0487433961
0.1128686015 0.2356464174 0.0491304966
0.1736675287 0.2363011353 0.0495521668
0.2350822510 0.2373785898 0.0501131555
0.2976934249 0.2383367829 0.0507059935
0.3606087901 0.2401085701 0.0522086676
0.4248052668 0.2421620209 0.0540557448
0.4889776520 0.2435072637 0.0551078194
0.5530568520 0.2444189265 0.0560838133
0.6174845924 0.2444139174 0.0565509754
0.6818660996 0.2446287903 0.0570319910
0.7466635278 0.2453456135 0.0579744629
0.8112685928 0.2467717731 0.0593938574
0.8758433826 0.2492112041 0.0614840714
0.9402991573 0.2517658643 0.0638505988
1.0000000000 0.2536914446 0.0658008447
0.0000000000 0.3010338806 0.0513394522
0.0544687044 0.3010429917 0.0513394028
0.1154596200 0.3013063995 0.0516114207
0.1764495736 0.3017371558 0.0519471886
0.2382111968 0.3026087601 0.0524333920
0.3010159824 0.3034329154 0.0529692117
0.3642028207 0.3050072710 0.0543632237
0.4282504655 0.3070316846 0.0560409124
0.4921463653 0.3085248289 0.0572033799
0.5560381152 0.3096069659 0.0582765611
0.6202105749 0.3097577081 0.0588542758
0.6844238264 0.3099415947 0.0594139716
0.7488379385 0.3104631349 0.0602018421
0.8131529670 0.3115389285 0.0613924676
0.8773649146 0.3135144936 0.0631553175
0.9415466492 0.3155409812 0.0651486972
1.0000000000 0.3170524254 0.0667794542
0.0000000000 0.3670851858 0.0542635443
0.0580868688 0.3670949722 0.0544177871
0.1190179428 0.3673059419 0.0547126858
0.1800488974 0.3675862257 0.0551195778
0.2420035163 0.3682898288 0.0556430547
0.3048634068 0.3690297324 0.0562319793
0.3682118813 0.3703476861 0.0575804529
0.4320901879 0.3721647700 0.0591199354
0.4956967817 0.3736671663 0.0604570839
0.5594252215 0.3747958888 0.0617152309
0.6234116571 0.3750986990 0.0625768193
0.6874716724 0.3753290290 0.0633866381
0.7515754926 0.3757723247 0.0641492829
0.8156844426 0.3766245693 0.0652217444
0.8796090460 0.3782122999 0.0667220391
0.9435515306 0.3797711725 0.0683869426
1.0000000000 0.3808925920 0.0696889753
0.0004997010 0.4320253944 0.0560477935
0.0611869310 0.4321457678 0.0563206607
0.1217431454 0.4323314880 0.0565688177
0.1826500716 0.4324386748 0.0570215010
0.2447857345 0.4329379750 0.0575805260
0.3077532360 0.4334894624 0.0582218864
0.3713619229 0.4345076249 0.0595168131
0.4351043778 0.4360469725 0.0608659812
0.4983518875 0.4375172223 0.0623645625
0.5619311955 0.4386818805 0.0638322964
0.6257928669 0.4392129349 0.0650483172
0.6898201655 0.4396428466 0.0662297520
0.7538059689 0.4402339684 0.0671236557
0.8178903069 0.4411289867 0.0682453942
0.8817081577 0.4425669773 0.0696611488
0.9455868667 0.4438892649 0.0711851306
1.0000000000 0.4447975731 0.0722920438
0.0045825457 0.4976411376 0.0582501073
0.0651256193 0.4978653376 0.0586522808
0.1251363351 0.4980256036 0.0588003078
0.1857751069 0.4979260524 0.0592266645
0.2479184887 0.4981619049 0.0596952967
0.3108657839 0.4984083265 0.0602790050
0.3745874179 0.4990256218 0.0614491476
0.4381431011 0.5001351347 0.0625246214
0.5008707005 0.5014364480 0.0639997248
0.5641815752 0.5025283813 0.0655124376
0.6278215491 0.5032610428 0.0669347770
0.6917531611 0.5039155344 0.0683990852
0.7557492466 0.5046877046 0.0694874958
0.8199250884 0.5057124509 0.0707647465
0.8837709557 0.5071362392 0.0722477902
0.9477275843 0.5083937058 0.0738098156
1.0000000000 0.5092043178 0.0748599954
0.0100823585 0.5631234696 0.0608455497
0.0702135460 0.5634783794 0.0613280074
0.1293754089 0.5636383407 0.0613727486
0.1894878815 0.5633483431 0.0617960256
0.2514107001 0.5633201702 0.0621980667
0.3142045961 0.5632587205 0.0627572196
0.3779215207 0.5634986904 0.0638250556
0.4412323574 0.5641758332 0.0646536786
0.5034013074 0.5652564436 0.0660920264
0.5664162650 0.5662172402 0.0676227072
0.6297750985 0.5670644841 0.0692023262
0.6936008916 0.5678979354 0.0709047867
0.7576432065 0.5688711214 0.0721938899
0.8219499877 0.5700560329 0.0736547736
0.8858684991 0.5715324376 0.0752712283
0.9499587687 0.5728075430 0.0769628221
1.0000000000 0.5736338124 0.0780180432
0.0155515056 0.6286166206 0.0655923539
0.0751201110 0.6290112049 0.0660876690
0.1335664298 0.6291978364 0.0659111440
0.1932800435 0.6288795529 0.0661472084
0.2549302648 0.6287329821 0.0663294364
0.3175738249 0.6285132261 0.0667252610
0.3811749639 0.6286413192 0.0676099272
0.4443620383 0.6290078275 0.0681448700
0.5062485714 0.6299100891 0.0693776333
0.5691562998 0.6307544084 0.0707527185
0.6323072864 0.6316362591 0.0722272880
0.6960259862 0.6325434013 0.0739304386
0.7601792263 0.6336489962 0.0752799194
0.8246461265 0.6349283336 0.0768108889
0.8886890737 0.6364176041 0.0785257909
0.9529005475 0.6377242580 0.0803551022
1.0000000000 0.6386120040 0.0814672373
0.0236387346 0.6956573166 0.0714357169
0.0823102966 0.6960729510 0.0719398586
0.1398725295 0.6962855067 0.0716270600
0.1989524690 0.6960060252 0.0717467582
0.2599878134 0.6958635012 0.0717396121
0.3221815135 0.6955747865 0.0719845342
0.3853403209 0.6955854893 0.0727179060
0.4482385572 0.6955710724 0.0730236480
0.5099595953 0.6961777378 0.0740425792
0.5728065232 0.6967454283 0.0752174733
0.6357733058 0.6974614505 0.0764518576
0.6993837906 0.6982503710 0.0780097544
0.7636253247 0.6993019292 0.0793458521
0.8282271083 0.7005163282 0.0808874201
0.8923631441 0.7019487228 0.0826524366
0.9566361718 0.7032485176 0.0845746435
1.0000000000 0.7041797936 0.0857194215
0.0304396711 0.7603115840 0.0756357480
0.0881443992 0.7607596330 0.0760983070
0.1451093350 0.7610214064 0.0757347131
0.2038407829 0.7608349230 0.0759111755
0.2644360708 0.7608671533 0.0759721389
0.3263232345 0.7606721008 0.0763333598
0.3888661657 0.7607714105 0.0771874133
0.4514087746 0.7606312651 0.0775387930
0.5130432146 0.7611984015 0.0785169080
0.5759185757 0.7617402393 0.0796765983
0.6388268061 0.7624502815 0.0808145627
0.7024296718 0.7632167023 0.0823173113
0.7668554559 0.7642620606 0.0837411508
0.8317013364 0.7654660940 0.0853883121
0.8961301763 0.7669265755 0.0872771684
0.9606267028 0.7682857495 0.0893303063
1.0000000000 0.7692643665 0.0905536413
0.0393407494 0.8264558818 0.0810812265
0.0958800614 0.8269038461 0.0814950261
0.1520913970 0.8271510955 0.0811120551
0.2102286853 0.8270050902 0.0813619122
0.2701134831 0.8271831898 0.0814503208
0.3314242307 0.8270580657 0.0818988066
0.3929807656 0.8272044891 0.0828531720
0.4549635630 0.8268900802 0.0832983758
0.5164060015 0.8273429014 0.0842929929
0.5792483054 0.8278048178 0.0854720734
0.6420483738 0.8284985218 0.0864757691
0.7056324091 0.8292220831 0.0878686924
0.7702337168 0.8301856648 0.0893487707
0.8353159055 0.8313015737 0.0910686702
0.9000815451 0.8327290211 0.0930532180
0.9647996370 0.8340813741 0.0951889940
1.0000000000 0.8350380920 0.0964582898
0.0502277426 0.8923713900 0.0861535836
0.1056377925 0.8928986825 0.0864883699
0.1610120274 0.8931129146 0.0861970820
0.2183336634 0.8929934148 0.0866296012
0.2772867903 0.8932537120 0.0868443344
0.3378130123 0.8931519762 0.0874456707
0.3981554341 0.8933037557 0.0884874649
0.4593471847 0.8929065708 0.0890088994
0.5202854443 0.8933080044 0.0900089946
0.5827760901 0.8937411848 0.0912059806
0.6452053711 0.8945502490 0.0920263138
0.7086175717 0.8952953517 0.0932551995
0.7732345145 0.8961950429 0.0947399028
0.8384292368 0.8972138911 0.0965053700
0.9035180006 0.8986160923 0.0985925682
0.9685197100 0.8999272492 0.1008209176
1.0000000000 0.9008060303 0.1021364257
0.0612534285 0.9580186717 0.0914369058
0.1157463118 0.9585610647 0.0917805508
0.1704270020 0.9588929433 0.0916858558
0.2269847952 0.9589821640 0.0923723634
0.2848890126 0.9594397414 0.0927731283
0.3445118852 0.9595181141 0.0935745891
0.4035492744 0.9597728401 0.0947355181
0.4638656508 0.9594288524 0.0953815803
0.5241138712 0.9598976113 0.0964086801
0.5860568546 0.9603860844 0.0976494811
0.6479526758 0.9613102078 0.0983130857
0.7110434640 0.9620400332 0.0993940756
0.7755432036 0.9628314469 0.1008613966
0.8407415673 0.9637019075 0.1026609540
0.9061204884 0.9649977870 0.1048574112
0.9713836312 0.9661732949 0.1071869321
1.0000000000 0.9668956362 0.1085467935
0.0700012222 1.0000000000 0.0960984416
0.1237298995 1.0000000000 0.0963821113
0.1775825024 1.0000000000 0.0964775160
0.2332706489 1.0000000000 0.0973804928
0.2902514003 1.0000000000 0.0978694037
0.3491184525 1.0000000000 0.0987922624
0.4073880687 1.0000000000 0.1000151671
0.4671947565 1.0000000000 0.1007311419
0.5270389635 1.0000000000 0.1017623693
0.5887019336 1.0000000000 0.1030032337
0.6503602844 1.0000000000 0.1035847776
0.7132869326 1.0000000000 0.1045648493
0.7776252832 1.0000000000 0.1059624143
0.8427535705 1.0000000000 0.1077056788
0.9082609713 1.0000000000 0.1099183746
0.9736372232 1.0000000000 0.1122872606
1.0000000000 1.0000000000 0.1136547849
0.0000000000 0.0000000000 0.0962205864
0.0397783536 0.0000000000 0.0960949939
0.1003605071 0.0000000000 0.0968976375
0.1609167662 0.0000000000 0.0978411864
0.2219548523 0.0000000000 0.0989948716
0.2844596412 0.0000000000 0.1000518668
0.3473771401 0.0000000000 0.1019346658
0.4123900291 0.0000000000 0.1041397769
0.4775593448 0.0000000000 0.1053640638
0.5425652880 0.0000000000 0.1066899393
0.6079579610 0.0000000000 0.1078952979
0.6734158890 0.0000000000 0.1092820372
0.7393732201 0.0000000000 0.1113685016
0.8050113423 0.0000000000 0.1141959354
0.8703346625 0.0000000000 0.1179239629
0.9355394689 0.0000000000 0.1220473712
0.9996031519 0.0005114371 0.1252690052
0.0000000000 0.0404431503 0.0995418634
0.0421337876 0.0404767152 0.0993519817
0.1027955376 0.0409470592 0.1000190098
0.1634215545 0.0416577477 0.1008097213
0.2244747877 0.0425876677 0.1018378437
0.2869438641 0.0432929154 0.1028088164
0.3498090487 0.0451794472 0.1046615019
0.4146954659 0.0470093936 0.1068495754
0.4797357544 0.0477850959 0.1079544351
0.5445781760 0.0482378276 0.1091329865
0.6097839102 0.0482650446 0.1101006083
0.6749455500 0.0490391422 0.1112149172
0.7406651722 0.0506528579 0.1130780764
0.8060851512 0.0532791195 0.1156173237
0.8713179445 0.0568037899 0.1190106533
0.9363514620 0.0605731112 0.1227824851
0.9999970338 0.0636280820 0.1257678799
0.0000000000 0.1046034433 0.1026206538
0.0457377657 0.1046316754 0.1024282146
