webapp/static/gallery_seeds/faded-vintage-film/lut.cube
LUT_3D_SIZE 17
DOMAIN_MIN 0 0 0
DOMAIN_MAX 1 1 1
0.1300000000 0.1300000000 0.1300000000
0.1688139950 0.1329126200 0.1315838700
0.2076279900 0.1358252400 0.1331677400
0.2464419850 0.1387378600 0.1347516100
0.2852559800 0.1416504800 0.1363354800
0.3240699750 0.1445631000 0.1379193500
0.3628839700 0.1474757200 0.1395032200
0.4016979650 0.1503883400 0.1410870900
0.4405119600 0.1533009600 0.1426709600
0.4793259550 0.1562135800 0.1442548300
0.5181399500 0.1591262000 0.1458387000
0.5569539450 0.1620388200 0.1474225700
0.5957679400 0.1649514400 0.1490064400
0.6345819350 0.1678640600 0.1505903100
0.6733959300 0.1707766800 0.1521741800
0.7122099250 0.1736893000 0.1537580500
0.7510239200 0.1766019200 0.1553419200
0.1384572400 0.1760982400 0.1353282400
0.1772712350 0.1790108600 0.1369121100
0.2160852300 0.1819234800 0.1384959800
0.2548992250 0.1848361000 0.1400798500
0.2937132200 0.1877487200 0.1416637200
0.3325272150 0.1906613400 0.1432475900
0.3713412100 0.1935739600 0.1448314600
0.4101552050 0.1964865800 0.1464153300
0.4489692000 0.1993992000 0.1479992000
0.4877831950 0.2023118200 0.1495830700
0.5265971900 0.2052244400 0.1511669400
0.5654111850 0.2081370600 0.1527508100
0.6042251800 0.2110496800 0.1543346800
0.6430391750 0.2139623000 0.1559185500
0.6818531700 0.2168749200 0.1575024200
0.7206671650 0.2197875400 0.1590862900
0.7594811600 0.2227001600 0.1606701600
0.1469144800 0.2221964800 0.1406564800
0.1857284750 0.2251091000 0.1422403500
0.2245424700 0.2280217200 0.1438242200
0.2633564650 0.2309343400 0.1454080900
0.3021704600 0.2338469600 0.1469919600
0.3409844550 0.2367595800 0.1485758300
0.3797984500 0.2396722000 0.1501597000
0.4186124450 0.2425848200 0.1517435700
0.4574264400 0.2454974400 0.1533274400
0.4962404350 0.2484100600 0.1549113100
0.5350544300 0.2513226800 0.1564951800
0.5738684250 0.2542353000 0.1580790500
0.6126824200 0.2571479200 0.1596629200
0.6514964150 0.2600605400 0.1612467900
0.6903104100 0.2629731600 0.1628306600
0.7291244050 0.2658857800 0.1644145300
0.7679384000 0.2687984000 0.1659984000
0.1553717200 0.2682947200 0.1459847200
0.1941857150 0.2712073400 0.1475685900
0.2329997100 0.2741199600 0.1491524600
0.2718137050 0.2770325800 0.1507363300
0.3106277000 0.2799452000 0.1523202000
0.3494416950 0.2828578200 0.1539040700
0.3882556900 0.2857704400 0.1554879400
0.4270696850 0.2886830600 0.1570718100
0.4658836800 0.2915956800 0.1586556800
0.5046976750 0.2945083000 0.1602395500
0.5435116700 0.2974209200 0.1618234200
0.5823256650 0.3003335400 0.1634072900
0.6211396600 0.3032461600 0.1649911600
0.6599536550 0.3061587800 0.1665750300
0.6987676500 0.3090714000 0.1681589000
0.7375816450 0.3119840200 0.1697427700
0.7763956400 0.3148966400 0.1713266400
0.1638289600 0.3143929600 0.1513129600
0.2026429550 0.3173055800 0.1528968300
0.2414569500 0.3202182000 0.1544807000
0.2802709450 0.3231308200 0.1560645700
0.3190849400 0.3260434400 0.1576484400
0.3578989350 0.3289560600 0.1592323100
0.3967129300 0.3318686800 0.1608161800
0.4355269250 0.3347813000 0.1624000500
0.4743409200 0.3376939200 0.1639839200
0.5131549150 0.3406065400 0.1655677900
0.5519689100 0.3435191600 0.1671516600
0.5907829050 0.3464317800 0.1687355300
0.6295969000 0.3493444000 0.1703194000
0.6684108950 0.3522570200 0.1719032700
0.7072248900 0.3551696400 0.1734871400
0.7460388850 0.3580822600 0.1750710100
0.7848528800 0.3609948800 0.1766548800
0.1722862000 0.3604912000 0.1566412000
0.2111001950 0.3634038200 0.1582250700
0.2499141900 0.3663164400 0.1598089400
0.2887281850 0.3692290600 0.1613928100
0.3275421800 0.3721416800 0.1629766800
0.3663561750 0.3750543000 0.1645605500
0.4051701700 0.3779669200 0.1661444200
0.4439841650 0.3808795400 0.1677282900
0.4827981600 0.3837921600 0.1693121600
0.5216121550 0.3867047800 0.1708960300
0.5604261500 0.3896174000 0.1724799000
0.5992401450 0.3925300200 0.1740637700
0.6380541400 0.3954426400 0.1756476400
0.6768681350 0.3983552600 0.1772315100
0.7156821300 0.4012678800 0.1788153800
0.7544961250 0.4041805000 0.1803992500
0.7933101200 0.4070931200 0.1819831200
0.1807434400 0.4065894400 0.1619694400
0.2195574350 0.4095020600 0.1635533100
0.2583714300 0.4124146800 0.1651371800
0.2971854250 0.4153273000 0.1667210500
0.3359994200 0.4182399200 0.1683049200
0.3748134150 0.4211525400 0.1698887900
0.4136274100 0.4240651600 0.1714726600
0.4524414050 0.4269777800 0.1730565300
0.4912554000 0.4298904000 0.1746404000
0.5300693950 0.4328030200 0.1762242700
0.5688833900 0.4357156400 0.1778081400
0.6076973850 0.4386282600 0.1793920100
0.6465113800 0.4415408800 0.1809758800
0.6853253750 0.4444535000 0.1825597500
0.7241393700 0.4473661200 0.1841436200
0.7629533650 0.4502787400 0.1857274900
0.8017673600 0.4531913600 0.1873113600
0.1892006800 0.4526876800 0.1672976800
0.2280146750 0.4556003000 0.1688815500
0.2668286700 0.4585129200 0.1704654200
0.3056426650 0.4614255400 0.1720492900
0.3444566600 0.4643381600 0.1736331600
0.3832706550 0.4672507800 0.1752170300
0.4220846500 0.4701634000 0.1768009000
0.4608986450 0.4730760200 0.1783847700
0.4997126400 0.4759886400 0.1799686400
0.5385266350 0.4789012600 0.1815525100
0.5773406300 0.4818138800 0.1831363800
0.6161546250 0.4847265000 0.1847202500
0.6549686200 0.4876391200 0.1863041200
0.6937826150 0.4905517400 0.1878879900
0.7325966100 0.4934643600 0.1894718600
0.7723876050 0.4966212300 0.1937424800
0.8122646000 0.4997996000 0.1982496000
0.1976579200 0.4987859200 0.1726259200
0.2364719150 0.5016985400 0.1742097900
0.2752859100 0.5046111600 0.1757936600
0.3140999050 0.5075237800 0.1773775300
0.3529139000 0.5104364000 0.1789614000
0.3917278950 0.5133490200 0.1805452700
0.4305418900 0.5162616400 0.1821291400
0.4693558850 0.5191742600 0.1837130100
0.5081698800 0.5220868800 0.1852968800
0.5469838750 0.5249995000 0.1868807500
0.5857978700 0.5279121200 0.1884646200
0.6249128650 0.5308999900 0.1908762400
0.6647898600 0.5340783600 0.1953833600
0.7046668550 0.5372567300 0.1998904800
0.7445438500 0.5404351000 0.2043976000
0.7844208450 0.5436134700 0.2089047200
0.8242978400 0.5467918400 0.2134118400
0.2061151600 0.5448841600 0.1779541600
0.2449291550 0.5477967800 0.1795380300
0.2837431500 0.5507094000 0.1811219000
0.3225571450 0.5536220200 0.1827057700
0.3613711400 0.5565346400 0.1842896400
0.4001851350 0.5594472600 0.1858735100
0.4389991300 0.5623598800 0.1874573800
0.4778131250 0.5652725000 0.1890412500
0.5173151200 0.5683571200 0.1925171200
0.5571921150 0.5715354900 0.1970242400
0.5970691100 0.5747138600 0.2015313600
0.6369461050 0.5778922300 0.2060384800
0.6768231000 0.5810706000 0.2105456000
0.7167000950 0.5842489700 0.2150527200
0.7565770900 0.5874273400 0.2195598400
0.7964540850 0.5906057100 0.2240669600
0.8363310800 0.5937840800 0.2285740800
0.2145724000 0.5909824000 0.1832824000
0.2533863950 0.5938950200 0.1848662700
0.2922003900 0.5968076400 0.1864501400
0.3310143850 0.5997202600 0.1880340100
0.3698403800 0.6026358800 0.1896508800
0.4097173750 0.6058142500 0.1941580000
0.4495943700 0.6089926200 0.1986651200
0.4894713650 0.6121709900 0.2031722400
0.5293483600 0.6153493600 0.2076793600
0.5692253550 0.6185277300 0.2121864800
0.6091023500 0.6217061000 0.2166936000
0.6489793450 0.6248844700 0.2212007200
0.6888563400 0.6280628400 0.2257078400
0.7287333350 0.6312412100 0.2302149600
0.7686103300 0.6344195800 0.2347220800
0.8084873250 0.6375979500 0.2392292000
0.8483643200 0.6407763200 0.2437363200
0.2230296400 0.6370806400 0.1886106400
0.2622426350 0.6400930100 0.1912917600
0.3021196300 0.6432713800 0.1957988800
0.3419966250 0.6464497500 0.2003060000
0.3818736200 0.6496281200 0.2048131200
0.4217506150 0.6528064900 0.2093202400
0.4616276100 0.6559848600 0.2138273600
0.5015046050 0.6591632300 0.2183344800
0.5413816000 0.6623416000 0.2228416000
0.5812585950 0.6655199700 0.2273487200
0.6211355900 0.6686983400 0.2318558400
0.6610125850 0.6718767100 0.2363629600
0.7008895800 0.6750550800 0.2408700800
0.7407665750 0.6782334500 0.2453772000
0.7806435700 0.6814118200 0.2498843200
0.8205205650 0.6845901900 0.2543914400
0.8603975600 0.6877685600 0.2588985600
0.2343988800 0.6839068800 0.2019468800
0.2742758750 0.6870852500 0.2064540000
0.3141528700 0.6902636200 0.2109611200
0.3540298650 0.6934419900 0.2154682400
0.3939068600 0.6966203600 0.2199753600
0.4337838550 0.6997987300 0.2244824800
0.4736608500 0.7029771000 0.2289896000
0.5135378450 0.7061554700 0.2334967200
0.5534148400 0.7093338400 0.2380038400
0.5932918350 0.7125122100 0.2425109600
0.6331688300 0.7156905800 0.2470180800
0.6730458250 0.7188689500 0.2515252000
0.7129228200 0.7220473200 0.2560323200
0.7527998150 0.7252256900 0.2605394400
0.7926768100 0.7284040600 0.2650465600
0.8325538050 0.7315824300 0.2695536800
0.8724308000 0.7347608000 0.2740608000
0.2464321200 0.7308991200 0.2171091200
0.2863091150 0.7340774900 0.2216162400
0.3261861100 0.7372558600 0.2261233600
0.3660631050 0.7404342300 0.2306304800
0.4059401000 0.7436126000 0.2351376000
0.4458170950 0.7467909700 0.2396447200
0.4856940900 0.7499693400 0.2441518400
0.5255710850 0.7531477100 0.2486589600
0.5654480800 0.7563260800 0.2531660800
0.6053250750 0.7595044500 0.2576732000
0.6452020700 0.7626828200 0.2621803200
0.6850790650 0.7658611900 0.2666874400
0.7249560600 0.7690395600 0.2711945600
0.7648330550 0.7722179300 0.2757016800
0.8047100500 0.7753963000 0.2802088000
0.8445870450 0.7785746700 0.2847159200
0.8844640400 0.7817530400 0.2892230400
0.2584653600 0.7778913600 0.2322713600
0.2983423550 0.7810697300 0.2367784800
0.3382193500 0.7842481000 0.2412856000
0.3780963450 0.7874264700 0.2457927200
0.4179733400 0.7906048400 0.2502998400
0.4578503350 0.7937832100 0.2548069600
0.4977273300 0.7969615800 0.2593140800
0.5376043250 0.8001399500 0.2638212000
0.5774813200 0.8033183200 0.2683283200
0.6173583150 0.8064966900 0.2728354400
0.6572353100 0.8096750600 0.2773425600
0.6971123050 0.8128534300 0.2818496800
0.7369893000 0.8160318000 0.2863568000
0.7768662950 0.8192101700 0.2908639200
0.8167432900 0.8223885400 0.2953710400
0.8566202850 0.8255669100 0.2998781600
0.8964972800 0.8287452800 0.3043852800
0.2704986000 0.8248836000 0.2474336000
0.3103755950 0.8280619700 0.2519407200
0.3502525900 0.8312403400 0.2564478400
0.3901295850 0.8344187100 0.2609549600
0.4300065800 0.8375970800 0.2654620800
0.4698835750 0.8407754500 0.2699692000
0.5097605700 0.8439538200 0.2744763200
0.5496375650 0.8471321900 0.2789834400
0.5895145600 0.8503105600 0.2834905600
0.6293915550 0.8534889300 0.2879976800
0.6692685500 0.8566673000 0.2925048000
0.7091455450 0.8598456700 0.2970119200
0.7490225400 0.8630240400 0.3015190400
0.7888995350 0.8662024100 0.3060261600
0.8287765300 0.8693807800 0.3105332800
0.8686535250 0.8725591500 0.3150404000
0.9085305200 0.8757375200 0.3195475200
0.2825318400 0.8718758400 0.2625958400
0.3224088350 0.8750542100 0.2671029600
0.3622858300 0.8782325800 0.2716100800
0.4021628250 0.8814109500 0.2761172000
0.4420398200 0.8845893200 0.2806243200
0.4819168150 0.8877676900 0.2851314400
0.5217938100 0.8909460600 0.2896385600
0.5616708050 0.8941244300 0.2941456800
0.6015478000 0.8973028000 0.2986528000
0.6414247950 0.9004811700 0.3031599200
0.6813017900 0.9036595400 0.3076670400
0.7211787850 0.9068379100 0.3121741600
0.7610557800 0.9100162800 0.3166812800
0.8009327750 0.9131946500 0.3211884000
0.8408097700 0.9163730200 0.3256955200
0.8806867650 0.9195513900 0.3302026400
0.9205637600 0.9227297600 0.3347097600
0.1308537650 0.1309891400 0.1668378900
0.1696677600 0.1339017600 0.1684217600
0.2084817550 0.1368143800 0.1700056300
0.2472957500 0.1397270000 0.1715895000
0.2861097450 0.1426396200 0.1731733700
0.3249237400 0.1455522400 0.1747572400
0.3637377350 0.1484648600 0.1763411100
0.4025517300 0.1513774800 0.1779249800
0.4413657250 0.1542901000 0.1795088500
0.4801797200 0.1572027200 0.1810927200
0.5189937150 0.1601153400 0.1826765900
0.5578077100 0.1630279600 0.1842604600
0.5966217050 0.1659405800 0.1858443300
0.6354357000 0.1688532000 0.1874282000
0.6742496950 0.1717658200 0.1890120700
0.7130636900 0.1746784400 0.1905959400
0.7518776850 0.1775910600 0.1921798100
0.1393110050 0.1770873800 0.1721661300
0.1781250000 0.1800000000 0.1737500000
0.2169389950 0.1829126200 0.1753338700
0.2557529900 0.1858252400 0.1769177400
0.2945669850 0.1887378600 0.1785016100
0.3333809800 0.1916504800 0.1800854800
0.3721949750 0.1945631000 0.1816693500
0.4110089700 0.1974757200 0.1832532200
0.4498229650 0.2003883400 0.1848370900
0.4886369600 0.2033009600 0.1864209600
0.5274509550 0.2062135800 0.1880048300
0.5662649500 0.2091262000 0.1895887000
0.6050789450 0.2120388200 0.1911725700
0.6438929400 0.2149514400 0.1927564400
0.6827069350 0.2178640600 0.1943403100
0.7215209300 0.2207766800 0.1959241800
0.7603349250 0.2236893000 0.1975080500
0.1477682450 0.2231856200 0.1774943700
0.1865822400 0.2260982400 0.1790782400
0.2253962350 0.2290108600 0.1806621100
0.2642102300 0.2319234800 0.1822459800
0.3030242250 0.2348361000 0.1838298500
0.3418382200 0.2377487200 0.1854137200
0.3806522150 0.2406613400 0.1869975900
0.4194662100 0.2435739600 0.1885814600
0.4582802050 0.2464865800 0.1901653300
0.4970942000 0.2493992000 0.1917492000
0.5359081950 0.2523118200 0.1933330700
0.5747221900 0.2552244400 0.1949169400
0.6135361850 0.2581370600 0.1965008100
0.6523501800 0.2610496800 0.1980846800
0.6911641750 0.2639623000 0.1996685500
0.7299781700 0.2668749200 0.2012524200
0.7687921650 0.2697875400 0.2028362900
0.1562254850 0.2692838600 0.1828226100
0.1950394800 0.2721964800 0.1844064800
0.2338534750 0.2751091000 0.1859903500
0.2726674700 0.2780217200 0.1875742200
0.3114814650 0.2809343400 0.1891580900
0.3502954600 0.2838469600 0.1907419600
0.3891094550 0.2867595800 0.1923258300
0.4279234500 0.2896722000 0.1939097000
0.4667374450 0.2925848200 0.1954935700
0.5055514400 0.2954974400 0.1970774400
0.5443654350 0.2984100600 0.1986613100
0.5831794300 0.3013226800 0.2002451800
0.6219934250 0.3042353000 0.2018290500
0.6608074200 0.3071479200 0.2034129200
0.6996214150 0.3100605400 0.2049967900
0.7384354100 0.3129731600 0.2065806600
0.7772494050 0.3158857800 0.2081645300
0.1646827250 0.3153821000 0.1881508500
0.2034967200 0.3182947200 0.1897347200
0.2423107150 0.3212073400 0.1913185900
0.2811247100 0.3241199600 0.1929024600
0.3199387050 0.3270325800 0.1944863300
0.3587527000 0.3299452000 0.1960702000
0.3975666950 0.3328578200 0.1976540700
0.4363806900 0.3357704400 0.1992379400
0.4751946850 0.3386830600 0.2008218100
0.5140086800 0.3415956800 0.2024056800
0.5528226750 0.3445083000 0.2039895500
0.5916366700 0.3474209200 0.2055734200
0.6304506650 0.3503335400 0.2071572900
0.6692646600 0.3532461600 0.2087411600
0.7080786550 0.3561587800 0.2103250300
0.7468926500 0.3590714000 0.2119089000
0.7857066450 0.3619840200 0.2134927700
0.1731399650 0.3614803400 0.1934790900
0.2119539600 0.3643929600 0.1950629600
0.2507679550 0.3673055800 0.1966468300
0.2895819500 0.3702182000 0.1982307000
0.3283959450 0.3731308200 0.1998145700
0.3672099400 0.3760434400 0.2013984400
0.4060239350 0.3789560600 0.2029823100
0.4448379300 0.3818686800 0.2045661800
0.4836519250 0.3847813000 0.2061500500
0.5224659200 0.3876939200 0.2077339200
0.5612799150 0.3906065400 0.2093177900
0.6000939100 0.3935191600 0.2109016600
0.6389079050 0.3964317800 0.2124855300
0.6777219000 0.3993444000 0.2140694000
0.7165358950 0.4022570200 0.2156532700
0.7553498900 0.4051696400 0.2172371400
0.7941638850 0.4080822600 0.2188210100
0.1815972050 0.4075785800 0.1988073300
0.2204112000 0.4104912000 0.2003912000
0.2592251950 0.4134038200 0.2019750700
0.2980391900 0.4163164400 0.2035589400
0.3368531850 0.4192290600 0.2051428100
0.3756671800 0.4221416800 0.2067266800
0.4144811750 0.4250543000 0.2083105500
0.4532951700 0.4279669200 0.2098944200
0.4921091650 0.4308795400 0.2114782900
0.5309231600 0.4337921600 0.2130621600
0.5697371550 0.4367047800 0.2146460300
0.6085511500 0.4396174000 0.2162299000
0.6473651450 0.4425300200 0.2178137700
0.6861791400 0.4454426400 0.2193976400
0.7249931350 0.4483552600 0.2209815100
0.7638071300 0.4512678800 0.2225653800
0.8026211250 0.4541805000 0.2241492500
0.1900544450 0.4536768200 0.2041355700
0.2288684400 0.4565894400 0.2057194400
0.2676824350 0.4595020600 0.2073033100
0.3064964300 0.4624146800 0.2088871800
0.3453104250 0.4653273000 0.2104710500
0.3841244200 0.4682399200 0.2120549200
0.4229384150 0.4711525400 0.2136387900
0.4617524100 0.4740651600 0.2152226600
0.5005664050 0.4769777800 0.2168065300
0.5393804000 0.4798904000 0.2183904000
0.5781943950 0.4828030200 0.2199742700
0.6170083900 0.4857156400 0.2215581400
0.6558223850 0.4886282600 0.2231420100
0.6946363800 0.4915408800 0.2247258800
0.7337253750 0.4945222500 0.2270660000
0.7736023700 0.4977006200 0.2315731200
0.8134793650 0.5008789900 0.2360802400
0.1985116850 0.4997750600 0.2094638100
0.2373256800 0.5026876800 0.2110476800
0.2761396750 0.5056003000 0.2126315500
0.3149536700 0.5085129200 0.2142154200
0.3537676650 0.5114255400 0.2157992900
0.3925816600 0.5143381600 0.2173831600
0.4313956550 0.5172507800 0.2189670300
0.4702096500 0.5201634000 0.2205509000
0.5090236450 0.5230760200 0.2221347700
0.5478376400 0.5259886400 0.2237186400
0.5866516350 0.5289012600 0.2253025100
0.6261276300 0.5319793800 0.2287068800
0.6660046250 0.5351577500 0.2332140000
0.7058816200 0.5383361200 0.2377211200
0.7457586150 0.5415144900 0.2422282400
0.7856356100 0.5446928600 0.2467353600
0.8255126050 0.5478712300 0.2512424800
0.2069689250 0.5458733000 0.2147920500
0.2457829200 0.5487859200 0.2163759200
0.2845969150 0.5516985400 0.2179597900
0.3234109100 0.5546111600 0.2195436600
0.3622249050 0.5575237800 0.2211275300
0.4010389000 0.5604364000 0.2227114000
0.4398528950 0.5633490200 0.2242952700
0.4786668900 0.5662616400 0.2258791400
0.5185298850 0.5694365100 0.2303477600
0.5584068800 0.5726148800 0.2348548800
0.5982838750 0.5757932500 0.2393620000
0.6381608700 0.5789716200 0.2438691200
0.6780378650 0.5821499900 0.2483762400
0.7179148600 0.5853283600 0.2528833600
0.7577918550 0.5885067300 0.2573904800
0.7976688500 0.5916851000 0.2618976000
0.8375458450 0.5948634700 0.2664047200
0.2154261650 0.5919715400 0.2201202900
0.2542401600 0.5948841600 0.2217041600
0.2930541550 0.5977967800 0.2232880300
0.3318681500 0.6007094000 0.2248719000
0.3710551450 0.6037152700 0.2274815200
0.4109321400 0.6068936400 0.2319886400
0.4508091350 0.6100720100 0.2364957600
0.4906861300 0.6132503800 0.2410028800
0.5305631250 0.6164287500 0.2455100000
0.5704401200 0.6196071200 0.2500171200
0.6103171150 0.6227854900 0.2545242400
0.6501941100 0.6259638600 0.2590313600
0.6900711050 0.6291422300 0.2635384800
0.7299481000 0.6323206000 0.2680456000
0.7698250950 0.6354989700 0.2725527200
0.8097020900 0.6386773400 0.2770598400
0.8495790850 0.6418557100 0.2815669600
0.2238834050 0.6380697800 0.2254485300
0.2634574000 0.6411724000 0.2291224000
0.3033343950 0.6443507700 0.2336295200
0.3432113900 0.6475291400 0.2381366400
0.3830883850 0.6507075100 0.2426437600
0.4229653800 0.6538858800 0.2471508800
0.4628423750 0.6570642500 0.2516580000
0.5027193700 0.6602426200 0.2561651200
0.5425963650 0.6634209900 0.2606722400
0.5824733600 0.6665993600 0.2651793600
0.6223503550 0.6697777300 0.2696864800
0.6622273500 0.6729561000 0.2741936000
0.7021043450 0.6761344700 0.2787007200
0.7419813400 0.6793128400 0.2832078400
0.7818583350 0.6824912100 0.2877149600
0.8217353300 0.6856695800 0.2922220800
0.8616123250 0.6888479500 0.2967292000
0.2356136450 0.6849862700 0.2397775200
0.2754906400 0.6881646400 0.2442846400
0.3153676350 0.6913430100 0.2487917600
0.3552446300 0.6945213800 0.2532988800
0.3951216250 0.6976997500 0.2578060000
0.4349986200 0.7008781200 0.2623131200
0.4748756150 0.7040564900 0.2668202400
0.5147526100 0.7072348600 0.2713273600
0.5546296050 0.7104132300 0.2758344800
0.5945066000 0.7135916000 0.2803416000
0.6343835950 0.7167699700 0.2848487200
0.6742605900 0.7199483400 0.2893558400
0.7141375850 0.7231267100 0.2938629600
0.7540145800 0.7263050800 0.2983700800
0.7938915750 0.7294834500 0.3028772000
0.8337685700 0.7326618200 0.3073843200
0.8736455650 0.7358401900 0.3118914400
0.2476468850 0.7319785100 0.2549397600
0.2875238800 0.7351568800 0.2594468800
0.3274008750 0.7383352500 0.2639540000
0.3672778700 0.7415136200 0.2684611200
0.4071548650 0.7446919900 0.2729682400
0.4470318600 0.7478703600 0.2774753600
0.4869088550 0.7510487300 0.2819824800
0.5267858500 0.7542271000 0.2864896000
0.5666628450 0.7574054700 0.2909967200
0.6065398400 0.7605838400 0.2955038400
0.6464168350 0.7637622100 0.3000109600
0.6862938300 0.7669405800 0.3045180800
0.7261708250 0.7701189500 0.3090252000
0.7660478200 0.7732973200 0.3135323200
0.8059248150 0.7764756900 0.3180394400
0.8458018100 0.7796540600 0.3225465600
0.8856788050 0.7828324300 0.3270536800
0.2596801250 0.7789707500 0.2701020000
0.2995571200 0.7821491200 0.2746091200
0.3394341150 0.7853274900 0.2791162400
0.3793111100 0.7885058600 0.2836233600
0.4191881050 0.7916842300 0.2881304800
0.4590651000 0.7948626000 0.2926376000
0.4989420950 0.7980409700 0.2971447200
0.5388190900 0.8012193400 0.3016518400
0.5786960850 0.8043977100 0.3061589600
0.6185730800 0.8075760800 0.3106660800
0.6584500750 0.8107544500 0.3151732000
0.6983270700 0.8139328200 0.3196803200
0.7382040650 0.8171111900 0.3241874400
0.7780810600 0.8202895600 0.3286945600
0.8179580550 0.8234679300 0.3332016800
0.8578350500 0.8266463000 0.3377088000
0.8977120450 0.8298246700 0.3422159200
0.2717133650 0.8259629900 0.2852642400
0.3115903600 0.8291413600 0.2897713600
0.3514673550 0.8323197300 0.2942784800
0.3913443500 0.8354981000 0.2987856000
0.4312213450 0.8386764700 0.3032927200
0.4710983400 0.8418548400 0.3077998400
0.5109753350 0.8450332100 0.3123069600
0.5508523300 0.8482115800 0.3168140800
0.5907293250 0.8513899500 0.3213212000
0.6306063200 0.8545683200 0.3258283200
0.6704833150 0.8577466900 0.3303354400
0.7103603100 0.8609250600 0.3348425600
0.7502373050 0.8641034300 0.3393496800
0.7901143000 0.8672818000 0.3438568000
0.8299912950 0.8704601700 0.3483639200
0.8698682900 0.8736385400 0.3528710400
0.9097452850 0.8768169100 0.3573781600
0.2837466050 0.8729552300 0.3004264800
0.3236236000 0.8761336000 0.3049336000
0.3635005950 0.8793119700 0.3094407200
0.4033775900 0.8824903400 0.3139478400
0.4432545850 0.8856687100 0.3184549600
0.4831315800 0.8888470800 0.3229620800
0.5230085750 0.8920254500 0.3274692000
0.5628855700 0.8952038200 0.3319763200
0.6027625650 0.8983821900 0.3364834400
0.6426395600 0.9015605600 0.3409905600
0.6825165550 0.9047389300 0.3454976800
0.7223935500 0.9079173000 0.3500048000
0.7622705450 0.9110956700 0.3545119200
0.8021475400 0.9142740400 0.3590190400
0.8420245350 0.9174524100 0.3635261600
0.8819015300 0.9206307800 0.3680332800
0.9217785250 0.9238091500 0.3725404000
0.1317075300 0.1319782800 0.2036757800
0.1705215250 0.1348909000 0.2052596500
0.2093355200 0.1378035200 0.2068435200
0.2481495150 0.1407161400 0.2084273900
0.2869635100 0.1436287600 0.2100112600
0.3257775050 0.1465413800 0.2115951300
0.3645915000 0.1494540000 0.2131790000
0.4034054950 0.1523666200 0.2147628700
0.4422194900 0.1552792400 0.2163467400
0.4810334850 0.1581918600 0.2179306100
0.5198474800 0.1611044800 0.2195144800
0.5586614750 0.1640171000 0.2210983500
0.5974754700 0.1669297200 0.2226822200
0.6362894650 0.1698423400 0.2242660900
0.6751034600 0.1727549600 0.2258499600
0.7139174550 0.1756675800 0.2274338300
0.7527314500 0.1785802000 0.2290177000
0.1401647700 0.1780765200 0.2090040200
0.1789787650 0.1809891400 0.2105878900
0.2177927600 0.1839017600 0.2121717600
0.2566067550 0.1868143800 0.2137556300
0.2954207500 0.1897270000 0.2153395000
0.3342347450 0.1926396200 0.2169233700
0.3730487400 0.1955522400 0.2185072400
0.4118627350 0.1984648600 0.2200911100
0.4506767300 0.2013774800 0.2216749800
0.4894907250 0.2042901000 0.2232588500
0.5283047200 0.2072027200 0.2248427200
0.5671187150 0.2101153400 0.2264265900
0.6059327100 0.2130279600 0.2280104600
0.6447467050 0.2159405800 0.2295943300
0.6835607000 0.2188532000 0.2311782000
0.7223746950 0.2217658200 0.2327620700
0.7611886900 0.2246784400 0.2343459400
0.1486220100 0.2241747600 0.2143322600
0.1874360050 0.2270873800 0.2159161300
