webapp/static/gallery_seeds/faded-vintage-film/lut.cube
LUT_3D_SIZE 5
DOMAIN_MIN 0 0 0
DOMAIN_MAX 1 1 1
0.1300000000 0.1300000000 0.1300000000
0.2852559800 0.1416504800 0.1363354800
0.4405119600 0.1533009600 0.1426709600
0.5957679400 0.1649514400 0.1490064400
0.7510239200 0.1766019200 0.1553419200
0.1638289600 0.3143929600 0.1513129600
0.3190849400 0.3260434400 0.1576484400
0.4743409200 0.3376939200 0.1639839200
0.6295969000 0.3493444000 0.1703194000
0.7848528800 0.3609948800 0.1766548800
0.1976579200 0.4987859200 0.1726259200
0.3529139000 0.5104364000 0.1789614000
0.5081698800 0.5220868800 0.1852968800
0.6647898600 0.5340783600 0.1953833600
0.8242978400 0.5467918400 0.2134118400
0.2343988800 0.6839068800 0.2019468800
0.3939068600 0.6966203600 0.2199753600
0.5534148400 0.7093338400 0.2380038400
0.7129228200 0.7220473200 0.2560323200
0.8724308000 0.7347608000 0.2740608000
0.2825318400 0.8718758400 0.2625958400
0.4420398200 0.8845893200 0.2806243200
0.6015478000 0.8973028000 0.2986528000
0.7610557800 0.9100162800 0.3166812800
0.9205637600 0.9227297600 0.3347097600
0.1334150600 0.1339565600 0.2773515600
0.2886710400 0.1456070400 0.2836870400
0.4439270200 0.1572575200 0.2900225200
0.5991830000 0.1689080000 0.2963580000
0.7544389800 0.1805584800 0.3026934800
0.1672440200 0.3183495200 0.2986645200
0.3225000000 0.3300000000 0.3050000000
0.4777559800 0.3416504800 0.3113354800
0.6330119600 0.3533009600 0.3176709600
0.7882679400 0.3649514400 0.3240064400
0.2010729800 0.5027424800 0.3199774800
0.3563289600 0.5143929600 0.3263129600
0.5115849400 0.5260434400 0.3326484400
0.6696489200 0.5383959200 0.3467059200
0.8291569000 0.5511094000 0.3647344000
0.2392579400 0.6882244400 0.3532694400
0.3987659200 0.7009379200 0.3712979200
0.5582739000 0.7136514000 0.3893264000
0.7177818800 0.7263648800 0.4073548800
0.8772898600 0.7390783600 0.4253833600
0.2873909000 0.8761934000 0.4139184000
0.4468988800 0.8889068800 0.4319468800
0.6064068600 0.9016203600 0.4499753600
0.7659148400 0.9143338400 0.4680038400
0.9254228200 0.9270473200 0.4860323200
0.1368301200 0.1379131200 0.4247031200
0.2920861000 0.1495636000 0.4310386000
0.4473420800 0.1612140800 0.4373740800
0.6025980600 0.1728645600 0.4437095600
0.7578540400 0.1845150400 0.4500450400
0.1706590800 0.3223060800 0.4460160800
0.3259150600 0.3339565600 0.4523515600
0.4811710400 0.3456070400 0.4586870400
0.6364270200 0.3572575200 0.4650225200
0.7916830000 0.3689080000 0.4713580000
0.2044880400 0.5066990400 0.4673290400
0.3597440200 0.5183495200 0.4736645200
0.5150000000 0.5300000000 0.4800000000
0.6745079800 0.5427134800 0.4980284800
0.8340159600 0.5554269600 0.5160569600
0.2441170000 0.6925420000 0.5045920000
0.4036249800 0.7052554800 0.5226204800
0.5631329600 0.7179689600 0.5406489600
0.7226409400 0.7306824400 0.5586774400
0.8821489200 0.7433959200 0.5767059200
0.2922499600 0.8805109600 0.5652409600
0.4517579400 0.8932244400 0.5832694400
0.6112659200 0.9059379200 0.6012979200
0.7707739000 0.9186514000 0.6193264000
0.9302818800 0.9313648800 0.6373548800
0.1402451800 0.1418696800 0.5720546800
0.2955011600 0.1535201600 0.5783901600
0.4507571400 0.1651706400 0.5847256400
0.6060131200 0.1768211200 0.5910611200
0.7612691000 0.1884716000 0.5973966000
0.1740741400 0.3262626400 0.5933676400
0.3293301200 0.3379131200 0.5997031200
0.4845861000 0.3495636000 0.6060386000
0.6398420800 0.3612140800 0.6123740800
0.7950980600 0.3728645600 0.6187095600
0.2079031000 0.5106556000 0.6146806000
0.3631590800 0.5223060800 0.6210160800
0.5198590600 0.5343175600 0.6313225600
0.6793670400 0.5470310400 0.6493510400
0.8388750200 0.5597445200 0.6673795200
0.2489760600 0.6968595600 0.6559145600
0.4084840400 0.7095730400 0.6739430400
0.5679920200 0.7222865200 0.6919715200
0.7275000000 0.7350000000 0.7100000000
0.8870079800 0.7477134800 0.7280284800
0.2971090200 0.8848285200 0.7165635200
0.4566170000 0.8975420000 0.7345920000
0.6161249800 0.9102554800 0.7526204800
0.7756329600 0.9229689600 0.7706489600
0.9351409400 0.9356824400 0.7886774400
0.1436602400 0.1458262400 0.7194062400
0.2989162200 0.1574767200 0.7257417200
0.4541722000 0.1691272000 0.7320772000
0.6094281800 0.1807776800 0.7384126800
0.7646841600 0.1924281600 0.7447481600
0.1774892000 0.3302192000 0.7407192000
0.3327451800 0.3418696800 0.7470546800
0.4880011600 0.3535201600 0.7533901600
0.6432571400 0.3651706400 0.7597256400
0.7985131200 0.3768211200 0.7660611200
0.2113181600 0.5146121600 0.7620321600
0.3665741400 0.5262626400 0.7683676400
0.5247181200 0.5386351200 0.7826451200
0.6842261000 0.5513486000 0.8006736000
0.8437340800 0.5640620800 0.8187020800
0.2538351200 0.7011771200 0.8072371200
0.4133431000 0.7138906000 0.8252656000
0.5728510800 0.7266040800 0.8432940800
0.7323590600 0.7393175600 0.8613225600
0.8918670400 0.7520310400 0.8793510400
0.3019680800 0.8891460800 0.8678860800
0.4614760600 0.9018595600 0.8859145600
0.6209840400 0.9145730400 0.9039430400
0.7804920200 0.9272865200 0.9219715200
0.9400000000 0.9400000000 0.9400000000
